<?xml version="1.0" encoding="UTF-8"?>
<map version="1.8" tiledversion="1.8.2" orientation="orthogonal" renderorder="right-down" width="150" height="15" tilewidth="16" tileheight="16" infinite="0" nextlayerid="13" nextobjectid="151">
 <properties>
  <property name="spawn_mario_x" type="int" value="1"/>
  <property name="spawn_mario_y" type="int" value="13"/>
 </properties>
 <tileset firstgid="1" name="mapTiles-2" tilewidth="16" tileheight="16" tilecount="812" columns="29">
  <image source="../tilesets/tiles-2.png" width="464" height="448"/>
 </tileset>
 <layer id="8" name="background" width="150" height="15" locked="1">
  <data encoding="csv">
613,613,613,613,613,613,613,613,613,613,613,613,613,613,613,613,613,613,613,613,613,613,613,613,613,613,613,613,613,613,613,613,613,613,613,613,613,613,613,613,613,613,613,613,613,613,613,613,613,613,613,613,613,613,613,613,613,613,613,613,613,613,613,613,613,613,613,613,613,613,613,613,613,613,613,613,613,613,613,613,613,613,613,613,613,613,613,613,613,613,613,613,613,613,613,613,613,613,613,613,613,613,613,613,613,613,613,613,613,613,613,613,613,613,613,613,613,613,613,613,613,613,613,613,613,613,613,613,613,613,613,613,613,613,613,613,613,613,613,613,613,613,613,613,613,613,613,613,613,613,
613,613,613,613,613,613,613,613,613,613,613,613,613,613,613,613,613,613,613,613,613,613,613,613,613,613,613,613,613,613,613,613,613,613,613,613,613,613,613,613,613,613,613,613,613,613,613,613,613,613,613,613,613,613,613,613,613,613,613,613,613,613,613,613,613,613,613,613,613,613,613,613,613,613,613,613,613,613,613,613,613,613,613,613,613,613,613,613,613,613,613,613,613,613,613,613,613,613,613,613,613,613,613,613,613,613,613,613,613,613,613,613,613,613,613,613,613,613,613,613,613,613,613,613,613,613,613,613,613,613,613,613,613,613,613,613,613,613,613,613,613,613,613,613,613,613,613,613,613,613,
613,613,613,613,613,613,613,613,613,613,613,613,613,613,613,613,613,613,613,613,613,613,613,613,613,613,613,613,613,613,613,613,613,613,613,613,613,613,613,613,613,613,613,613,613,613,613,613,613,613,613,613,613,613,613,613,613,613,613,613,613,613,613,613,613,613,613,613,613,613,613,613,613,613,613,613,613,613,613,613,613,613,613,613,613,613,613,613,613,613,613,613,613,613,613,613,613,613,613,613,613,613,613,613,613,613,613,613,613,613,613,613,613,613,613,613,613,613,613,613,613,613,613,613,613,613,613,613,613,613,613,613,613,613,613,613,613,613,613,613,613,613,613,613,613,613,613,613,613,613,
613,613,613,613,613,613,613,613,613,613,613,613,613,613,613,613,613,613,613,613,613,613,613,613,613,613,613,613,613,613,613,613,613,613,613,613,613,613,613,613,613,613,613,613,613,613,613,613,613,613,613,613,613,613,613,613,613,613,613,613,613,613,613,613,613,613,613,613,613,613,613,613,613,613,613,613,613,613,613,613,613,613,613,613,613,613,613,613,613,613,613,613,613,613,613,613,613,613,613,613,613,613,613,613,613,613,613,613,613,613,613,613,613,613,613,613,613,613,613,613,613,613,613,613,613,613,613,613,613,613,613,613,613,613,613,613,613,613,613,613,613,613,613,613,613,613,613,613,613,613,
613,613,613,613,613,613,613,613,613,613,613,613,613,613,613,613,613,613,613,613,613,613,613,613,613,613,613,613,613,613,613,613,613,613,613,613,613,613,613,613,613,613,613,613,613,613,613,613,613,613,613,613,613,613,613,613,613,613,613,613,613,613,613,613,613,613,613,613,613,613,613,613,613,613,613,613,613,613,613,613,613,613,613,613,613,613,613,613,613,613,613,613,613,613,613,613,613,613,613,613,613,613,613,613,613,613,613,613,613,613,613,613,613,613,613,613,613,613,613,613,613,613,613,613,613,613,613,613,613,613,613,613,613,613,613,613,613,613,613,613,613,613,613,613,613,613,613,613,613,613,
613,613,613,613,613,613,613,613,613,613,613,613,613,613,613,613,613,613,613,613,613,613,613,613,613,613,613,613,613,613,613,613,613,613,613,613,613,613,613,613,613,613,613,613,613,613,613,613,613,613,613,613,613,613,613,613,613,613,613,613,613,613,613,613,613,613,613,613,613,613,613,613,613,613,613,613,613,613,613,613,613,613,613,613,613,613,613,613,613,613,613,613,613,613,613,613,613,613,613,613,613,613,613,613,613,613,613,613,613,613,613,613,613,613,613,613,613,613,613,613,613,613,613,613,613,613,613,613,613,613,613,613,613,613,613,613,613,613,613,613,613,613,613,613,613,613,613,613,613,613,
613,613,613,613,613,613,613,613,613,613,613,613,613,613,613,613,613,613,613,613,613,613,613,613,613,613,613,613,613,613,613,613,613,613,613,613,613,613,613,613,613,613,613,613,613,613,613,613,613,613,613,613,613,613,613,613,613,613,613,613,613,613,613,613,613,613,613,613,613,613,613,613,613,613,613,613,613,613,613,613,613,613,613,613,613,613,613,613,613,613,613,613,613,613,613,613,613,613,613,613,613,613,613,613,613,613,613,613,613,613,613,613,613,613,613,613,613,613,613,613,613,613,613,613,613,613,613,613,613,613,613,613,613,613,613,613,613,613,613,613,613,613,613,613,613,613,613,613,613,613,
613,613,613,613,613,613,613,613,613,613,613,613,613,613,613,613,613,613,613,613,613,613,613,613,613,613,613,613,613,613,613,613,613,613,613,613,613,613,613,613,613,613,613,613,613,613,613,613,613,613,613,613,613,613,613,613,613,613,613,613,613,613,613,613,613,613,613,613,613,613,613,613,613,613,613,613,613,613,613,613,613,613,613,613,613,613,613,613,613,613,613,613,613,613,613,613,613,613,613,613,613,613,613,613,613,613,613,613,613,613,613,613,613,613,613,613,613,613,613,613,613,613,613,613,613,613,613,613,613,613,613,613,613,613,613,613,613,613,613,613,613,613,613,613,613,613,613,613,613,613,
613,613,613,613,613,613,613,613,613,613,613,613,613,613,613,613,613,613,613,613,613,613,613,613,613,613,613,613,613,613,613,613,613,613,613,613,613,613,613,613,613,613,613,613,613,613,613,613,613,613,613,613,613,613,613,613,613,613,613,613,613,613,613,613,613,613,613,613,613,613,613,613,613,613,613,613,613,613,613,613,613,613,613,613,613,613,613,613,613,613,613,613,613,613,613,613,613,613,613,613,613,613,613,613,613,613,613,613,613,613,613,613,613,613,613,613,613,613,613,613,613,613,613,613,613,613,613,613,613,613,613,613,613,613,613,613,613,613,613,613,613,613,613,613,613,613,613,613,613,613,
613,613,613,613,613,613,613,613,613,613,613,613,613,613,613,613,613,613,613,613,613,613,613,613,613,613,613,613,613,613,613,613,613,613,613,613,613,613,613,613,613,613,613,613,613,613,613,613,613,613,613,613,613,613,613,613,613,613,613,613,613,613,613,613,613,613,613,613,613,613,613,613,613,613,613,613,613,613,613,613,613,613,613,613,613,613,613,613,613,613,613,613,613,613,613,613,613,613,613,613,613,613,613,613,613,613,613,613,613,613,613,613,613,613,613,613,613,613,613,613,613,613,613,613,613,613,613,613,613,613,613,613,613,613,613,613,613,613,613,613,613,613,613,613,613,613,613,613,613,613,
613,613,613,613,613,613,613,613,613,613,613,613,613,613,613,613,613,613,613,613,613,613,613,613,613,613,613,613,613,613,613,613,613,613,613,613,613,613,613,613,613,613,613,613,613,613,613,613,613,613,613,613,613,613,613,613,613,613,613,613,613,613,613,613,613,613,613,613,613,613,613,613,613,613,613,613,613,613,613,613,613,613,613,613,613,613,613,613,613,613,613,613,613,613,613,613,613,613,613,613,613,613,613,613,613,613,613,613,613,613,613,613,613,613,613,613,613,613,613,613,613,613,613,613,613,613,613,613,613,613,613,613,613,613,613,613,613,613,613,613,613,613,613,613,613,613,613,613,613,613,
613,613,613,613,613,613,613,613,613,613,613,613,613,613,613,613,613,613,613,613,613,613,613,613,613,613,613,613,613,613,613,613,613,613,613,613,613,613,613,613,613,613,613,613,613,613,613,613,613,613,613,613,613,613,613,613,613,613,613,613,613,613,613,613,613,613,613,613,613,613,613,613,613,613,613,613,613,613,613,613,613,613,613,613,613,613,613,613,613,613,613,613,613,613,613,613,613,613,613,613,613,613,613,613,613,613,613,613,613,613,613,613,613,613,613,613,613,613,613,613,613,613,613,613,613,613,613,613,613,613,613,613,613,613,613,613,613,613,613,613,613,613,613,613,613,613,613,613,613,613,
613,613,613,613,613,613,613,613,613,613,613,613,613,613,613,613,613,613,613,613,613,613,613,613,613,613,613,613,613,613,613,613,613,613,613,613,613,613,613,613,613,613,613,613,613,613,613,613,613,613,613,613,613,613,613,613,613,613,613,613,613,613,613,613,613,613,613,613,613,613,613,613,613,613,613,613,613,613,613,613,613,613,613,613,613,613,613,613,613,613,613,613,613,613,613,613,613,613,613,613,613,613,613,613,613,613,613,613,613,613,613,613,613,613,613,613,613,613,613,613,613,613,613,613,613,613,613,613,613,613,613,613,613,613,613,613,613,613,613,613,613,613,613,613,613,613,613,613,613,613,
613,613,613,613,613,613,613,613,613,613,613,613,613,613,613,613,613,613,613,613,613,613,613,613,613,613,613,613,613,613,613,613,613,613,613,613,613,613,613,613,613,613,613,613,613,613,613,613,613,613,613,613,613,613,613,613,613,613,613,613,613,613,613,613,613,613,613,613,613,613,613,613,613,613,613,613,613,613,613,613,613,613,613,613,613,613,613,613,613,613,613,613,613,613,613,613,613,613,613,613,613,613,613,613,613,613,613,613,613,613,613,613,613,613,613,613,613,613,613,613,613,613,613,613,613,613,613,613,613,613,613,613,613,613,613,613,613,613,613,613,613,613,613,613,613,613,613,613,613,613,
613,613,613,613,613,613,613,613,613,613,613,613,613,613,613,613,613,613,613,613,613,613,613,613,613,613,613,613,613,613,613,613,613,613,613,613,613,613,613,613,613,613,613,613,613,613,613,613,613,613,613,613,613,613,613,613,613,613,613,613,613,613,613,613,613,613,613,613,613,613,613,613,613,613,613,613,613,613,613,613,613,613,613,613,613,613,613,613,613,613,613,613,613,613,613,613,613,613,613,613,613,613,613,613,613,613,613,613,613,613,613,613,613,613,613,613,613,613,613,613,613,613,613,613,613,613,613,613,613,613,613,613,613,613,613,613,613,613,613,613,613,613,613,613,613,613,613,613,613,613
</data>
 </layer>
 <objectgroup id="3" name="ground" locked="1">
  <object id="2" x="0" y="223.844" width="799.333" height="16.3129"/>
  <object id="3" x="1040" y="224" width="336" height="16"/>
  <object id="4" x="1440" y="224" width="304" height="16"/>
  <object id="5" x="1808" y="224" width="352" height="16"/>
 </objectgroup>
 <objectgroup id="5" name="pipes" locked="1">
  <object id="19" x="576" y="192" width="32" height="32"/>
  <object id="20" x="768" y="160" width="32" height="62.6667">
   <properties>
    <property name="has_piranha_plant" type="bool" value="true"/>
   </properties>
  </object>
  <object id="22" x="1568" y="160" width="32" height="64">
   <properties>
    <property name="has_piranha_plant" type="bool" value="true"/>
   </properties>
  </object>
  <object id="82" x="192" y="192" width="32" height="32">
   <properties>
    <property name="has_piranha_plant" type="bool" value="true"/>
   </properties>
  </object>
 </objectgroup>
 <objectgroup id="10" name="enemies" locked="1">
  <object id="85" x="480" y="192" width="16" height="16">
   <properties>
    <property name="isBig" type="bool" value="false"/>
    <property name="type" value="GOOMBA"/>
   </properties>
  </object>
  <object id="86" x="560" y="64" width="16" height="16">
   <properties>
    <property name="has_parachute" type="bool" value="true"/>
    <property name="isBig" type="bool" value="false"/>
    <property name="type" value="KOOPA_TROOPA"/>
   </properties>
  </object>
  <object id="87" x="688" y="208" width="16" height="16">
   <properties>
    <property name="type" value="TARTOSSO"/>
   </properties>
  </object>
  <object id="88" x="1136" y="208" width="16" height="16">
   <properties>
    <property name="isBig" type="bool" value="false"/>
    <property name="type" value="GOOMBA"/>
   </properties>
  </object>
  <object id="89" x="1264" y="208" width="16" height="16">
   <properties>
    <property name="type" value="GOOMBA"/>
   </properties>
  </object>
  <object id="123" x="1856" y="208" width="16" height="16">
   <properties>
    <property name="bulletType" value="B_BULLET_BILL"/>
    <property name="type" value="BLACK_CANNON"/>
   </properties>
  </object>
 </objectgroup>
 <objectgroup id="11" name="objects" locked="1">
  <object id="109" x="384" y="48" width="32" height="32">
   <properties>
    <property name="type" value="COIN_10"/>
   </properties>
  </object>
  <object id="110" x="272" y="112" width="16" height="16">
   <properties>
    <property name="type" value="COIN"/>
   </properties>
  </object>
  <object id="111" x="304" y="112" width="16" height="16">
   <properties>
    <property name="type" value="COIN"/>
   </properties>
  </object>
  <object id="112" x="576" y="144" width="32" height="32">
   <properties>
    <property name="type" value="COIN_30"/>
   </properties>
  </object>
  <object id="113" x="848" y="112" width="16" height="16">
   <properties>
    <property name="type" value="COIN"/>
   </properties>
  </object>
  <object id="114" x="896" y="112" width="16" height="16">
   <properties>
    <property name="type" value="COIN"/>
   </properties>
  </object>
  <object id="115" x="928" y="96" width="16" height="16">
   <properties>
    <property name="type" value="COIN"/>
   </properties>
  </object>
  <object id="116" x="960" y="48" width="16" height="16">
   <properties>
    <property name="type" value="COIN"/>
   </properties>
  </object>
  <object id="117" x="1008" y="48" width="16" height="16">
   <properties>
    <property name="type" value="COIN"/>
   </properties>
  </object>
  <object id="118" x="1056" y="48" width="16" height="16">
   <properties>
    <property name="type" value="COIN"/>
   </properties>
  </object>
  <object id="119" x="1376" y="144" width="16" height="16">
   <properties>
    <property name="type" value="COIN"/>
   </properties>
  </object>
  <object id="120" x="1408" y="144" width="16" height="16">
   <properties>
    <property name="type" value="COIN"/>
   </properties>
  </object>
 </objectgroup>
 <objectgroup id="6" name="bricks" locked="1">
  <object id="23" x="256" y="144" width="16" height="16"/>
  <object id="24" x="272" y="144" width="16" height="16"/>
  <object id="25" x="304" y="144" width="16" height="16"/>
  <object id="26" x="320" y="144" width="16" height="16"/>
  <object id="27" x="336" y="144" width="16" height="16"/>
  <object id="28" x="352" y="96" width="16" height="16"/>
  <object id="29" x="368" y="96" width="16" height="16"/>
  <object id="30" x="384" y="96" width="16" height="16"/>
  <object id="31" x="416" y="96" width="16" height="16"/>
  <object id="32" x="432" y="96" width="16" height="16"/>
  <object id="33" x="400" y="144" width="16" height="16"/>
  <object id="34" x="416" y="144" height="16"/>
  <object id="35" x="416" y="144" width="16" height="16"/>
  <object id="36" x="431.629" y="144" width="16" height="16"/>
  <object id="37" x="464" y="144" width="16" height="16"/>
  <object id="38" x="832" y="144" width="16" height="16"/>
  <object id="39" x="848" y="144" width="16" height="16"/>
  <object id="40" x="864" y="144" width="16" height="16"/>
  <object id="41" x="880" y="144" width="16" height="16"/>
  <object id="42" x="896" y="144" width="16" height="16"/>
  <object id="43" x="912" y="144" width="16" height="16"/>
  <object id="44" x="928" y="144" width="16" height="16"/>
  <object id="46" x="960" y="144" width="16" height="16"/>
  <object id="47" x="976" y="144" width="16" height="16"/>
  <object id="48" x="992" y="144" width="16" height="16"/>
  <object id="49" x="1008" y="144" width="16" height="16"/>
  <object id="50" x="1024" y="144" width="16" height="16"/>
  <object id="51" x="960" y="80" width="16" height="16"/>
  <object id="52" x="976" y="80" width="16" height="16"/>
  <object id="53" x="1008" y="80" width="16" height="16"/>
  <object id="54" x="1024" y="80" width="16" height="16"/>
  <object id="55" x="1040" y="80" width="16" height="16"/>
  <object id="56" x="1056" y="80" width="16" height="16"/>
  <object id="57" x="1072" y="80" width="16" height="16"/>
  <object id="58" x="1376" y="160" width="16" height="16"/>
  <object id="59" x="1392" y="160" width="16" height="16"/>
  <object id="60" x="1408" y="160" width="16" height="16"/>
  <object id="61" x="1424" y="160" width="16" height="16"/>
  <object id="81" x="944" y="144" width="16" height="16"/>
  <object id="125" x="63.67" y="192" width="16" height="16"/>
  <object id="126" x="79.3333" y="175.667" width="16" height="16"/>
  <object id="127" x="95.3333" y="159.333" width="16" height="16"/>
  <object id="128" x="111.667" y="144.333" width="16" height="16"/>
  <object id="129" x="128" y="127.667" width="16" height="16"/>
  <object id="130" x="144" y="111.333" width="16" height="16"/>
  <object id="131" x="160.333" y="95.3333" width="16" height="16"/>
  <object id="132" x="176.667" y="79.6667" width="16" height="16"/>
  <object id="133" x="191.667" y="64.3333" width="16" height="16"/>
  <object id="134" x="208.333" y="47.6667" width="16" height="16"/>
  <object id="135" x="223.667" y="47.6667" width="16" height="16"/>
  <object id="136" x="240" y="47.6667" width="16" height="16"/>
  <object id="137" x="255.667" y="48" width="16" height="16"/>
  <object id="138" x="272" y="64" width="16" height="16"/>
  <object id="139" x="288.333" y="80" width="16" height="16"/>
  <object id="140" x="304.667" y="96" width="16" height="16"/>
  <object id="141" x="320.667" y="112" width="16" height="16"/>
  <object id="142" x="336" y="112.333" width="16" height="16"/>
 </objectgroup>
 <objectgroup id="7" name="question_block" locked="1">
  <object id="74" x="288" y="144" width="16" height="16">
   <properties>
    <property name="flame_mushroom" type="bool" value="true"/>
   </properties>
  </object>
  <object id="75" x="400" y="96" width="16" height="16">
   <properties>
    <property name="coins" type="bool" value="true"/>
   </properties>
  </object>
  <object id="76" x="448" y="144" width="16" height="16">
   <properties>
    <property name="super_mario_mushroom" type="bool" value="true"/>
   </properties>
  </object>
  <object id="77" x="992" y="80" width="16" height="16">
   <properties>
    <property name="mega_mushroom" type="bool" value="true"/>
   </properties>
  </object>
 </objectgroup>
 <objectgroup id="4" name="square_brick" locked="1">
  <object id="6" x="2000" y="208" width="160" height="16"/>
  <object id="7" x="2016" y="192" width="144" height="16"/>
  <object id="8" x="2032" y="176" width="128" height="16"/>
  <object id="9" x="2064" y="160" width="96" height="16"/>
  <object id="10" x="2080" y="144" width="80" height="16"/>
  <object id="11" x="2096" y="128" width="64" height="16"/>
  <object id="12" x="2112" y="112" width="42" height="14"/>
  <object id="13" x="1808" y="208" width="16" height="16"/>
  <object id="14" x="1360" y="208" width="16" height="16"/>
  <object id="15" x="1040" y="208" width="16" height="16"/>
  <object id="144" x="2159.5" y="112" width="16" height="16"/>
  <object id="145" x="2159" y="127.5" width="33" height="16.5"/>
  <object id="146" x="2158.5" y="143.5" width="50" height="15.5"/>
  <object id="147" x="2160" y="159.5" width="64.5" height="16"/>
  <object id="148" x="2160" y="176.5" width="80.5" height="16"/>
  <object id="149" x="2159.5" y="191" width="97" height="16"/>
  <object id="150" x="2159" y="208.5" width="113.5" height="16"/>
 </objectgroup>
 <layer id="9" name="graphics" width="150" height="15" locked="1">
  <data encoding="csv">
0,0,0,0,0,0,0,0,0,0,0,0,0,0,0,0,0,0,0,0,0,0,0,0,0,0,0,0,0,0,0,0,0,0,0,0,0,0,0,0,0,0,0,0,0,0,0,0,0,0,0,0,0,0,0,0,0,0,0,0,0,0,0,0,0,0,0,0,0,0,0,0,0,0,0,0,0,0,0,0,0,0,0,0,0,0,0,0,0,0,0,0,0,0,0,0,0,0,0,0,0,0,0,0,0,0,0,0,0,0,0,0,0,0,0,0,0,0,0,0,0,0,0,0,0,0,0,0,0,0,0,0,0,0,0,0,0,0,0,0,0,0,0,0,0,0,0,0,0,0,
0,0,0,0,0,0,0,0,0,0,0,0,0,0,0,0,0,0,0,0,0,0,0,0,0,0,0,0,0,0,0,0,0,0,0,0,0,0,0,0,0,0,0,0,0,0,0,0,0,0,0,0,0,0,0,0,0,0,0,0,0,0,0,0,0,0,0,0,0,0,0,0,0,0,0,0,0,0,0,0,0,0,0,0,0,0,0,0,0,0,0,0,0,0,0,0,0,0,0,0,0,0,0,0,0,0,0,0,0,0,0,0,0,0,0,0,0,0,0,0,0,0,0,0,0,0,0,0,0,0,0,0,0,0,0,0,0,0,0,0,0,0,0,0,0,0,0,0,0,0,
0,0,0,0,0,0,0,0,0,0,0,0,0,0,0,0,0,0,0,0,0,0,0,0,0,0,0,0,0,0,0,0,0,0,0,0,0,0,0,0,0,0,0,0,0,0,0,0,0,0,0,0,0,0,0,0,0,0,0,0,0,0,0,0,0,0,0,0,0,0,0,0,0,0,0,0,0,0,0,0,0,0,0,0,0,0,0,0,0,0,0,0,0,0,0,0,0,0,0,0,0,0,0,0,0,0,0,0,0,0,0,0,0,0,0,0,0,0,0,0,0,0,0,0,0,0,0,0,0,0,0,0,0,0,0,0,0,0,0,0,0,0,0,0,0,0,0,0,0,0,
0,0,0,0,0,0,0,0,0,0,0,0,0,3,3,3,3,0,0,0,0,0,0,0,0,0,0,0,0,0,0,0,0,0,0,0,0,0,0,0,0,0,0,0,0,0,0,0,0,0,0,0,0,0,0,0,0,0,0,0,0,0,0,0,0,0,0,0,0,0,0,0,0,0,0,0,0,0,0,0,0,0,0,0,0,0,0,0,0,0,0,0,0,0,0,0,0,0,0,0,0,0,0,0,0,0,0,0,0,0,0,0,0,0,0,0,0,0,0,0,0,0,0,0,0,0,0,0,0,0,0,0,0,0,0,0,0,0,0,0,0,0,0,0,0,0,0,0,0,0,
0,0,0,0,0,0,0,0,0,0,0,0,3,0,0,0,0,3,0,0,0,0,0,0,0,0,0,0,0,0,0,0,0,0,0,0,0,0,0,0,0,0,0,0,0,0,0,0,0,0,0,0,0,0,0,0,0,0,0,0,0,0,0,0,0,0,0,0,0,0,0,0,0,0,0,0,0,0,0,0,0,0,0,0,0,0,0,0,0,0,0,0,0,0,0,0,0,0,0,0,0,0,0,0,0,0,0,0,0,0,0,0,0,0,0,0,0,0,0,0,0,0,0,0,0,0,0,0,0,0,0,0,0,0,0,0,0,0,0,0,0,0,0,0,0,0,0,0,0,0,
0,0,0,0,0,0,0,0,0,0,0,3,0,0,0,0,0,0,3,0,0,0,0,0,0,0,0,0,0,0,0,0,0,0,0,0,0,0,0,0,0,0,0,0,0,0,0,0,0,0,0,0,0,0,0,0,0,0,0,0,2,2,24,2,2,2,2,2,0,0,0,0,0,0,0,0,0,0,0,0,0,0,0,0,0,0,0,0,0,0,0,0,0,0,0,0,0,0,0,0,0,0,0,0,0,0,0,0,0,0,0,0,0,0,0,0,0,0,0,0,0,0,0,0,0,0,0,0,0,0,0,0,0,0,0,0,0,0,0,0,0,0,0,0,0,0,0,0,0,0,
0,0,0,0,0,0,0,0,0,0,3,0,0,0,0,0,0,0,0,3,0,0,2,2,2,24,2,2,0,0,0,0,0,0,0,0,0,0,0,0,0,0,0,0,0,0,0,0,0,0,0,0,0,0,0,0,0,0,0,0,0,0,0,0,0,0,0,0,0,0,0,0,0,0,0,0,0,0,0,0,0,0,0,0,0,0,0,0,0,0,0,0,0,0,0,0,0,0,0,0,0,0,0,0,0,0,0,0,0,0,0,0,0,0,0,0,0,0,0,0,0,0,0,0,0,0,0,0,0,0,0,0,0,0,0,0,0,0,0,0,0,0,0,0,0,0,0,0,0,0,
0,0,0,0,0,0,0,0,0,3,0,0,0,0,0,0,0,0,0,0,3,3,0,0,0,0,0,0,0,0,0,0,0,0,0,0,0,0,0,0,0,0,0,0,0,0,0,0,0,0,0,0,0,0,0,0,0,0,0,0,0,0,0,0,0,0,0,0,0,0,0,0,0,0,0,0,0,0,0,0,0,0,0,0,0,0,0,0,0,0,0,0,0,0,0,0,0,0,0,0,0,0,0,0,0,0,0,0,0,0,0,0,0,0,0,0,0,0,0,0,0,0,0,0,0,0,0,0,0,0,0,0,30,30,30,30,0,0,0,0,0,0,0,0,0,0,0,0,0,0,
0,0,0,0,0,0,0,0,3,0,0,0,0,0,0,0,0,0,0,0,0,0,0,0,0,0,0,0,0,0,0,0,0,0,0,0,0,0,0,0,0,0,0,0,0,0,0,0,0,0,0,0,0,0,0,0,0,0,0,0,0,0,0,0,0,0,0,0,0,0,0,0,0,0,0,0,0,0,0,0,0,0,0,0,0,0,0,0,0,0,0,0,0,0,0,0,0,0,0,0,0,0,0,0,0,0,0,0,0,0,0,0,0,0,0,0,0,0,0,0,0,0,0,0,0,0,0,0,0,0,0,30,30,30,30,30,30,0,0,0,0,0,0,0,0,0,0,0,0,0,
0,0,0,0,0,0,0,3,0,0,0,0,0,0,0,0,2,2,24,2,2,2,0,0,0,2,2,2,24,2,0,0,0,0,0,0,0,0,0,0,0,0,0,0,0,0,0,0,0,0,0,0,2,2,2,2,2,2,2,2,2,2,2,2,2,0,0,0,0,0,0,0,0,0,0,0,0,0,0,0,0,0,0,0,0,0,0,0,0,0,0,0,0,0,0,0,0,0,0,0,0,0,0,0,0,0,0,0,0,0,0,0,0,0,0,0,0,0,0,0,0,0,0,0,0,0,0,0,0,0,30,30,30,30,30,30,30,30,0,0,0,0,0,0,0,0,0,0,0,0,
0,0,0,0,0,0,3,0,0,0,0,0,0,0,0,0,0,0,0,0,0,0,0,0,0,0,0,0,0,0,0,0,0,0,0,0,0,0,0,0,0,0,0,0,0,0,0,0,233,234,0,0,0,0,0,0,0,0,0,0,0,0,0,0,0,0,0,0,0,0,0,0,0,0,0,0,0,0,0,0,0,0,0,0,0,0,2,2,2,2,0,0,0,0,0,0,0,0,233,234,0,0,0,0,0,0,0,0,0,0,0,0,0,0,0,0,0,0,0,0,0,0,0,0,0,0,0,0,0,30,30,30,30,30,30,30,30,30,30,0,0,0,0,0,0,0,0,0,0,0,
0,0,0,0,0,3,0,0,0,0,0,0,0,0,0,0,0,0,0,0,0,0,0,0,0,0,0,0,0,0,0,0,0,0,0,0,0,0,0,0,0,0,0,0,0,0,0,0,262,263,0,0,0,0,0,0,0,0,0,0,0,0,0,0,0,0,0,0,0,0,0,0,0,0,0,0,0,0,0,0,0,0,0,0,0,0,0,0,0,0,0,0,0,0,0,0,0,0,262,263,0,0,0,0,0,0,0,0,0,0,0,0,0,0,0,0,0,0,0,0,0,0,0,0,0,0,0,30,30,30,30,30,30,30,30,30,30,30,30,30,0,0,0,0,0,0,0,0,0,0,
0,0,0,0,3,0,0,0,0,0,0,0,233,234,0,0,0,0,0,0,0,0,0,0,0,0,0,0,0,0,0,0,0,0,0,0,233,234,0,0,0,0,0,0,0,0,0,0,262,263,0,0,0,0,0,0,0,0,0,0,0,0,0,0,0,0,0,0,0,0,0,0,0,0,0,0,0,0,0,0,0,0,0,0,0,0,0,0,0,0,0,0,0,0,0,0,0,0,262,263,0,0,0,0,0,0,0,0,0,0,0,0,0,0,0,0,0,0,0,0,0,0,0,0,0,0,30,30,30,30,30,30,30,30,30,30,30,30,30,30,30,0,0,0,0,0,0,0,0,0,
0,0,0,0,0,0,0,0,0,0,0,0,262,263,0,0,0,0,0,0,0,0,0,0,0,0,0,0,0,0,0,0,0,0,0,0,262,263,0,0,0,0,0,0,0,0,0,0,262,263,0,0,0,0,0,0,0,0,0,0,0,0,0,0,0,30,0,0,0,0,0,0,0,0,0,0,0,0,0,0,0,0,0,0,0,30,0,0,0,0,0,0,0,0,0,0,0,0,262,263,0,0,0,0,0,0,0,0,0,0,0,0,0,30,0,0,0,0,0,0,0,0,0,0,0,30,30,30,30,30,30,30,30,30,30,30,30,30,30,30,30,30,0,0,0,0,0,0,0,0,
1,1,1,1,1,1,1,1,1,1,1,1,1,1,1,1,1,1,1,1,1,1,1,1,1,1,1,1,1,1,1,1,1,1,1,1,1,1,1,1,1,1,1,1,1,1,1,1,1,1,0,0,0,0,0,0,0,0,0,0,0,0,0,0,0,1,1,1,1,1,1,1,1,1,1,1,1,1,1,1,1,1,1,1,1,1,0,0,0,0,1,1,1,1,1,1,1,1,1,1,1,1,1,1,1,1,1,1,1,0,0,0,0,1,1,1,1,1,1,1,1,1,1,1,1,1,1,1,1,1,1,1,1,1,1,1,1,1,1,1,1,1,1,1,1,1,1,1,1,1
</data>
 </layer>
</map>
