<?xml version="1.0" encoding="UTF-8"?>
<map version="1.8" tiledversion="1.8.2" orientation="orthogonal" renderorder="right-down" width="150" height="15" tilewidth="16" tileheight="16" infinite="0" nextlayerid="13" nextobjectid="220">
 <properties>
  <property name="spawn_mario_x" type="int" value="3"/>
  <property name="spawn_mario_y" type="int" value="12"/>
 </properties>
 <tileset firstgid="1" name="mapTiles-2" tilewidth="16" tileheight="16" tilecount="812" columns="29">
  <image source="../tilesets/tiles-2.png" width="464" height="448"/>
 </tileset>
 <layer id="8" name="decoration" width="150" height="15">
  <data encoding="csv">
613,613,613,613,613,613,613,613,613,613,613,613,613,613,613,613,613,613,613,613,613,613,613,613,613,613,613,613,613,613,613,613,613,613,613,613,613,613,613,613,613,613,613,613,613,613,613,613,613,613,613,613,613,613,613,613,613,613,613,613,613,613,613,613,613,613,613,613,613,613,613,613,613,613,613,613,613,613,613,613,613,613,613,613,613,613,613,613,613,613,613,613,613,613,613,613,613,613,613,613,613,613,613,613,613,613,613,613,613,613,613,613,613,613,613,613,613,613,613,613,613,613,613,613,613,613,613,613,613,613,613,613,613,613,613,671,671,671,671,671,671,671,671,671,671,671,671,671,671,671,
613,613,613,613,613,613,613,613,613,613,613,613,613,613,613,613,613,613,613,613,613,613,613,613,613,613,613,613,613,613,613,613,613,613,613,613,613,613,613,613,613,613,613,613,613,613,613,613,613,613,613,613,613,613,613,613,613,613,613,613,613,613,613,613,613,613,613,613,613,613,613,613,613,613,613,613,613,613,613,613,613,613,613,613,613,613,613,613,613,613,613,613,613,613,613,613,613,613,613,613,613,613,613,613,613,613,613,613,613,613,613,613,613,613,613,613,613,613,613,613,613,613,613,613,613,613,613,613,613,613,613,613,613,613,613,671,671,671,671,671,671,671,671,671,671,671,671,671,671,671,
613,613,613,613,613,613,613,613,613,613,613,613,613,613,613,613,613,613,613,613,613,613,613,613,613,613,613,613,613,613,613,613,613,613,613,613,613,613,613,613,613,613,613,613,613,613,613,613,613,613,613,613,613,613,613,613,613,613,613,613,613,613,613,613,613,613,613,613,613,613,613,613,613,613,613,613,613,613,613,613,613,613,613,613,613,613,613,613,613,613,613,613,613,613,613,613,613,613,613,613,613,613,613,613,613,613,613,613,613,613,613,613,613,613,613,613,613,613,613,613,613,613,613,613,613,613,613,613,613,613,613,613,613,613,613,671,671,671,671,671,671,671,671,671,671,671,671,671,671,671,
613,613,613,613,613,613,613,613,613,613,613,613,613,613,613,613,613,613,613,613,613,613,613,613,613,613,613,613,613,613,613,613,613,613,613,613,613,613,613,613,613,613,613,613,613,613,613,613,613,613,613,613,613,613,613,613,613,613,613,613,613,613,613,613,613,613,613,613,613,613,613,613,613,613,613,613,613,613,613,613,613,613,613,613,613,613,613,613,613,613,613,613,613,613,613,613,613,613,613,613,613,613,613,613,613,613,613,613,613,613,613,613,613,613,613,613,613,613,613,613,613,613,613,613,613,613,613,613,613,613,613,613,613,613,613,671,671,671,671,671,671,671,671,671,671,671,671,671,671,671,
613,613,613,613,613,613,613,613,613,613,613,613,613,613,613,613,613,613,613,613,613,613,613,613,613,613,613,613,613,613,613,613,613,613,613,613,613,613,613,613,613,613,613,613,613,613,613,613,613,613,613,613,613,613,613,613,613,613,613,613,613,613,613,613,613,613,613,613,613,613,613,613,613,613,613,613,613,613,613,613,613,613,613,613,613,613,613,613,613,613,613,613,613,613,613,613,613,613,613,613,613,613,613,613,613,613,613,613,613,613,613,613,613,613,613,613,613,613,613,613,613,613,613,613,613,613,613,613,613,613,613,613,613,613,613,671,671,671,671,671,671,671,671,671,671,671,671,671,671,671,
613,613,613,613,613,613,613,613,613,613,613,613,613,613,613,613,613,613,613,613,613,613,613,613,613,613,613,613,35,35,35,613,613,613,613,613,613,613,613,613,613,613,613,613,613,613,613,613,613,613,613,613,613,613,613,613,613,613,613,613,613,613,613,613,613,613,613,613,613,613,613,613,613,613,613,613,613,613,613,613,613,613,613,613,613,613,613,613,613,613,613,613,613,613,613,613,613,613,613,613,613,613,613,613,613,613,613,613,613,613,613,613,613,613,613,613,613,613,613,613,613,613,613,613,613,613,613,613,613,613,613,613,613,613,613,671,671,671,671,671,671,671,671,671,671,671,671,671,671,671,
613,613,613,613,613,613,613,613,613,613,613,613,613,613,613,613,613,613,613,613,613,613,613,613,613,613,613,613,35,35,35,613,613,613,613,613,613,613,613,613,613,613,613,613,613,613,613,613,613,613,613,613,613,613,613,613,613,613,613,613,613,613,613,613,613,613,613,613,613,613,613,613,613,613,613,613,613,613,613,613,613,613,613,613,613,613,613,613,613,613,613,613,613,613,613,613,613,613,613,613,613,613,613,613,613,613,613,613,613,613,613,613,613,613,613,613,613,613,613,613,613,613,613,613,613,613,613,613,613,613,613,613,613,613,613,671,671,671,671,671,671,671,671,671,671,671,671,671,671,671,
613,613,613,613,613,613,613,613,613,613,613,613,613,613,613,613,613,613,613,613,613,613,613,613,613,613,613,613,35,35,35,613,613,613,613,613,613,613,613,613,613,613,613,613,613,613,613,613,613,613,613,613,613,613,613,613,613,613,613,613,613,613,613,613,613,613,613,613,613,613,613,613,613,613,613,613,613,613,613,613,613,613,613,613,613,613,613,613,613,613,613,613,613,613,613,613,613,613,613,613,613,613,613,613,613,613,613,613,613,613,613,613,613,613,613,613,613,613,613,613,613,613,613,613,613,613,613,613,613,613,613,613,613,613,613,671,671,671,671,671,671,671,671,671,671,671,671,671,671,671,
613,12,12,12,613,613,613,613,613,613,613,613,613,613,613,613,613,613,613,613,613,613,613,613,613,613,613,613,613,613,613,613,613,613,613,613,613,613,613,613,613,613,613,613,613,613,613,613,613,613,613,613,613,613,613,613,613,613,613,613,613,613,613,613,613,613,613,613,613,613,613,613,613,613,613,613,613,613,613,613,613,613,613,613,613,613,613,613,613,613,613,613,613,613,613,613,613,613,613,613,613,613,613,613,613,613,613,613,613,613,613,613,613,613,613,613,613,613,613,613,613,613,613,613,613,613,613,613,613,613,613,613,613,613,613,671,671,671,671,671,671,671,671,671,671,671,671,671,671,671,
613,13,14,15,613,613,613,613,613,613,613,613,613,613,613,613,613,613,613,613,613,613,613,613,613,613,613,613,613,613,613,613,613,613,613,613,613,613,613,613,613,613,613,613,613,613,613,613,613,613,613,613,613,613,613,613,613,613,613,613,613,613,613,613,613,613,613,613,613,613,613,613,613,613,613,613,613,613,613,613,613,613,613,613,613,613,613,613,613,613,613,613,613,613,613,613,613,613,613,613,613,613,613,613,613,613,613,613,613,613,613,613,613,613,613,613,613,613,613,613,613,613,613,613,613,613,613,613,613,613,613,613,613,613,613,671,671,671,671,671,671,671,671,671,671,671,671,671,671,671,
12,41,14,41,12,613,613,613,613,613,613,613,613,613,613,613,613,613,613,613,613,613,613,613,613,613,613,613,613,613,613,613,613,613,613,613,613,613,613,613,613,613,613,613,613,613,613,613,613,613,613,613,613,613,613,613,613,613,613,613,613,613,613,613,613,613,613,613,613,613,613,613,613,613,613,613,613,613,613,613,613,613,613,613,613,613,613,613,613,613,613,613,613,613,613,613,613,613,613,613,613,613,613,613,613,613,613,613,613,613,613,613,613,613,613,613,613,613,613,613,613,613,613,613,613,613,613,613,613,613,613,613,613,613,613,671,671,671,671,671,671,671,671,671,671,671,671,671,671,671,
14,14,42,14,14,613,613,613,613,613,613,613,613,613,613,613,613,613,613,613,613,613,613,613,613,613,613,613,613,613,613,613,613,613,613,613,613,613,613,613,613,613,613,613,613,613,613,613,613,613,613,613,613,613,613,613,613,613,613,613,613,613,613,613,613,613,613,613,613,613,613,613,613,613,613,613,613,613,613,613,613,613,613,613,613,613,613,613,613,613,613,613,613,613,613,613,613,613,613,613,613,613,613,613,613,613,613,613,613,613,613,613,613,613,613,613,613,613,613,613,613,613,613,613,613,613,613,613,613,613,613,613,613,613,613,671,671,671,671,671,671,671,671,671,671,671,671,671,671,671,
14,14,43,14,14,613,613,613,613,613,613,613,613,613,613,613,613,613,613,613,613,613,613,613,613,613,613,613,613,613,613,613,613,613,613,613,613,613,613,613,613,613,613,613,613,613,613,613,613,613,613,613,613,613,613,613,613,613,613,613,613,613,613,613,613,613,613,613,613,613,613,613,613,613,613,613,613,613,613,613,613,613,613,613,613,613,613,613,613,613,613,613,613,613,613,613,613,613,613,613,613,613,613,613,613,613,613,613,613,613,613,613,613,613,613,613,613,613,613,613,613,613,613,613,613,613,613,613,613,613,613,613,613,613,613,671,671,671,671,671,671,671,671,671,671,671,671,671,671,671,
613,613,613,613,613,613,613,613,613,613,613,613,613,613,613,613,613,613,613,613,613,613,613,613,613,613,613,613,613,613,613,613,613,613,613,613,613,613,613,613,613,613,613,613,613,613,613,613,613,613,613,613,613,613,613,613,613,613,613,613,613,613,613,613,613,613,613,613,613,613,613,613,613,613,613,613,613,613,613,613,613,613,613,613,613,613,613,613,613,613,613,613,613,613,613,613,613,613,613,613,613,613,613,613,613,613,613,613,613,613,613,613,613,613,613,613,613,613,613,613,613,613,613,613,613,613,613,613,613,613,613,613,613,613,613,671,671,671,671,671,671,671,671,671,671,671,671,671,671,671,
613,613,613,613,613,613,613,613,613,613,613,613,613,613,613,613,613,613,613,613,613,613,613,613,613,613,613,613,613,613,613,613,613,613,613,613,613,613,613,613,613,613,613,613,613,613,613,613,613,613,613,613,613,613,613,613,613,613,613,613,613,613,613,613,613,613,613,613,613,613,613,613,613,613,613,613,613,613,613,613,613,613,613,613,613,613,613,613,613,613,613,613,613,613,613,613,613,613,613,613,613,613,613,613,613,613,613,613,613,613,613,613,613,613,613,613,613,613,613,613,613,613,613,613,613,613,613,613,613,613,613,613,613,613,613,671,671,671,671,671,671,671,671,671,671,671,671,671,671,671
</data>
 </layer>
 <objectgroup id="3" name="ground">
  <object id="131" x="0.666667" y="209.333" width="255.333" height="30.6667"/>
  <object id="148" x="304" y="192" width="32" height="48"/>
  <object id="149" x="288" y="176" width="64" height="16"/>
  <object id="152" x="384" y="128" width="144" height="16"/>
  <object id="153" x="432" y="64" width="80" height="16"/>
  <object id="154" x="400.333" y="144" width="112" height="96"/>
  <object id="159" x="528" y="176" width="48" height="16"/>
  <object id="160" x="544" y="192" width="16" height="48"/>
  <object id="162" x="576" y="112" width="80" height="16"/>
  <object id="163" x="592" y="128" width="48" height="112"/>
  <object id="166" x="672" y="64" width="64" height="176"/>
  <object id="167" x="656" y="48" width="96" height="16"/>
  <object id="168" x="800" y="192" width="64" height="16"/>
  <object id="169" x="816" y="208" width="32" height="32"/>
  <object id="171" x="928" y="208" width="48" height="32"/>
  <object id="173" x="912" y="192" width="80" height="16"/>
  <object id="179" x="1024" y="208" width="48" height="32"/>
  <object id="180" x="1008" y="192" width="80" height="16"/>
  <object id="181" x="1184" y="96" width="80" height="16"/>
  <object id="182" x="1200" y="112" width="48" height="128"/>
  <object id="185" x="1328" y="192" width="32" height="48"/>
  <object id="186" x="1312" y="176" width="64" height="16"/>
  <object id="191" x="1408" y="160" width="80" height="80"/>
  <object id="192" x="1392" y="144" width="112" height="16"/>
  <object id="196" x="1536" y="112" width="48" height="128"/>
  <object id="197" x="1520" y="96" width="80" height="16"/>
  <object id="198" x="1600" y="48" width="80" height="16"/>
  <object id="199" x="1616" y="64" width="48" height="176"/>
  <object id="200" x="1696" y="112" width="112" height="128"/>
  <object id="202" x="1680" y="96" width="144" height="16"/>
  <object id="213" x="1840" y="208" width="560" height="32"/>
  <object id="217" x="1104" y="160" width="17" height="79.5"/>
  <object id="219" x="1088" y="144" width="48" height="16"/>
 </objectgroup>
 <objectgroup id="5" name="pipes"/>
 <objectgroup id="10" name="enemies">
  <object id="85" x="432" y="47.6667" width="16" height="16">
   <properties>
    <property name="isBig" type="bool" value="true"/>
    <property name="type" value="GOOMBA"/>
   </properties>
  </object>
  <object id="86" x="448" y="112" width="16" height="16">
   <properties>
    <property name="has_parachute" type="bool" value="true"/>
    <property name="isBig" type="bool" value="false"/>
    <property name="type" value="KOOPA_TROOPA"/>
   </properties>
  </object>
  <object id="87" x="176" y="192" width="16" height="16">
   <properties>
    <property name="type" value="TARTOSSO"/>
   </properties>
  </object>
  <object id="89" x="736" y="32" width="16" height="16">
   <properties>
    <property name="type" value="GOOMBA"/>
   </properties>
  </object>
  <object id="123" x="2000" y="192" width="16" height="16">
   <properties>
    <property name="bulletType" value="B_BULLET_BILL"/>
    <property name="type" value="BLACK_CANNON"/>
   </properties>
  </object>
  <object id="124" x="2128" y="96" width="16" height="16">
   <properties>
    <property name="type" value="GOOMBRAT"/>
   </properties>
  </object>
  <object id="184" x="1216" y="80" width="16" height="16">
   <properties>
    <property name="type" value="GOOMBA"/>
   </properties>
  </object>
  <object id="193" x="1440" y="128" width="16" height="16">
   <properties>
    <property name="has_parachute" type="bool" value="true"/>
    <property name="isBig" type="bool" value="false"/>
    <property name="type" value="KOOPA_TROOPA"/>
   </properties>
  </object>
  <object id="194" x="1744" y="80" width="16" height="16">
   <properties>
    <property name="has_parachute" type="bool" value="false"/>
    <property name="isBig" type="bool" value="true"/>
    <property name="type" value="KOOPA_TROOPA"/>
   </properties>
  </object>
  <object id="195" x="1968" y="192" width="16" height="16">
   <properties>
    <property name="has_parachute" type="bool" value="true"/>
    <property name="isBig" type="bool" value="false"/>
    <property name="type" value="KOOPA_TROOPA"/>
   </properties>
  </object>
 </objectgroup>
 <objectgroup id="11" name="objects">
  <object id="109" x="400" y="96" width="32" height="32">
   <properties>
    <property name="type" value="COIN_10"/>
   </properties>
  </object>
  <object id="110" x="448" y="48" width="16" height="16">
   <properties>
    <property name="type" value="COIN"/>
   </properties>
  </object>
  <object id="111" x="464" y="48" width="16" height="16">
   <properties>
    <property name="type" value="COIN"/>
   </properties>
  </object>
  <object id="112" x="592" y="32" width="32" height="32">
   <properties>
    <property name="type" value="COIN_30"/>
   </properties>
  </object>
  <object id="147" x="480" y="48" width="16" height="16">
   <properties>
    <property name="type" value="COIN"/>
   </properties>
  </object>
  <object id="157" x="800" y="80" width="16" height="16">
   <properties>
    <property name="type" value="COIN"/>
   </properties>
  </object>
  <object id="158" x="816" y="80" width="16" height="16">
   <properties>
    <property name="type" value="COIN"/>
   </properties>
  </object>
  <object id="177" x="928" y="176" width="16" height="16">
   <properties>
    <property name="type" value="COIN"/>
   </properties>
  </object>
  <object id="178" x="944" y="176" width="16" height="16">
   <properties>
    <property name="type" value="COIN"/>
   </properties>
  </object>
  <object id="187" x="1312" y="160" width="16" height="16">
   <properties>
    <property name="type" value="COIN"/>
   </properties>
  </object>
  <object id="188" x="1328" y="160" width="16" height="16">
   <properties>
    <property name="type" value="COIN"/>
   </properties>
  </object>
  <object id="189" x="1344" y="160" width="16" height="16">
   <properties>
    <property name="type" value="COIN"/>
   </properties>
  </object>
  <object id="190" x="1360" y="160" width="16" height="16">
   <properties>
    <property name="type" value="COIN"/>
   </properties>
  </object>
  <object id="203" x="1552" y="80" width="16" height="16">
   <properties>
    <property name="type" value="COIN"/>
   </properties>
  </object>
  <object id="204" x="1568" y="80" width="16" height="16">
   <properties>
    <property name="type" value="COIN"/>
   </properties>
  </object>
  <object id="205" x="1600" y="32" width="16" height="16">
   <properties>
    <property name="type" value="COIN"/>
   </properties>
  </object>
  <object id="206" x="1600" y="32" width="16" height="16">
   <properties>
    <property name="type" value="COIN"/>
   </properties>
  </object>
  <object id="207" x="1616" y="32" width="16" height="16">
   <properties>
    <property name="type" value="COIN"/>
   </properties>
  </object>
  <object id="208" x="1616" y="32" width="16" height="16">
   <properties>
    <property name="type" value="COIN"/>
   </properties>
  </object>
  <object id="209" x="1648" y="32" width="16" height="16">
   <properties>
    <property name="type" value="COIN"/>
   </properties>
  </object>
  <object id="210" x="1632" y="32" width="16" height="16">
   <properties>
    <property name="type" value="COIN"/>
   </properties>
  </object>
  <object id="211" x="1664" y="32" width="16" height="16">
   <properties>
    <property name="type" value="COIN"/>
   </properties>
  </object>
  <object id="212" x="1664" y="32" width="16" height="16">
   <properties>
    <property name="type" value="COIN"/>
   </properties>
  </object>
  <object id="216" x="2255.63" y="176.813" width="15.75" height="15.375">
   <properties>
    <property name="left" type="bool" value="false"/>
    <property name="type" value="FINAL_FLAG_POLE"/>
   </properties>
  </object>
 </objectgroup>
 <objectgroup id="6" name="bricks"/>
 <objectgroup id="7" name="question_block">
  <object id="175" x="928" y="144" width="16" height="16">
   <properties>
    <property name="super_mario_mushroom" type="bool" value="true"/>
   </properties>
  </object>
 </objectgroup>
 <objectgroup id="4" name="square_brick">
  <object id="7" x="2016" y="192" width="144" height="16"/>
  <object id="8" x="2032" y="176" width="128" height="16"/>
  <object id="9" x="2064" y="160" width="96" height="16"/>
  <object id="10" x="2080" y="144" width="80" height="16"/>
  <object id="11" x="2096" y="128" width="64" height="16"/>
  <object id="12" x="2112" y="112" width="42" height="14"/>
  <object id="215" x="2255.38" y="191.424" width="15.9091" height="15.8182"/>
 </objectgroup>
 <layer id="9" name="graphics" width="150" height="15">
  <data encoding="csv">
0,0,0,0,0,0,0,0,0,0,0,0,0,0,0,0,0,0,0,0,0,0,0,0,0,0,0,0,0,0,0,0,0,0,0,0,0,0,0,0,0,0,0,0,0,0,0,0,0,0,0,0,0,0,0,0,0,0,0,0,0,0,0,0,0,0,0,0,0,0,0,0,0,0,0,0,0,0,0,0,0,0,0,0,0,0,0,0,0,0,0,0,0,0,0,0,0,0,0,0,0,0,0,0,0,0,0,0,0,0,0,0,0,0,0,0,0,0,0,0,0,0,0,0,0,0,0,0,0,0,0,0,0,0,0,0,0,0,0,0,0,0,0,0,0,0,0,0,0,0,
0,0,0,0,0,0,0,0,0,0,0,0,0,0,0,0,0,0,0,0,0,0,0,0,0,0,0,0,0,0,0,0,0,0,0,0,0,0,0,0,0,0,0,0,0,0,0,0,0,0,0,0,0,0,0,0,0,0,0,0,0,0,0,0,0,0,0,0,0,0,0,0,0,0,0,0,0,0,0,0,0,0,0,0,0,0,0,0,0,0,0,0,0,0,0,0,0,0,0,0,0,0,0,0,0,0,0,0,0,0,0,0,0,0,0,0,0,0,0,0,0,0,0,0,0,0,0,0,0,0,0,0,0,0,0,0,0,0,0,0,0,0,0,0,0,0,0,0,0,0,
0,0,0,0,0,0,0,0,0,0,0,0,0,0,0,0,0,0,0,0,0,0,0,0,0,0,0,0,0,0,0,0,0,0,0,0,0,0,0,0,0,0,0,0,0,0,0,0,0,0,0,0,0,0,0,0,0,0,0,0,0,0,0,0,0,0,0,0,0,0,0,0,0,0,0,0,0,0,0,0,0,0,0,0,0,0,0,0,0,0,0,0,0,0,0,0,0,0,0,0,0,0,0,0,0,0,0,0,0,0,0,0,0,0,0,0,0,0,0,0,0,0,0,0,0,0,0,0,0,0,0,0,0,0,0,0,0,0,0,0,0,0,0,0,0,0,0,0,0,0,
0,0,0,0,0,0,0,0,0,0,0,0,0,0,0,0,0,0,0,0,0,0,0,0,0,0,0,0,0,0,0,0,0,0,0,0,0,0,0,0,0,238,239,239,239,239,240,0,0,0,0,0,0,0,0,0,0,0,0,0,0,0,0,0,0,0,0,0,0,0,0,0,0,0,0,0,0,0,0,0,0,0,0,0,0,0,0,0,0,0,0,0,0,0,0,0,0,0,0,0,238,239,239,239,240,0,0,0,0,0,0,0,0,0,0,0,0,0,0,0,0,0,0,0,0,0,0,0,0,0,0,0,0,0,0,0,0,0,0,0,0,0,0,0,0,0,0,0,0,0,
0,0,0,0,0,0,0,0,0,0,0,0,0,0,0,0,0,0,0,0,0,0,0,0,0,0,0,238,239,239,239,240,0,0,0,0,0,0,0,0,0,0,35,35,35,35,0,0,0,0,0,0,0,0,0,0,0,0,0,0,0,0,0,0,0,0,0,0,0,0,0,0,0,0,0,0,0,0,0,0,0,0,0,0,0,0,0,0,0,0,0,0,0,0,0,0,0,0,0,0,0,35,35,35,0,0,0,0,0,0,0,0,0,0,0,0,0,0,0,0,0,0,0,0,0,0,0,0,0,0,0,0,0,0,0,0,0,0,0,0,0,0,0,0,0,0,0,0,0,0,
0,0,0,0,0,0,0,0,0,0,0,0,0,0,0,0,0,0,0,0,0,0,0,0,0,0,0,0,0,0,0,0,0,0,0,0,0,0,0,0,0,0,35,35,35,35,0,0,0,0,0,0,0,0,0,0,0,0,0,0,0,0,0,0,0,0,0,0,0,0,0,0,0,0,0,0,0,0,0,0,0,0,0,0,0,0,0,0,0,0,0,0,0,0,0,0,0,0,0,0,0,35,35,35,0,0,0,0,0,0,0,0,0,0,0,0,0,0,0,0,0,0,0,0,0,0,0,0,0,0,0,0,0,0,0,0,0,0,0,0,0,0,0,0,0,0,0,0,0,0,
0,0,0,0,0,0,0,0,0,0,0,0,0,0,0,0,0,0,0,0,0,0,0,0,0,0,0,0,0,0,0,0,0,0,0,0,0,0,0,0,0,0,35,35,35,35,0,0,0,0,0,0,0,0,0,0,0,0,0,0,0,0,0,0,0,0,0,0,0,0,0,0,0,0,238,239,239,239,240,0,0,0,0,0,0,0,0,0,0,0,0,0,0,0,0,238,239,239,239,240,0,35,35,35,0,238,239,239,239,239,239,239,239,240,0,0,0,0,0,0,0,0,0,0,0,0,0,0,0,0,0,0,0,0,0,0,0,0,0,0,0,0,0,0,0,0,0,0,0,0,
0,0,0,0,0,0,0,0,0,0,0,0,0,0,0,0,0,0,0,0,0,0,0,0,0,0,0,0,0,0,0,0,0,0,0,0,238,239,239,239,240,0,35,35,35,35,0,0,0,0,0,0,0,0,0,0,0,0,0,0,0,0,0,0,0,0,0,0,0,0,0,0,0,0,0,35,35,35,0,0,0,0,0,0,0,0,0,0,0,0,0,0,0,0,0,0,35,35,35,0,0,35,35,35,0,0,35,35,35,35,35,35,35,0,0,0,0,0,0,0,0,0,0,0,0,0,0,0,0,0,0,0,30,30,30,0,0,0,0,0,0,0,0,0,0,0,0,0,0,0,
0,0,0,0,0,0,0,0,0,0,0,0,0,0,0,0,0,0,0,0,0,0,0,0,296,297,297,297,297,297,297,297,298,0,0,0,0,35,35,35,0,0,35,35,35,35,0,0,0,0,0,0,0,0,0,0,0,0,0,0,0,0,0,0,0,0,0,0,0,0,0,0,0,0,0,35,35,35,0,0,0,0,0,0,0,0,0,0,0,0,0,0,0,0,0,0,35,35,35,0,0,35,35,35,0,0,35,35,35,35,35,35,35,0,0,0,0,0,0,0,0,0,0,0,0,0,0,0,0,0,0,30,30,30,30,0,0,0,0,0,0,0,0,0,0,0,0,0,0,0,
0,0,0,0,0,0,0,0,0,0,0,0,0,0,0,0,0,0,0,0,0,0,0,0,0,35,35,35,35,35,35,35,0,0,0,0,0,35,35,35,0,0,35,35,35,35,0,0,0,0,0,0,0,0,0,0,0,0,24,0,0,0,0,0,0,0,0,0,238,239,240,0,0,0,0,35,35,35,0,0,0,0,0,0,0,0,0,238,239,239,239,239,239,240,0,0,35,35,35,0,0,35,35,35,0,0,35,35,35,35,35,35,35,0,0,0,0,0,0,0,0,0,0,0,0,0,0,0,0,0,30,30,30,30,30,0,0,0,0,0,0,0,0,0,0,0,0,0,0,0,
0,0,0,0,0,0,0,0,0,0,0,0,0,0,0,0,0,0,0,0,0,0,0,0,0,35,35,35,35,35,35,35,0,0,0,0,0,35,35,35,0,0,35,35,35,35,0,0,0,0,0,0,0,0,0,0,0,0,0,0,0,0,0,0,0,0,0,0,0,35,0,0,0,0,0,35,35,35,0,0,0,0,0,0,0,0,0,0,35,35,35,35,35,0,0,0,35,35,35,0,0,35,35,35,0,0,35,35,35,35,35,35,35,0,0,0,0,0,0,0,0,0,0,0,0,0,0,0,0,30,30,30,30,30,30,0,0,0,0,0,0,0,0,0,0,0,0,0,0,0,
0,0,0,0,0,0,0,0,0,0,0,0,0,0,0,0,0,0,238,239,239,240,0,0,0,35,35,35,35,35,35,35,0,238,239,240,0,35,35,35,0,0,35,35,35,35,0,0,0,0,0,0,0,0,0,0,0,0,0,0,0,0,0,0,0,0,0,0,0,35,0,0,0,0,0,35,35,35,0,0,0,0,238,239,239,240,0,0,35,35,35,35,35,0,0,0,35,35,35,0,0,35,35,35,0,0,35,35,35,35,35,35,35,0,0,0,0,0,0,0,0,0,0,0,0,0,0,30,30,30,30,30,30,30,30,0,0,0,0,0,0,0,0,0,0,0,0,0,0,0,
0,0,0,0,0,0,0,0,0,0,0,0,0,0,0,0,0,0,0,35,35,0,0,0,0,35,35,35,35,35,35,35,0,0,35,0,0,35,35,35,0,0,35,35,35,35,0,0,0,0,238,239,239,240,0,0,0,296,239,239,239,240,0,238,239,239,239,240,0,35,0,0,0,0,0,35,35,35,0,0,0,0,0,35,35,0,0,0,35,35,35,35,35,0,0,0,35,35,35,0,0,35,35,35,0,0,35,35,35,35,35,35,35,0,0,0,0,0,0,0,0,0,0,0,0,0,30,30,30,30,30,30,30,30,30,0,0,0,0,0,0,30,0,0,0,0,0,0,0,0,
1,1,1,1,1,1,1,1,1,1,1,1,1,1,1,1,0,0,0,35,35,0,0,0,0,35,35,35,35,35,35,35,0,0,35,0,0,35,35,35,0,0,35,35,35,35,0,0,0,0,0,35,35,0,0,0,0,0,35,35,35,0,0,0,35,35,35,0,0,35,0,0,0,0,0,35,35,35,0,0,0,0,0,35,35,0,0,0,35,35,35,35,35,0,0,0,35,35,35,0,0,35,35,35,0,0,35,35,35,35,35,35,35,0,0,1,1,1,1,1,1,1,1,1,1,1,1,1,1,1,1,1,1,1,1,1,1,1,1,1,1,1,1,1,1,1,1,1,1,1,
1,1,1,1,1,1,1,1,1,1,1,1,1,1,1,1,0,0,0,35,35,0,0,0,0,35,35,35,35,35,35,35,0,0,35,0,0,35,35,35,0,0,35,35,35,35,0,0,0,0,0,35,35,0,0,0,0,0,35,35,35,0,0,0,35,35,35,0,0,35,0,0,0,0,0,35,35,35,0,0,0,0,0,35,35,0,0,0,35,35,35,35,35,0,0,0,35,35,35,0,0,35,35,35,0,0,35,35,35,35,35,35,35,0,0,1,1,1,1,1,1,1,1,1,1,1,1,1,1,1,1,1,1,1,1,1,1,1,1,1,1,1,1,1,1,1,1,1,1,1
</data>
 </layer>
</map>
