<?xml version="1.0" encoding="UTF-8"?>
<map version="1.10" tiledversion="1.11.0" orientation="orthogonal" renderorder="right-down" width="150" height="18" tilewidth="16" tileheight="16" infinite="0" nextlayerid="13" nextobjectid="133">
 <editorsettings>
  <export target="map_2.tmx" format="tmx"/>
 </editorsettings>
 <properties>
  <property name="spawn_mario_x" type="int" value="4"/>
  <property name="spawn_mario_y" type="int" value="15"/>
 </properties>
 <tileset firstgid="1" name="tiles-2" tilewidth="16" tileheight="16" tilecount="812" columns="29">
  <image source="../tilesets/tiles-2.png" width="464" height="448"/>
 </tileset>
 <imagelayer id="2" name="background">
  <image source="../tilesets/autumn.png" width="4800" height="576"/>
 </imagelayer>
 <layer id="1" name="decoration" width="150" height="18">
  <data encoding="csv">
0,0,0,0,0,0,0,0,0,0,0,0,0,0,0,0,0,0,0,0,0,0,0,0,0,0,0,0,0,0,0,0,0,0,0,0,0,0,0,0,0,0,0,0,0,0,0,0,0,0,0,0,0,0,0,0,0,0,581,582,583,0,0,0,0,0,0,0,0,0,0,0,0,0,0,0,0,0,0,0,0,0,0,0,647,648,649,0,0,0,0,0,0,0,0,0,0,0,0,0,0,0,0,0,0,0,0,0,0,0,0,0,0,0,0,0,0,0,0,0,0,0,0,0,0,0,0,0,0,0,0,0,0,0,0,0,0,0,0,0,0,0,0,0,0,0,0,0,0,0,
0,0,0,0,0,0,0,0,0,0,0,0,0,0,0,0,0,0,0,647,648,649,0,0,0,0,0,0,647,648,649,0,0,0,0,0,0,581,582,583,0,0,0,0,0,0,0,0,0,0,0,0,0,0,0,0,0,0,610,611,612,0,0,0,0,0,0,0,0,0,0,0,0,0,0,0,0,0,0,0,0,0,0,0,0,0,0,0,0,0,0,0,0,0,0,0,581,582,583,0,0,0,0,0,0,0,0,0,0,0,0,0,0,0,0,0,0,0,0,0,0,0,0,0,0,0,0,0,0,0,0,0,0,0,0,0,0,0,0,647,648,649,0,0,0,0,0,0,0,0,
0,0,0,0,0,0,0,0,0,581,582,583,0,0,0,0,0,0,0,0,0,0,0,0,0,0,0,0,0,0,0,0,0,0,0,0,0,610,611,612,0,0,0,0,0,0,0,0,0,0,647,648,649,0,0,0,0,0,0,0,0,0,0,0,0,0,0,0,0,581,582,583,0,0,0,0,0,0,0,0,0,0,0,0,0,0,0,0,0,0,0,0,0,0,0,0,610,611,612,0,0,0,0,0,0,0,0,0,0,0,0,0,581,582,583,0,0,0,0,0,0,0,0,581,582,583,0,0,0,0,0,0,0,0,0,0,0,0,0,0,0,0,0,0,581,582,583,0,0,0,
0,0,0,0,0,0,0,0,0,610,611,612,0,0,0,0,0,0,0,0,0,0,0,0,0,0,0,0,0,0,0,0,0,0,0,0,0,0,0,0,0,0,0,0,0,0,0,0,0,0,0,0,0,0,0,0,0,0,0,0,0,0,0,0,0,0,0,0,0,610,611,612,0,0,0,0,0,0,0,0,0,0,0,0,0,0,0,0,0,0,0,0,0,0,0,0,0,0,0,0,0,0,0,0,0,0,0,0,0,0,0,0,610,611,612,0,0,0,0,0,0,0,0,610,611,612,0,0,0,0,0,0,0,0,0,0,0,0,0,0,0,0,0,0,610,611,612,0,0,0,
647,648,649,0,0,0,0,0,0,0,0,0,0,0,0,0,0,581,582,583,0,0,0,0,0,0,0,0,0,0,0,581,582,583,0,0,0,0,0,0,0,0,0,0,0,0,0,0,0,0,0,0,0,0,0,0,0,0,0,0,0,0,0,0,0,0,0,0,0,0,0,0,0,0,0,0,0,0,0,0,581,582,583,0,0,0,0,0,0,0,0,0,0,0,0,0,0,0,0,0,0,0,0,0,0,589,590,591,0,0,0,0,0,0,0,0,0,0,0,0,0,0,0,0,0,0,0,0,0,0,0,0,0,0,0,0,0,0,0,0,0,0,0,0,0,0,0,0,0,0,
0,0,0,0,0,581,582,583,0,0,0,0,0,0,0,0,0,610,611,612,0,0,0,0,0,0,0,0,0,0,0,610,611,612,0,0,0,0,0,0,0,0,0,0,0,0,581,582,583,0,0,0,0,0,0,0,0,0,0,0,0,0,0,0,0,0,0,0,0,0,0,0,0,0,0,0,0,0,0,0,610,611,612,0,0,0,0,0,0,0,0,0,0,0,0,0,0,0,0,0,0,0,0,0,0,0,0,0,0,0,0,0,0,0,0,0,0,0,0,0,0,0,0,0,0,0,0,0,0,0,0,0,0,0,0,0,0,0,0,0,0,0,0,0,0,0,0,0,0,0,
0,0,0,0,0,610,611,612,0,0,0,0,0,0,0,0,0,0,0,0,0,0,0,0,0,0,0,0,0,0,0,0,0,0,0,0,0,0,0,0,0,0,0,0,0,0,610,611,612,0,0,0,0,0,0,0,0,0,0,0,0,0,0,0,0,0,0,0,0,0,0,0,0,0,0,0,0,0,0,0,0,0,0,0,0,0,0,0,0,0,0,0,0,0,0,0,0,0,0,0,0,0,0,0,0,0,0,0,0,0,0,0,0,0,0,0,0,0,647,648,649,0,0,0,0,0,0,0,0,0,0,0,0,0,0,0,0,0,0,0,0,0,0,0,0,0,0,0,0,0,
0,0,0,0,0,0,0,0,0,0,0,0,0,0,0,0,0,0,0,0,0,0,0,0,0,0,0,0,0,0,0,0,0,0,0,0,0,0,0,0,0,0,0,0,0,0,0,0,0,0,0,0,0,0,0,0,0,0,0,0,0,0,0,0,0,0,0,0,0,0,0,0,0,0,0,0,0,0,0,0,0,0,0,0,0,0,0,0,0,0,0,0,0,0,0,0,0,0,0,0,0,0,0,0,0,0,0,0,0,0,0,0,0,0,0,0,0,0,0,0,0,0,0,0,0,0,0,0,0,0,0,0,0,0,0,0,0,0,0,0,0,0,0,0,0,0,0,0,0,0,
0,0,0,0,0,0,0,0,0,0,0,0,0,0,0,0,0,0,0,0,0,0,0,0,0,0,0,0,0,0,0,0,0,0,0,0,0,0,0,0,0,0,0,0,0,0,0,0,0,0,0,0,0,0,0,0,0,0,0,0,0,0,0,0,0,0,0,0,0,0,0,0,0,0,0,0,0,0,0,0,0,0,0,0,0,0,0,0,0,0,0,0,0,0,0,0,0,0,0,0,0,0,0,0,0,0,0,0,0,0,0,0,0,0,0,0,0,0,0,0,0,0,0,0,0,0,0,0,0,0,0,0,0,0,0,0,0,0,0,0,0,0,0,0,0,0,0,0,0,0,
0,0,70,70,0,0,0,0,0,0,0,0,0,0,0,0,0,0,0,0,0,0,0,0,0,0,0,0,0,0,0,0,0,0,0,0,0,0,0,0,0,0,0,0,0,0,0,0,0,0,0,0,0,0,0,0,0,0,0,0,0,0,0,0,0,0,0,0,0,0,0,0,0,0,0,0,0,0,0,0,0,0,0,0,0,0,0,0,0,0,0,0,0,0,0,0,0,0,0,0,0,0,0,0,0,0,0,0,0,0,0,0,0,0,0,0,0,0,0,0,0,0,0,0,0,0,0,0,0,0,0,0,0,0,0,0,0,0,0,0,0,0,0,0,0,0,70,70,0,0,
0,0,71,73,0,0,0,0,0,0,0,0,0,0,0,0,0,0,0,0,0,0,0,0,0,0,0,0,0,0,0,0,0,0,0,0,0,0,0,0,0,0,0,0,0,0,0,0,0,0,0,0,0,0,0,0,0,0,0,0,0,0,0,0,0,0,0,0,0,0,0,0,0,0,0,0,0,0,0,0,0,0,0,0,0,0,0,0,0,0,0,0,0,0,0,0,0,0,0,0,0,0,0,0,0,0,0,0,0,0,0,0,0,0,0,0,0,0,0,0,0,0,0,0,0,0,0,0,0,0,0,0,0,0,0,0,0,0,0,0,0,0,0,0,0,0,71,73,0,0,
0,99,99,99,99,0,0,0,0,0,0,0,0,0,0,0,0,0,0,0,0,0,0,0,0,0,0,0,0,0,0,0,0,0,0,0,0,0,0,0,0,0,0,0,0,0,0,0,0,0,0,0,0,0,0,0,0,0,0,0,0,0,0,0,0,0,0,0,0,0,0,0,0,0,0,0,0,0,0,0,0,0,0,0,0,0,0,0,0,0,0,0,0,0,0,0,0,0,0,0,0,0,0,0,0,0,0,0,0,0,0,0,0,0,0,0,0,0,0,0,0,0,0,0,0,0,0,0,0,0,0,0,0,0,0,0,0,0,0,0,0,0,0,0,0,99,99,99,99,0,
0,71,73,71,73,0,0,0,0,0,0,0,0,0,0,0,0,0,0,0,0,0,0,0,0,0,0,0,0,0,0,0,0,0,0,0,0,0,0,0,0,0,0,0,0,0,0,0,0,0,0,0,0,0,0,0,0,0,0,0,0,0,0,0,0,0,0,0,0,0,0,0,0,0,0,0,0,0,0,0,0,0,0,0,0,0,0,0,0,0,0,0,0,0,0,0,0,0,0,0,0,0,0,0,0,0,0,0,0,0,0,0,0,0,0,0,0,0,0,0,0,0,0,0,0,0,0,0,0,0,0,0,0,0,0,0,0,0,0,0,0,0,0,0,0,71,73,71,73,0,
70,99,99,99,99,70,0,0,0,0,0,363,0,0,0,0,0,0,0,0,0,0,0,0,0,0,256,0,0,363,0,0,0,0,0,0,0,0,0,0,0,0,363,0,0,0,0,0,0,0,0,0,363,0,0,0,0,0,0,0,0,0,0,0,0,256,0,0,0,0,0,0,0,0,0,0,0,0,0,0,0,0,0,0,0,0,0,0,0,0,0,0,0,0,0,0,0,0,0,0,0,0,0,0,0,0,0,0,0,0,0,0,0,0,0,0,0,0,0,0,0,0,0,0,0,0,0,0,0,0,0,0,0,0,0,0,0,0,0,0,0,0,0,0,70,99,99,99,99,70,
72,72,100,72,72,72,0,0,0,0,362,392,0,0,0,0,0,0,0,0,0,0,0,0,0,255,2147483934,257,0,392,0,0,0,0,0,0,0,0,0,362,0,0,392,0,0,0,0,0,0,0,0,362,392,0,0,0,0,0,0,0,0,256,0,0,255,2147483934,257,0,0,0,0,0,0,0,0,0,0,0,0,0,0,0,0,0,0,0,0,0,0,0,0,0,0,0,0,0,256,0,0,0,0,0,0,256,0,0,0,0,0,0,0,0,0,0,0,0,0,0,0,0,0,0,0,0,0,0,0,0,0,0,0,0,0,0,0,0,0,0,0,0,0,0,0,0,72,72,100,72,72,72,
72,72,101,72,72,72,0,273,274,275,37,37,6,6,6,6,0,0,0,0,0,0,0,0,255,284,285,286,257,37,0,0,0,0,0,0,0,6,6,37,6,0,37,0,0,0,0,0,0,0,0,37,37,0,0,0,0,273,274,275,255,284,257,255,284,285,286,257,0,0,0,0,0,0,0,0,0,0,0,273,274,275,6,6,0,0,6,0,0,0,0,0,0,0,0,255,284,257,0,0,0,0,255,284,257,0,0,0,0,0,0,0,0,0,0,0,0,273,274,275,0,0,0,0,0,0,0,0,0,0,0,0,0,0,0,0,0,0,0,0,0,0,0,0,72,72,101,72,72,72,
0,0,0,0,0,0,0,0,0,0,0,0,0,0,0,0,0,0,0,0,0,0,0,0,0,0,0,0,0,0,0,0,0,0,0,0,0,0,0,0,0,0,0,0,0,0,0,0,0,0,0,0,0,0,0,0,0,0,0,0,0,0,0,0,0,0,0,0,0,0,0,0,0,0,0,0,0,0,0,0,0,0,0,0,0,0,0,0,0,0,0,0,0,0,0,0,0,0,0,0,0,0,0,0,0,0,0,0,0,0,0,0,0,0,0,0,0,0,0,0,0,0,0,0,0,0,0,0,0,0,0,0,0,0,0,0,0,0,0,0,0,0,0,0,0,0,0,0,0,0,
0,0,0,0,0,0,0,0,0,0,0,0,0,0,0,0,0,0,0,0,0,0,0,0,0,0,0,0,0,0,0,0,0,0,0,0,0,0,0,0,0,0,0,0,0,0,0,0,0,0,0,0,0,0,0,0,0,0,0,0,0,0,0,0,0,0,0,0,0,0,0,0,0,0,0,0,0,0,0,0,0,0,0,0,0,0,0,0,0,0,0,0,0,0,0,0,0,0,0,0,0,0,0,0,0,0,0,0,0,0,0,0,0,0,0,0,0,0,0,0,0,0,0,0,0,0,0,0,0,0,0,0,0,0,0,0,0,0,0,0,0,0,0,0,0,0,0,0,0,0
</data>
 </layer>
 <layer id="3" name="graphics" width="150" height="18">
  <properties>
   <property name="has_piranha_plant" type="bool" value="true"/>
  </properties>
  <data encoding="csv">
0,0,0,0,0,0,0,0,0,0,0,0,0,0,0,0,0,0,0,0,0,0,0,0,0,0,0,0,0,0,0,0,0,0,0,0,0,0,0,0,0,0,0,0,0,0,0,0,0,0,0,0,0,0,0,0,0,0,0,0,0,0,0,0,0,0,0,0,0,0,0,0,0,0,0,0,0,0,0,0,0,0,0,0,0,0,0,0,0,0,0,0,0,0,0,0,0,0,0,0,0,0,0,0,0,0,0,0,0,0,0,0,0,0,0,0,0,0,0,0,0,0,0,0,0,0,0,0,0,0,0,0,0,0,0,0,0,0,0,0,0,0,0,0,0,0,0,0,0,0,
0,0,0,0,0,0,0,0,0,0,0,0,0,0,0,0,0,0,0,0,0,0,0,0,0,0,0,0,0,0,0,0,0,0,0,0,0,0,0,0,0,0,0,0,0,0,0,0,0,0,0,0,0,0,0,0,0,0,0,0,0,0,0,0,0,0,0,0,0,0,0,0,0,0,0,0,0,0,0,0,0,0,0,0,0,0,0,0,0,0,0,0,0,0,0,0,0,0,0,0,0,0,0,0,0,0,0,0,0,0,0,0,0,0,0,0,0,0,0,0,0,0,0,0,0,0,0,0,0,0,0,0,0,0,0,0,0,0,0,0,0,0,0,0,0,0,0,0,0,0,
0,0,0,0,0,0,0,0,0,0,0,0,0,0,0,0,0,0,0,0,0,0,0,0,0,0,0,0,0,0,0,0,0,0,0,0,0,0,0,0,0,0,0,0,0,0,0,0,0,0,0,0,0,0,0,0,0,0,0,0,0,0,0,0,0,0,0,0,0,0,0,0,0,0,0,0,0,0,0,0,0,0,0,0,0,0,0,0,0,0,0,0,0,0,0,0,0,0,0,0,0,0,0,0,0,0,0,0,0,0,0,0,0,0,0,0,0,0,0,0,0,0,0,0,0,0,0,0,0,0,0,0,0,0,0,0,0,0,0,0,0,0,0,0,0,0,0,0,0,0,
0,0,0,0,0,0,0,0,0,0,0,0,0,0,0,0,0,0,0,0,0,0,0,0,0,0,0,0,0,0,0,0,0,0,0,0,0,0,0,0,0,0,0,0,0,0,0,0,0,0,0,0,0,0,0,0,0,0,0,0,0,0,0,0,0,0,0,0,0,0,0,0,0,0,0,0,0,0,0,0,0,0,0,0,0,0,0,0,0,0,0,0,0,0,0,0,0,0,0,0,0,0,0,0,0,0,0,0,0,0,0,0,0,0,0,0,0,0,0,0,0,0,0,0,0,0,0,0,0,0,0,3,3,3,0,0,0,0,0,0,0,0,0,0,0,0,0,0,0,0,
0,0,0,0,0,0,0,0,0,0,0,0,0,0,0,0,0,0,0,0,0,0,0,0,0,0,0,0,0,0,0,0,0,0,0,0,0,0,0,0,0,0,0,0,0,0,0,0,0,0,0,0,0,0,0,0,0,0,0,0,0,0,0,0,0,0,0,0,0,0,0,0,0,0,0,0,0,0,0,0,0,0,0,0,0,0,0,0,0,0,0,24,24,0,0,0,0,0,0,0,0,0,0,0,0,0,0,0,0,0,0,0,0,0,0,0,0,0,0,0,0,0,0,0,0,0,0,0,0,0,0,0,0,0,0,0,0,0,0,0,0,0,0,0,0,0,0,0,0,0,
0,0,0,0,0,0,0,0,0,0,0,0,0,0,0,0,0,0,0,0,0,0,0,0,0,0,24,24,0,0,0,0,0,0,0,0,0,0,0,0,0,0,0,0,0,0,0,0,0,0,0,0,0,0,0,0,0,0,0,0,0,0,0,0,0,0,0,0,0,0,0,0,0,0,0,0,0,0,0,0,0,0,0,0,0,0,0,0,0,0,0,0,0,0,0,0,0,0,0,0,0,0,0,0,0,0,0,0,0,0,0,0,0,0,0,0,0,0,0,0,0,0,0,0,0,0,0,0,0,0,0,0,0,0,0,0,0,0,0,0,0,0,0,0,0,0,0,0,0,0,
0,0,0,0,0,0,0,0,0,0,0,0,0,0,0,0,0,0,0,0,0,0,0,0,0,0,0,0,0,0,0,0,0,0,0,0,0,0,0,0,0,0,0,0,0,0,0,0,0,0,0,0,0,0,0,0,0,0,0,0,0,0,0,0,0,0,0,0,0,0,0,0,0,0,0,0,0,0,0,0,0,0,0,0,0,0,0,0,0,0,0,0,0,0,0,0,0,0,0,0,0,0,0,0,0,0,0,0,0,0,0,0,0,0,0,0,0,0,0,0,0,0,0,0,0,0,0,0,3,3,3,0,0,0,0,0,30,30,0,0,0,0,0,0,0,0,0,0,0,0,
0,0,0,0,0,0,0,0,0,0,0,0,0,0,0,0,0,0,0,0,0,0,0,0,0,0,0,0,0,0,0,0,0,0,0,0,0,0,0,0,0,0,0,0,0,0,0,0,0,0,0,0,0,0,0,0,0,0,0,0,0,0,0,0,0,0,0,0,0,0,0,0,0,0,0,0,0,0,0,0,0,0,0,0,0,0,0,0,0,0,3,3,3,3,0,0,0,0,0,0,0,0,0,0,0,0,0,0,0,0,0,0,0,0,0,0,0,0,0,0,0,0,0,0,0,0,0,0,0,0,0,0,0,0,0,0,30,30,0,0,0,0,0,0,0,0,0,0,0,0,
0,0,0,0,0,0,0,0,0,0,0,0,0,0,0,0,0,0,0,0,0,0,0,0,0,0,0,0,0,0,0,0,0,0,0,0,0,0,0,0,0,0,0,0,0,0,0,0,0,0,0,0,0,0,24,24,24,24,24,0,0,0,0,3,3,3,0,0,0,0,0,0,0,0,0,0,0,0,0,0,0,0,0,0,0,0,0,0,0,0,0,0,0,0,0,0,0,0,0,0,0,0,0,0,0,0,0,0,0,0,0,0,0,0,0,0,0,0,0,0,0,0,0,0,0,0,0,0,0,0,0,0,0,0,0,0,30,30,0,0,0,0,0,0,0,0,0,0,0,0,
0,0,0,0,0,0,0,0,0,0,0,0,0,0,0,0,0,0,0,0,0,0,0,0,0,3,3,3,3,0,0,0,0,0,0,0,0,0,0,0,0,0,0,0,0,0,0,0,0,0,0,0,0,0,0,0,0,0,0,0,0,0,0,0,0,0,0,0,0,0,0,0,0,0,383,384,384,384,385,0,0,0,0,0,0,0,0,0,0,0,0,0,0,0,0,0,0,0,0,0,0,0,0,0,0,0,0,0,0,0,0,0,0,0,0,0,0,0,0,0,0,0,0,0,0,3,3,3,0,0,0,0,0,0,0,0,30,30,0,0,0,0,0,0,0,0,0,0,0,0,
0,0,0,0,0,0,0,0,0,0,0,0,0,0,0,0,0,0,0,0,0,0,0,0,0,0,0,0,0,0,0,0,0,0,0,3,3,3,3,3,3,0,0,0,0,0,0,0,0,0,0,0,0,0,0,0,0,0,0,0,0,0,0,0,0,0,0,0,0,0,0,0,0,0,0,35,35,35,0,0,0,0,0,0,0,0,0,3,3,3,0,0,0,0,0,0,0,0,0,0,0,0,0,0,0,0,0,0,0,0,0,0,0,0,0,0,0,0,0,0,0,0,0,0,0,0,0,0,0,0,0,0,0,0,0,0,30,30,0,0,0,0,0,0,0,0,0,0,0,0,
0,0,0,0,0,0,0,0,0,0,0,0,0,0,0,0,0,0,0,0,0,0,30,0,0,0,0,0,0,0,0,0,0,0,0,0,0,0,0,0,0,0,0,0,0,0,0,0,0,0,0,0,0,0,0,0,0,0,0,0,0,0,0,0,0,0,0,0,0,0,0,0,0,0,0,35,35,35,0,0,0,0,0,0,0,0,0,0,0,0,0,0,0,0,0,3,3,3,0,0,0,0,0,0,0,0,0,0,0,0,0,0,0,0,0,0,0,0,0,0,0,0,0,0,0,0,0,0,0,0,0,0,0,0,0,0,30,30,0,0,0,0,0,0,0,0,0,0,0,0,
0,0,0,0,0,0,0,0,0,0,0,349,350,3,24,3,0,0,0,0,0,30,30,0,0,24,0,0,0,0,0,0,30,0,0,0,0,0,0,0,0,0,0,0,0,0,0,0,349,350,0,0,0,0,24,24,24,24,24,0,0,3,3,0,0,0,0,0,0,0,383,384,384,384,385,35,35,35,0,0,0,0,0,0,0,0,0,0,0,0,0,0,0,0,0,0,0,0,0,0,0,0,0,0,0,0,0,0,0,0,30,0,30,0,0,0,0,0,0,0,0,0,349,350,0,0,0,0,0,0,0,0,0,0,0,0,30,30,0,0,0,0,0,0,0,0,0,0,0,0,
0,0,0,0,0,0,0,0,0,0,0,378,379,0,0,0,0,0,0,0,30,30,30,0,0,0,0,0,0,0,0,0,30,0,0,0,0,0,0,0,0,0,0,0,0,0,0,0,378,379,0,0,0,0,0,0,0,0,0,0,0,0,0,0,0,0,0,0,0,0,0,35,35,35,0,35,35,35,0,0,0,0,0,0,349,350,0,0,0,0,0,0,0,0,0,0,0,0,0,0,349,350,0,0,0,0,0,0,0,0,30,0,30,0,0,0,0,0,0,0,0,0,378,379,0,0,0,0,0,0,0,0,0,0,0,0,30,30,0,0,0,0,0,0,0,0,0,0,0,0,
0,0,0,0,0,0,0,0,0,351,352,353,379,0,0,0,0,0,0,30,30,30,30,0,0,0,0,0,0,0,0,0,30,30,0,0,0,0,0,0,0,0,0,0,0,0,349,350,378,379,0,0,0,0,0,0,0,0,0,0,0,0,0,0,0,0,0,0,349,350,0,35,35,35,0,35,35,35,0,0,0,0,0,0,378,379,0,0,0,0,0,0,349,350,0,0,0,0,0,0,378,379,0,0,0,0,0,0,30,0,30,0,30,0,30,0,0,0,0,0,349,350,378,379,0,0,0,0,0,0,0,0,0,0,0,0,30,30,0,0,0,0,0,0,0,0,0,0,0,0,
0,0,0,0,0,0,0,0,0,380,381,382,379,0,0,0,0,0,30,30,30,30,30,0,0,0,0,0,0,0,0,0,30,30,0,0,0,0,0,0,0,0,0,0,0,0,378,379,378,379,0,0,0,0,0,0,0,0,0,0,0,0,0,0,0,0,0,0,378,379,0,35,35,35,0,35,35,35,0,0,0,0,0,0,378,379,0,0,0,0,0,0,378,379,0,0,0,0,0,0,378,379,0,0,0,0,30,0,30,0,30,0,30,0,30,0,30,0,0,0,378,379,378,379,0,0,0,0,0,0,0,0,0,0,0,0,30,30,0,0,0,30,0,0,0,0,0,0,0,0,
1,1,1,1,1,1,1,1,1,1,1,1,1,1,1,1,1,1,1,1,1,1,1,1,1,1,1,1,1,1,1,1,1,1,1,1,1,1,1,1,1,1,1,1,1,1,1,1,1,1,1,1,1,1,1,1,1,1,1,1,1,1,1,1,1,1,1,1,1,1,0,35,35,35,0,35,35,35,0,1,1,1,1,1,1,1,1,1,1,1,1,1,1,1,1,1,1,1,1,1,1,1,1,1,1,1,1,1,1,1,1,1,1,1,1,1,1,1,1,1,1,1,1,1,1,1,1,1,1,1,1,1,1,1,1,1,1,1,1,1,1,1,1,1,1,1,1,1,1,1,
1,1,1,1,1,1,1,1,1,1,1,1,1,1,1,1,1,1,1,1,1,1,1,1,1,1,1,1,1,1,1,1,1,1,1,1,1,1,1,1,1,1,1,1,1,1,1,1,1,1,1,1,1,1,1,1,1,1,1,1,1,1,1,1,1,1,1,1,1,1,0,35,35,35,0,35,35,35,0,1,1,1,1,1,1,1,1,1,1,1,1,1,1,1,1,1,1,1,1,1,1,1,1,1,1,1,1,1,1,1,1,1,1,1,1,1,1,1,1,1,1,1,1,1,1,1,1,1,1,1,1,1,1,1,1,1,1,1,1,1,1,1,1,1,1,1,1,1,1,1
</data>
 </layer>
 <objectgroup id="4" name="ground">
  <object id="1" x="0" y="256" width="1120" height="32"/>
  <object id="3" x="1264" y="256" width="1136" height="32"/>
  <object id="66" x="1120" y="192" width="80" height="16"/>
  <object id="67" x="1136" y="208" width="48" height="80"/>
  <object id="68" x="1184" y="144" width="80" height="16"/>
  <object id="69" x="1200" y="160" width="48" height="128"/>
  <object id="109" x="0.333333" y="96" width="3.66667" height="159.667"/>
  <object id="110" x="2347.33" y="111" width="52.3333" height="145"/>
 </objectgroup>
 <objectgroup id="5" name="objects">
  <object id="25" x="224" y="144" width="16" height="16">
   <properties>
    <property name="coins" type="bool" value="true"/>
   </properties>
  </object>
  <object id="43" x="576" y="128" width="16" height="16">
   <properties>
    <property name="type" value="COIN"/>
   </properties>
  </object>
  <object id="44" x="624" y="128" width="16" height="16">
   <properties>
    <property name="type" value="COIN"/>
   </properties>
  </object>
  <object id="42" x="592" y="96" width="32.3333" height="31.3333">
   <properties>
    <property name="type" value="COIN_10"/>
   </properties>
  </object>
  <object id="64" x="1016" y="64" width="32" height="32">
   <properties>
    <property name="type" value="COIN_50"/>
   </properties>
  </object>
  <object id="76" x="1136" y="160.333" width="16" height="16">
   <properties>
    <property name="type" value="COIN"/>
   </properties>
  </object>
  <object id="77" x="1152" y="160.333" width="16" height="16">
   <properties>
    <property name="type" value="COIN"/>
   </properties>
  </object>
  <object id="78" x="1200.33" y="111.333" width="16" height="16">
   <properties>
    <property name="type" value="COIN"/>
   </properties>
  </object>
  <object id="79" x="1215.67" y="80" width="16" height="16">
   <properties>
    <property name="type" value="COIN"/>
   </properties>
  </object>
  <object id="80" x="1232.33" y="112" width="16" height="16">
   <properties>
    <property name="type" value="COIN"/>
   </properties>
  </object>
  <object id="94" x="1600" y="112" width="32" height="32">
   <properties>
    <property name="type" value="COIN_20"/>
   </properties>
  </object>
  <object id="95" x="1775.67" y="128" width="16" height="16">
   <properties>
    <property name="type" value="COIN"/>
   </properties>
  </object>
  <object id="126" x="2015.67" y="112" width="16" height="16">
   <properties>
    <property name="type" value="COIN"/>
   </properties>
  </object>
  <object id="127" x="2015.67" y="112" width="16" height="16">
   <properties>
    <property name="type" value="COIN"/>
   </properties>
  </object>
  <object id="128" x="2064" y="64.6667" width="16" height="16">
   <properties>
    <property name="type" value="COIN"/>
   </properties>
  </object>
  <object id="129" x="2112" y="16.6667" width="16" height="16">
   <properties>
    <property name="type" value="COIN"/>
   </properties>
  </object>
  <object id="105" x="2256" y="224" width="16" height="16">
   <properties>
    <property name="left" type="bool" value="false"/>
    <property name="type" value="FINAL_FLAG_POLE"/>
   </properties>
  </object>
 </objectgroup>
 <objectgroup id="7" name="pipes">
  <object id="45" x="736" y="224" width="32" height="32"/>
  <object id="46" x="768" y="192" width="32" height="64">
   <properties>
    <property name="has_piranha_plant" type="bool" value="true"/>
    <property name="isTall" type="bool" value="true"/>
   </properties>
  </object>
  <object id="65" x="1088" y="224" width="32" height="32">
   <properties>
    <property name="has_piranha_plant" type="bool" value="true"/>
    <property name="isTall" type="bool" value="false"/>
   </properties>
  </object>
  <object id="71" x="1344" y="208" width="32" height="48"/>
  <object id="72" x="1472" y="224" width="32" height="32">
   <properties>
    <property name="has_piranha_plant" type="bool" value="true"/>
    <property name="isTall" type="bool" value="false"/>
   </properties>
  </object>
  <object id="73" x="1600.67" y="208" width="31.3333" height="47.3333"/>
  <object id="74" x="1920" y="224" width="32" height="32">
   <properties>
    <property name="has_piranha_plant" type="bool" value="false"/>
   </properties>
  </object>
  <object id="75" x="1952.33" y="191.333" width="31.3333" height="64.6667">
   <properties>
    <property name="has_piranha_plant" type="bool" value="true"/>
    <property name="isTall" type="bool" value="true"/>
   </properties>
  </object>
  <object id="131" x="143.5" y="223.75" width="32.75" height="32">
   <properties>
    <property name="has_piranha_plant" type="bool" value="true"/>
    <property name="isHorizontal" type="bool" value="true"/>
   </properties>
  </object>
  <object id="132" x="175.75" y="191.75" width="32.5" height="64">
   <properties>
    <property name="has_piranha_plant" type="bool" value="true"/>
    <property name="isTall" type="bool" value="true"/>
   </properties>
  </object>
 </objectgroup>
 <objectgroup id="8" name="bricks">
  <object id="22" x="208" y="192" width="16" height="16"/>
  <object id="23" x="240" y="192" width="16" height="16"/>
  <object id="35" x="560" y="160" width="16" height="16"/>
  <object id="36" x="576" y="160" width="16" height="16"/>
  <object id="38" x="592" y="160" width="16" height="16"/>
  <object id="39" x="608" y="160" width="16" height="16"/>
  <object id="40" x="624" y="160" width="16" height="16"/>
  <object id="41" x="640" y="160" width="16" height="16"/>
  <object id="28" x="400" y="144" width="16" height="16">
   <properties>
    <property name="type" value="COIN"/>
   </properties>
  </object>
  <object id="29" x="416" y="144" width="16" height="16"/>
  <object id="30" x="432" y="144" width="16" height="16"/>
  <object id="31" x="448" y="144" width="16" height="16"/>
  <object id="58" x="976" y="192" width="16" height="16"/>
  <object id="59" x="992" y="192" width="16" height="16"/>
  <object id="60" x="1008" y="128" width="16" height="16"/>
  <object id="61" x="1024" y="128" width="16" height="16"/>
  <object id="62" x="1040" y="128" width="16" height="16"/>
  <object id="81" x="1392" y="160" width="16" height="16"/>
  <object id="82" x="1408" y="160.333" width="16" height="16"/>
  <object id="83" x="1424" y="160.333" width="16" height="16"/>
  <object id="84" x="1440" y="112.333" width="16" height="16"/>
  <object id="85" x="1456" y="112.333" width="16" height="16"/>
  <object id="86" x="1472" y="112.333" width="16" height="16"/>
  <object id="87" x="1488" y="112.333" width="16" height="16"/>
  <object id="88" x="1520" y="175.333" width="16" height="16"/>
  <object id="98" x="1999.67" y="143.667" width="16" height="16"/>
  <object id="101" x="2047.67" y="96.6667" width="16" height="16"/>
  <object id="104" x="2096.67" y="47.6667" width="16" height="16"/>
  <object id="89" x="1536" y="175.333" width="16" height="16"/>
  <object id="97" x="2015.67" y="143.667" width="16" height="16"/>
  <object id="100" x="2063.67" y="96.6667" width="16" height="16"/>
  <object id="103" x="2112.67" y="47.6667" width="16" height="16"/>
  <object id="90" x="1552" y="175.333" width="16" height="16"/>
  <object id="96" x="2031.67" y="143.667" width="16" height="16"/>
  <object id="99" x="2079.67" y="96.6667" width="16" height="16"/>
  <object id="102" x="2128.67" y="47.6667" width="16" height="16"/>
 </objectgroup>
 <objectgroup id="9" name="question_block">
  <object id="24" x="224" y="192" width="16" height="16">
   <properties>
    <property name="super_mario_mushroom" type="bool" value="true"/>
   </properties>
  </object>
  <object id="32" x="400" y="192" width="16" height="16">
   <properties>
    <property name="one_up_mushroom" type="bool" value="true"/>
   </properties>
  </object>
  <object id="33" x="416" y="80" width="16" height="16">
   <properties>
    <property name="coins" type="bool" value="true"/>
   </properties>
  </object>
  <object id="47" x="864" y="128" width="16" height="16">
   <properties>
    <property name="coins" type="bool" value="true"/>
   </properties>
  </object>
  <object id="52" x="864" y="192" width="16" height="16">
   <properties>
    <property name="coins" type="bool" value="true"/>
   </properties>
  </object>
  <object id="53" x="880" y="192" width="16" height="16">
   <properties>
    <property name="coins" type="bool" value="true"/>
   </properties>
  </object>
  <object id="54" x="896" y="192" width="16" height="16">
   <properties>
    <property name="coins" type="bool" value="true"/>
   </properties>
  </object>
  <object id="55" x="912" y="192" width="16" height="16">
   <properties>
    <property name="coins" type="bool" value="true"/>
   </properties>
  </object>
  <object id="56" x="928" y="192" width="16" height="16">
   <properties>
    <property name="coins" type="bool" value="true"/>
   </properties>
  </object>
  <object id="48" x="880" y="128" width="16" height="16">
   <properties>
    <property name="coins" type="bool" value="true"/>
   </properties>
  </object>
  <object id="49" x="896" y="128" width="16" height="16">
   <properties>
    <property name="coins" type="bool" value="true"/>
   </properties>
  </object>
  <object id="50" x="912" y="128" width="16" height="16">
   <properties>
    <property name="coins" type="bool" value="true"/>
   </properties>
  </object>
  <object id="51" x="928" y="128" width="16" height="16">
   <properties>
    <property name="coins" type="bool" value="true"/>
   </properties>
  </object>
  <object id="34" x="432" y="80" width="16" height="16">
   <properties>
    <property name="flame_mushroom" type="bool" value="true"/>
   </properties>
  </object>
  <object id="91" x="1472" y="64.3333" width="16" height="16">
   <properties>
    <property name="one_up_mushroom" type="bool" value="true"/>
   </properties>
  </object>
  <object id="92" x="1456" y="64.3333" width="16" height="16">
   <properties>
    <property name="type" value="COIN"/>
   </properties>
  </object>
 </objectgroup>
 <objectgroup id="10" name="enemies">
  <object id="27" x="335.667" y="48" width="16" height="15.6667">
   <properties>
    <property name="hasParachute" type="bool" value="true"/>
    <property name="type" value="GOOMBA"/>
   </properties>
  </object>
  <object id="111" x="448.333" y="240" width="16" height="16">
   <properties>
    <property name="type" value="GOOMBRAT"/>
   </properties>
  </object>
  <object id="119" x="1040.33" y="111.667" width="16" height="16">
   <properties>
    <property name="type" value="GOOMBRAT"/>
   </properties>
  </object>
  <object id="121" x="1439.33" y="239.333" width="16" height="16">
   <properties>
    <property name="type" value="GOOMBA"/>
   </properties>
  </object>
  <object id="123" x="1455.33" y="239.333" width="16" height="16">
   <properties>
    <property name="type" value="RED_KOOPA_TROOPA"/>
   </properties>
  </object>
  <object id="124" x="1568" y="239" width="16" height="16">
   <properties>
    <property name="type" value="TARTOSSO"/>
   </properties>
  </object>
  <object id="125" x="2144" y="224.333" width="16" height="16">
   <properties>
    <property name="isBig" type="bool" value="false"/>
    <property name="left" type="bool" value="true"/>
    <property name="type" value="THWOMP_H"/>
   </properties>
  </object>
  <object id="112" x="496" y="240" width="16" height="16">
   <properties>
    <property name="type" value="KOOPA_TROOPA"/>
   </properties>
  </object>
  <object id="118" x="943.667" y="240.333" width="16" height="16">
   <properties>
    <property name="type" value="KOOPA_TROOPA"/>
   </properties>
  </object>
  <object id="113" x="720.333" y="80.3333" width="16" height="16">
   <properties>
    <property name="hasParachute" type="bool" value="true"/>
    <property name="type" value="RED_KOOPA_TROOPA"/>
   </properties>
  </object>
  <object id="115" x="656.667" y="239.667" width="16" height="16">
   <properties>
    <property name="type" value="GOOMBA"/>
   </properties>
  </object>
  <object id="117" x="879.333" y="224" width="16" height="16">
   <properties>
    <property name="isBig" type="bool" value="true"/>
    <property name="type" value="GOOMBA"/>
   </properties>
  </object>
  <object id="116" x="575.667" y="239.667" width="16" height="16">
   <properties>
    <property name="type" value="GOOMBA"/>
   </properties>
  </object>
 </objectgroup>
 <objectgroup id="12" name="square_brick">
  <object id="7" x="2256" y="240" width="16" height="16"/>
  <object id="8" x="2176" y="96" width="32" height="160"/>
  <object id="9" x="1696" y="240" width="16" height="16"/>
  <object id="10" x="1728" y="224" width="16" height="32"/>
  <object id="11" x="1760" y="192" width="16" height="64"/>
  <object id="12" x="1792" y="192" width="16" height="64"/>
  <object id="13" x="1824" y="224" width="16" height="32"/>
  <object id="14" x="1856" y="240" width="16" height="16"/>
  <object id="15" x="512" y="192" width="16" height="64"/>
  <object id="16" x="528" y="224" width="16" height="32"/>
  <object id="17" x="288.125" y="239.875" width="79.875" height="16.25"/>
  <object id="18" x="303.875" y="224" width="64.25" height="15.75"/>
  <object id="19" x="320" y="207.875" width="48.125" height="16.125"/>
  <object id="20" x="336" y="192" width="31.875" height="16.125"/>
  <object id="21" x="351.875" y="176" width="16.125" height="15.75"/>
 </objectgroup>
</map>
