<?xml version="1.0" encoding="UTF-8"?>
<map version="1.10" tiledversion="1.11.0" orientation="orthogonal" renderorder="right-down" width="150" height="15" tilewidth="16" tileheight="16" infinite="0" nextlayerid="14" nextobjectid="239">
 <properties>
  <property name="spawn_mario_x" type="int" value="3"/>
  <property name="spawn_mario_y" type="int" value="12"/>
 </properties>
 <tileset firstgid="1" name="mapTiles-2" tilewidth="16" tileheight="16" tilecount="812" columns="29">
  <image source="../tilesets/tiles-2.png" width="464" height="448"/>
 </tileset>
 <layer id="13" name="decoration" width="150" height="15">
  <data encoding="csv">
0,0,0,0,0,0,0,0,0,0,0,0,0,0,0,0,0,0,0,0,0,0,0,0,0,0,0,0,0,0,0,0,0,0,0,0,0,0,0,0,0,0,0,0,0,0,0,0,0,0,0,0,0,0,0,0,0,0,0,0,0,0,0,0,0,0,0,0,0,0,0,0,0,0,0,0,0,0,697,698,699,0,0,0,0,0,0,0,0,0,0,0,0,0,0,0,0,0,0,0,0,0,0,0,0,0,0,0,0,0,0,0,0,0,0,0,0,0,0,0,0,0,0,0,0,0,0,0,0,0,0,0,0,0,0,0,0,0,0,0,0,0,0,0,0,0,0,0,0,0,
0,697,698,699,0,0,0,0,0,0,0,0,0,0,0,0,0,0,697,698,699,0,0,0,0,697,698,699,0,0,0,0,697,698,699,0,0,0,0,0,0,0,0,0,0,697,698,699,0,0,0,0,0,0,0,0,0,0,0,0,0,0,0,0,0,0,0,0,0,0,0,0,0,0,0,0,0,0,726,727,728,0,0,0,0,0,0,0,0,0,0,0,0,0,0,0,0,697,698,699,0,0,0,0,0,0,0,0,697,698,699,0,0,0,0,0,697,698,699,0,0,0,0,0,0,0,0,0,0,0,0,0,0,0,0,0,0,0,0,0,0,0,0,0,0,0,0,0,0,0,
0,726,727,728,0,0,0,0,0,0,0,0,0,0,0,0,0,0,726,727,728,0,0,0,0,726,727,728,0,0,0,0,726,727,728,0,0,0,0,0,0,0,0,0,0,726,727,728,0,0,0,0,0,0,0,0,0,697,698,699,0,0,0,0,0,0,0,0,0,697,698,699,0,0,0,0,0,0,0,0,0,0,0,0,0,0,0,0,0,0,697,698,699,0,0,0,0,726,727,728,0,0,0,0,0,0,0,0,726,727,728,0,0,0,0,0,726,727,728,0,0,0,0,0,697,698,699,0,0,0,0,0,0,697,698,699,0,0,0,697,698,699,0,0,0,0,697,698,699,0,
0,0,0,0,0,0,0,697,698,699,0,0,0,0,0,0,0,0,0,0,0,0,0,0,0,0,0,0,0,0,0,0,0,0,0,0,0,0,0,0,0,0,0,0,0,0,0,0,0,0,0,0,0,0,0,0,0,726,727,728,0,0,697,698,699,0,0,0,0,726,727,728,0,0,0,0,0,0,363,0,0,0,0,0,0,0,0,0,0,0,726,727,728,0,0,0,0,0,0,0,0,0,0,0,0,0,363,0,0,0,0,0,0,0,0,0,0,0,0,0,0,0,0,0,726,727,728,0,0,0,0,0,0,726,727,728,0,0,0,726,727,728,0,0,0,0,726,727,728,0,
0,0,0,0,0,0,0,726,727,728,0,0,0,0,0,0,0,0,0,0,0,0,0,0,0,0,0,0,0,0,0,0,0,0,0,0,0,0,363,0,0,0,0,0,0,0,0,0,0,0,0,0,0,0,0,0,0,0,0,0,0,0,726,727,728,0,0,0,0,0,0,0,0,0,0,0,0,0,392,0,0,0,0,0,0,0,0,0,0,0,0,0,0,0,0,0,0,0,0,0,0,0,0,0,0,0,392,362,0,0,0,0,0,0,0,0,0,0,0,0,0,0,0,0,0,0,0,0,0,0,0,0,0,0,0,0,0,0,0,0,0,0,0,0,0,0,0,0,0,0,
0,0,0,0,0,0,0,0,0,0,0,0,0,0,0,0,0,0,0,0,0,0,0,0,0,0,0,0,363,0,0,0,0,0,0,0,0,0,392,362,0,0,0,0,0,0,0,0,0,0,0,0,0,0,0,0,0,0,0,0,0,0,0,0,0,0,0,0,0,0,0,0,0,0,0,0,0,6,37,0,0,0,0,0,0,0,0,0,0,0,0,0,0,0,0,0,0,0,0,0,0,0,0,0,0,0,37,37,0,0,389,390,391,0,0,0,0,0,0,0,0,0,0,0,0,0,0,0,0,0,0,0,0,0,0,0,0,0,0,0,0,0,0,697,698,699,0,0,0,0,
0,0,365,0,0,0,0,0,0,0,0,0,0,0,0,0,0,0,0,0,0,0,0,0,0,0,0,0,392,362,0,0,0,0,0,0,0,0,37,37,0,0,0,0,0,0,0,0,0,0,0,0,0,0,0,0,0,0,0,0,0,0,0,0,0,0,0,0,0,0,0,0,0,0,0,0,0,0,0,0,0,0,0,0,0,0,0,0,363,0,0,0,0,0,0,0,0,0,0,0,0,0,0,0,0,0,0,0,0,0,0,0,0,0,0,0,0,0,0,0,0,0,0,0,0,0,0,0,0,0,0,0,0,0,0,0,0,0,0,0,0,0,0,726,727,728,0,0,0,0,
0,0,394,0,0,0,0,0,0,0,0,0,0,0,0,0,0,0,0,0,0,0,0,0,0,0,0,6,37,37,6,0,0,0,0,0,0,0,0,0,0,0,0,0,0,0,0,0,0,0,0,0,0,0,0,0,0,0,0,0,0,0,0,0,0,0,0,0,0,0,0,0,0,0,0,0,0,0,0,0,0,0,0,0,0,0,0,0,392,0,0,0,0,0,0,0,0,0,0,0,0,0,0,0,0,0,0,0,0,0,0,0,0,0,0,0,0,0,0,0,0,0,0,0,0,0,0,0,0,0,0,0,0,0,0,0,0,0,0,0,0,0,0,0,0,0,0,0,0,0,
365,12,12,12,365,0,0,0,0,0,0,0,0,0,0,0,365,0,0,0,0,0,0,365,0,0,0,0,0,0,0,0,0,0,0,0,0,0,0,0,0,0,0,0,0,0,0,0,0,0,0,0,0,0,0,0,0,0,0,0,0,0,0,0,0,0,0,0,389,390,391,0,0,0,0,0,0,0,0,0,0,0,0,0,0,0,0,6,37,6,0,389,390,391,0,0,0,0,0,0,0,0,0,0,0,0,0,0,0,0,0,0,0,0,0,0,0,0,0,0,0,0,0,0,0,0,0,0,0,0,0,0,0,0,0,0,0,0,0,0,0,0,0,0,0,0,0,0,0,0,
394,13,14,15,394,0,0,0,0,0,0,0,0,0,0,0,394,0,0,0,0,0,0,394,0,0,0,0,0,0,0,0,0,0,0,362,0,0,0,0,0,0,0,0,0,0,0,0,0,0,0,363,0,0,0,0,0,0,0,0,0,0,0,0,0,0,0,0,0,0,0,0,0,0,0,0,0,0,0,0,0,0,0,0,0,0,0,0,0,0,0,0,0,0,0,0,0,0,0,0,0,0,0,0,0,0,0,0,0,0,0,0,0,0,0,0,0,0,0,0,0,0,0,0,0,0,0,0,0,0,0,0,0,0,0,0,0,0,0,0,0,0,0,0,0,0,0,0,0,0,
12,41,41,41,12,0,0,0,363,0,0,0,0,0,0,0,0,0,389,390,391,0,0,0,0,0,0,0,0,0,0,0,389,390,391,37,0,0,0,0,0,0,0,0,0,0,0,0,0,0,0,392,0,0,0,0,0,0,0,0,0,0,0,0,0,0,0,0,0,0,0,0,0,0,0,0,0,0,0,0,0,0,0,0,0,0,0,0,0,0,0,0,0,0,0,0,0,0,0,0,0,0,0,0,0,0,0,0,0,0,0,0,0,0,0,0,0,0,0,0,0,363,0,0,0,0,0,0,0,0,0,0,0,0,0,0,0,363,0,0,0,0,0,0,0,0,0,363,0,0,
14,14,42,14,14,0,0,0,392,362,0,0,0,0,0,0,0,0,0,0,0,0,0,0,0,0,0,0,0,0,0,0,0,0,0,0,0,0,0,0,0,0,0,0,0,0,0,0,0,0,0,37,6,0,0,0,0,0,0,0,0,0,0,389,390,391,0,0,0,0,0,0,0,0,0,0,0,0,0,0,0,0,0,0,0,0,0,0,0,0,0,0,0,0,0,0,0,0,0,0,0,0,0,0,0,0,0,0,0,0,0,0,0,0,0,0,0,0,0,0,0,392,362,0,0,0,0,0,0,0,0,0,0,0,0,0,0,392,362,0,0,0,0,0,0,0,0,392,0,0,
14,14,43,14,14,0,0,6,37,37,6,389,390,391,0,0,0,0,0,0,0,0,0,0,0,0,0,0,0,0,0,0,0,0,0,0,0,0,0,0,0,0,0,0,0,0,0,0,0,0,0,0,0,0,0,0,0,0,0,0,0,0,0,0,0,0,0,0,0,0,0,0,0,0,0,0,0,0,0,0,0,0,0,0,0,0,0,0,0,0,0,0,0,0,0,0,0,0,0,0,0,0,0,0,0,0,0,0,0,0,0,0,0,0,0,389,390,391,0,0,6,37,37,0,0,0,0,0,0,0,0,0,0,0,0,0,6,37,37,6,0,0,0,0,0,389,390,37,390,391,
0,0,0,0,0,0,0,0,0,0,0,0,0,0,0,0,0,0,0,0,0,0,0,0,0,0,0,0,0,0,0,0,0,0,0,0,0,0,0,0,0,0,0,0,0,0,0,0,0,0,0,0,0,0,0,0,0,0,0,0,0,0,0,0,0,0,0,0,0,0,0,0,0,0,0,0,0,0,0,0,0,0,0,0,0,0,0,0,0,0,0,0,0,0,0,0,0,0,0,0,0,0,0,0,0,0,0,0,0,0,0,0,0,0,0,0,0,0,0,0,0,0,0,0,0,0,0,0,0,0,0,0,0,0,0,0,0,0,0,0,0,0,0,0,0,0,0,0,0,0,
0,0,0,0,0,0,0,0,0,0,0,0,0,0,0,0,0,0,0,0,0,0,0,0,0,0,0,0,0,0,0,0,0,0,0,0,0,0,0,0,0,0,0,0,0,0,0,0,0,0,0,0,0,0,0,0,0,0,0,0,0,0,0,0,0,0,0,0,0,0,0,0,0,0,0,0,0,0,0,0,0,0,0,0,0,0,0,0,0,0,0,0,0,0,0,0,0,0,0,0,0,0,0,0,0,0,0,0,0,0,0,0,0,0,0,0,0,0,0,0,0,0,0,0,0,0,0,0,0,0,0,0,0,0,0,0,0,0,0,0,0,0,0,0,0,0,0,0,0,0
</data>
 </layer>
 <objectgroup id="3" name="ground">
  <object id="131" x="0.666667" y="209.333" width="256" height="32"/>
  <object id="148" x="304" y="192" width="32" height="48"/>
  <object id="149" x="288" y="176" width="64" height="16"/>
  <object id="152" x="384" y="128" width="144" height="16"/>
  <object id="153" x="432" y="64" width="80" height="16"/>
  <object id="154" x="400.333" y="144" width="112" height="96"/>
  <object id="159" x="513" y="176" width="78.5" height="16"/>
  <object id="160" x="528" y="192" width="48" height="48"/>
  <object id="162" x="576" y="112" width="80" height="16"/>
  <object id="163" x="592" y="128" width="48" height="112"/>
  <object id="166" x="672" y="64" width="64" height="176"/>
  <object id="167" x="656" y="48" width="96" height="16"/>
  <object id="168" x="800" y="192" width="64" height="16"/>
  <object id="169" x="816" y="208" width="32" height="32"/>
  <object id="171" x="928" y="208" width="48" height="32"/>
  <object id="173" x="912" y="192" width="80" height="16"/>
  <object id="179" x="1024" y="208" width="48" height="32"/>
  <object id="180" x="1008" y="192" width="80" height="16"/>
  <object id="181" x="1184" y="96" width="80" height="16"/>
  <object id="182" x="1200" y="112" width="48" height="128"/>
  <object id="185" x="1328" y="192" width="32" height="48"/>
  <object id="186" x="1312" y="176" width="64" height="16"/>
  <object id="191" x="1408" y="160" width="80" height="80"/>
  <object id="192" x="1386.75" y="144" width="117.25" height="16"/>
  <object id="196" x="1536" y="112" width="48" height="128"/>
  <object id="197" x="1520" y="96" width="80" height="16"/>
  <object id="198" x="1600" y="48" width="80" height="16"/>
  <object id="199" x="1616" y="64" width="48" height="176"/>
  <object id="200" x="1696" y="112" width="112" height="128"/>
  <object id="202" x="1680" y="96" width="144" height="16"/>
  <object id="213" x="1840" y="208" width="560" height="32"/>
  <object id="217" x="1104" y="160" width="17" height="79.5"/>
  <object id="219" x="1088" y="144" width="48" height="16"/>
  <object id="220" x="0.5" y="9" width="6" height="198.5"/>
 </objectgroup>
 <objectgroup id="5" name="pipes">
  <object id="221" x="223.75" y="176" width="32.375" height="31.875">
   <properties>
    <property name="has_piranha_plant" type="bool" value="true"/>
   </properties>
  </object>
  <object id="230" x="1039.88" y="127.5" width="31.875" height="64.75">
   <properties>
    <property name="has_piranha_plant" type="bool" value="true"/>
    <property name="isTall" type="bool" value="true"/>
   </properties>
  </object>
  <object id="234" x="1344.38" y="111.5" width="31.875" height="64.75">
   <properties>
    <property name="has_piranha_plant" type="bool" value="true"/>
    <property name="isTall" type="bool" value="true"/>
   </properties>
  </object>
  <object id="236" x="1472.25" y="112.5" width="31.75" height="31.75">
   <properties>
    <property name="has_piranha_plant" type="bool" value="true"/>
   </properties>
  </object>
  <object id="237" x="1792" y="63.25" width="31.75" height="32.75">
   <properties>
    <property name="has_piranha_plant" type="bool" value="true"/>
   </properties>
  </object>
 </objectgroup>
 <objectgroup id="10" name="enemies">
  <object id="85" x="432" y="47.6667" width="16" height="16">
   <properties>
    <property name="isBig" type="bool" value="true"/>
    <property name="type" value="GOOMBA"/>
   </properties>
  </object>
  <object id="87" x="176" y="48" width="16" height="16">
   <properties>
    <property name="type" value="THWOMP_V"/>
   </properties>
  </object>
  <object id="89" x="672.667" y="30.6667" width="16" height="16">
   <properties>
    <property name="type" value="GOOMBA"/>
   </properties>
  </object>
  <object id="229" x="896" y="112.333" width="16" height="16">
   <properties>
    <property name="isBig" type="bool" value="false"/>
    <property name="left" type="bool" value="true"/>
    <property name="type" value="THWOMP_H"/>
   </properties>
  </object>
  <object id="123" x="2000" y="192" width="16" height="16">
   <properties>
    <property name="bulletType" value="B_BULLET_BILL"/>
    <property name="type" value="BLACK_CANNON"/>
   </properties>
  </object>
  <object id="124" x="2128" y="96" width="16" height="16">
   <properties>
    <property name="type" value="GOOMBRAT"/>
   </properties>
  </object>
  <object id="184" x="1216" y="80" width="16" height="16">
   <properties>
    <property name="type" value="TARTOSSO"/>
   </properties>
  </object>
  <object id="193" x="1440" y="128" width="16" height="16">
   <properties>
    <property name="has_parachute" type="bool" value="false"/>
    <property name="isBig" type="bool" value="false"/>
    <property name="type" value="KOOPA_TROOPA"/>
   </properties>
  </object>
  <object id="194" x="1743.75" y="63.75" width="16" height="16">
   <properties>
    <property name="has_parachute" type="bool" value="false"/>
    <property name="isBig" type="bool" value="true"/>
    <property name="type" value="GOOMBA"/>
   </properties>
  </object>
  <object id="238" x="1887.67" y="47.6667" width="16.6667" height="16">
   <properties>
    <property name="type" value="THWOMP_V"/>
   </properties>
  </object>
 </objectgroup>
 <objectgroup id="11" name="objects">
  <object id="109" x="400" y="96" width="32" height="32">
   <properties>
    <property name="type" value="COIN_10"/>
   </properties>
  </object>
  <object id="110" x="448" y="48" width="16" height="16">
   <properties>
    <property name="type" value="COIN"/>
   </properties>
  </object>
  <object id="111" x="464.667" y="16" width="16" height="16">
   <properties>
    <property name="type" value="COIN"/>
   </properties>
  </object>
  <object id="112" x="592" y="32" width="32" height="32">
   <properties>
    <property name="type" value="COIN_30"/>
   </properties>
  </object>
  <object id="147" x="480" y="48" width="16" height="16">
   <properties>
    <property name="type" value="COIN"/>
   </properties>
  </object>
  <object id="157" x="800" y="80" width="16" height="16">
   <properties>
    <property name="type" value="COIN"/>
   </properties>
  </object>
  <object id="158" x="816" y="80" width="16" height="16">
   <properties>
    <property name="type" value="COIN"/>
   </properties>
  </object>
  <object id="177" x="928" y="176" width="16" height="16">
   <properties>
    <property name="type" value="COIN"/>
   </properties>
  </object>
  <object id="178" x="944" y="176" width="16" height="16">
   <properties>
    <property name="type" value="COIN"/>
   </properties>
  </object>
  <object id="187" x="1312" y="160" width="16" height="16">
   <properties>
    <property name="type" value="COIN"/>
   </properties>
  </object>
  <object id="188" x="1327.75" y="128.25" width="16" height="16">
   <properties>
    <property name="type" value="COIN"/>
   </properties>
  </object>
  <object id="203" x="1552" y="80" width="16" height="16">
   <properties>
    <property name="type" value="COIN"/>
   </properties>
  </object>
  <object id="204" x="1584.25" y="80" width="16" height="16">
   <properties>
    <property name="type" value="COIN"/>
   </properties>
  </object>
  <object id="205" x="1600" y="32" width="16" height="16">
   <properties>
    <property name="type" value="COIN"/>
   </properties>
  </object>
  <object id="206" x="1600" y="32" width="16" height="16">
   <properties>
    <property name="type" value="COIN"/>
   </properties>
  </object>
  <object id="207" x="1615.75" y="32.1667" width="16" height="16">
   <properties>
    <property name="type" value="COIN"/>
   </properties>
  </object>
  <object id="209" x="1648.5" y="31.5833" width="16" height="16">
   <properties>
    <property name="type" value="COIN"/>
   </properties>
  </object>
  <object id="210" x="1632" y="32" width="16" height="16">
   <properties>
    <property name="type" value="COIN"/>
   </properties>
  </object>
  <object id="211" x="1664" y="32" width="16" height="16">
   <properties>
    <property name="type" value="COIN"/>
   </properties>
  </object>
  <object id="212" x="1664" y="32" width="16" height="16">
   <properties>
    <property name="type" value="COIN"/>
   </properties>
  </object>
  <object id="216" x="2255.63" y="176.813" width="15.75" height="15.375">
   <properties>
    <property name="left" type="bool" value="false"/>
    <property name="type" value="FINAL_FLAG_POLE"/>
   </properties>
  </object>
  <object id="224" x="320" y="144" width="16" height="15.9375">
   <properties>
    <property name="type" value="COIN"/>
   </properties>
  </object>
  <object id="225" x="304" y="144" width="16" height="15.9375">
   <properties>
    <property name="type" value="COIN"/>
   </properties>
  </object>
 </objectgroup>
 <objectgroup id="6" name="bricks">
  <object id="222" x="304" y="112" width="16" height="15.9375"/>
 </objectgroup>
 <objectgroup id="7" name="question_block">
  <object id="175" x="928" y="144" width="16" height="16">
   <properties>
    <property name="super_mario_mushroom" type="bool" value="true"/>
   </properties>
  </object>
  <object id="223" x="320" y="112" width="16" height="15.9375">
   <properties>
    <property name="flame_mushroom" type="bool" value="true"/>
   </properties>
  </object>
  <object id="231" x="1104.18" y="80" width="15.8182" height="16">
   <properties>
    <property name="coins" type="bool" value="true"/>
   </properties>
  </object>
  <object id="235" x="1360.13" y="32.25" width="15.75" height="16">
   <properties>
    <property name="coins" type="bool" value="true"/>
   </properties>
  </object>
 </objectgroup>
 <objectgroup id="4" name="square_brick">
  <object id="7" x="2016" y="192" width="144" height="16"/>
  <object id="8" x="2032" y="176" width="128" height="16"/>
  <object id="9" x="2064" y="160" width="96" height="16"/>
  <object id="10" x="2080" y="144" width="80" height="16"/>
  <object id="11" x="2096" y="128" width="64" height="16"/>
  <object id="12" x="2112" y="112" width="47.3333" height="14"/>
  <object id="215" x="2255.38" y="191.424" width="15.9091" height="15.8182"/>
  <object id="227" x="256.091" y="159.909" width="32.0909" height="15.9091"/>
  <object id="228" x="351.818" y="160" width="32.3636" height="16.0909"/>
  <object id="232" x="1135.45" y="128" width="32.9091" height="16.1818"/>
  <object id="233" x="1168.18" y="111.818" width="15.6364" height="16"/>
 </objectgroup>
 <layer id="9" name="graphics" width="150" height="15">
  <data encoding="csv">
0,0,0,0,0,0,0,0,0,0,0,0,0,0,0,0,0,0,0,0,0,0,0,0,0,0,0,0,0,0,0,0,0,0,0,0,0,0,0,0,0,0,0,0,0,0,0,0,0,0,0,0,0,0,0,0,0,0,0,0,0,0,0,0,0,0,0,0,0,0,0,0,0,0,0,0,0,0,0,0,0,0,0,0,0,0,0,0,0,0,0,0,0,0,0,0,0,0,0,0,0,0,0,0,0,0,0,0,0,0,0,0,0,0,0,0,0,0,0,0,0,0,0,0,0,0,0,0,0,0,0,0,0,0,0,0,0,0,0,0,0,0,0,0,0,0,0,0,0,0,
0,0,0,0,0,0,0,0,0,0,0,0,0,0,0,0,0,0,0,0,0,0,0,0,0,0,0,0,0,0,0,0,0,0,0,0,0,0,0,0,0,0,0,0,0,0,0,0,0,0,0,0,0,0,0,0,0,0,0,0,0,0,0,0,0,0,0,0,0,0,0,0,0,0,0,0,0,0,0,0,0,0,0,0,0,0,0,0,0,0,0,0,0,0,0,0,0,0,0,0,0,0,0,0,0,0,0,0,0,0,0,0,0,0,0,0,0,0,0,0,0,0,0,0,0,0,0,0,0,0,0,0,0,0,0,0,0,0,0,0,0,0,0,0,0,0,0,0,0,0,
0,0,0,0,0,0,0,0,0,0,0,0,0,0,0,0,0,0,0,0,0,0,0,0,0,0,0,0,0,0,0,0,0,0,0,0,0,0,0,0,0,0,0,0,0,0,0,0,0,0,0,0,0,0,0,0,0,0,0,0,0,0,0,0,0,0,0,0,0,0,0,0,0,0,0,0,0,0,0,0,0,0,0,0,0,24,0,0,0,0,0,0,0,0,0,0,0,0,0,0,0,0,0,0,0,0,0,0,0,0,0,0,0,0,0,0,0,0,0,0,0,0,0,0,0,0,0,0,0,0,0,0,0,0,0,0,0,0,0,0,0,0,0,0,0,0,0,0,0,0,
0,0,0,0,0,0,0,0,0,0,0,0,0,0,0,0,0,0,0,0,0,0,0,0,0,0,0,0,0,0,0,0,0,0,0,0,0,0,0,0,0,238,239,239,239,239,240,0,0,0,0,0,0,0,0,0,0,0,0,0,0,0,0,0,0,0,0,0,0,0,0,0,0,0,0,0,0,0,0,0,0,0,0,0,0,0,0,0,0,0,0,0,0,0,0,0,0,0,0,0,238,239,239,239,240,0,0,0,0,0,0,0,0,0,0,0,0,0,0,0,0,0,0,0,0,0,0,0,0,0,0,0,0,0,0,0,0,0,0,0,0,0,0,0,0,0,0,0,0,0,
0,0,0,0,0,0,0,0,0,0,0,0,0,0,0,0,0,0,0,0,0,0,0,0,0,0,0,238,239,239,239,240,0,0,0,0,0,0,0,0,0,0,35,35,35,35,0,0,0,0,0,0,0,0,0,0,0,0,0,0,0,0,0,0,0,0,0,0,0,0,0,0,0,0,0,0,0,0,0,0,0,0,0,0,0,0,0,0,0,0,0,0,0,0,0,0,0,0,0,0,0,35,35,35,0,0,0,0,0,0,0,0,349,350,0,0,0,0,0,0,0,0,0,0,0,0,0,0,0,0,0,0,0,0,0,0,0,0,0,0,0,0,0,0,0,0,0,0,0,0,
0,0,0,0,0,0,0,0,0,0,0,0,0,0,0,0,0,0,0,0,0,0,0,0,0,0,0,0,0,0,0,0,0,0,0,0,0,0,0,0,0,0,35,35,35,35,0,0,0,0,0,0,0,0,0,0,0,0,0,0,0,0,0,0,0,0,0,0,0,24,0,0,0,0,0,0,0,0,0,0,0,0,0,0,0,0,0,0,0,0,0,0,0,0,0,0,0,0,0,0,0,35,35,35,0,0,0,0,0,0,0,0,378,379,0,0,0,0,0,0,0,0,0,0,0,0,0,0,0,0,0,0,0,0,0,0,0,0,0,0,0,0,0,0,0,0,0,0,0,0,
0,0,0,0,0,0,0,0,0,0,0,0,0,0,0,0,0,0,0,0,0,0,0,0,0,0,0,0,0,0,0,0,0,0,0,0,0,0,0,0,0,0,35,35,35,35,0,0,0,0,0,0,0,0,0,0,0,0,0,0,0,0,0,0,0,0,0,0,0,0,0,0,0,0,238,239,239,239,240,0,0,0,0,0,0,0,0,0,0,0,0,0,0,0,0,238,239,239,239,240,0,35,35,35,0,238,239,239,239,239,239,239,239,240,0,0,0,0,0,0,0,0,0,0,0,0,0,0,0,0,0,0,0,0,0,0,0,0,0,0,0,0,0,0,0,0,0,0,0,0,
0,0,0,0,0,0,0,0,0,0,0,0,0,0,0,0,0,0,0,3,24,0,0,0,0,0,0,0,0,0,0,0,0,0,0,0,238,239,239,239,240,0,35,35,35,35,0,0,0,0,0,0,0,0,0,0,0,0,0,0,0,0,0,0,0,0,0,0,0,0,0,0,0,30,0,35,35,35,0,0,0,0,0,0,349,350,0,0,0,0,0,0,349,350,0,0,35,35,35,0,0,35,35,35,0,0,35,35,35,35,35,35,35,0,0,0,0,0,0,0,0,0,0,0,0,0,0,0,0,0,0,0,30,30,30,0,0,0,0,0,0,0,0,0,0,0,0,0,0,0,
0,0,0,0,0,0,0,0,0,0,0,0,0,0,0,0,0,0,0,0,0,0,0,0,296,297,297,297,297,297,297,297,298,0,0,0,0,35,35,35,0,0,35,35,35,35,0,0,0,0,0,0,0,0,0,0,0,0,0,0,0,0,0,0,0,349,350,0,0,0,0,30,30,0,0,35,35,35,0,0,0,0,0,0,378,379,0,0,0,0,0,0,378,379,0,0,35,35,35,0,0,35,35,35,0,0,35,35,35,35,35,35,35,0,0,0,0,0,0,0,0,0,0,0,0,0,0,0,0,0,0,30,30,30,30,0,0,0,0,0,0,0,0,0,0,0,0,0,0,0,
0,0,0,0,0,0,0,0,0,0,0,0,0,0,0,0,0,0,0,0,0,0,0,0,0,35,35,35,35,35,35,35,0,0,0,0,0,35,35,35,0,0,35,35,35,35,0,0,0,0,0,0,0,0,0,0,0,0,24,0,0,0,0,0,0,378,379,0,238,239,240,0,0,0,0,35,35,35,0,0,0,0,0,0,378,379,0,238,239,239,239,239,239,240,0,0,35,35,35,0,0,35,35,35,0,0,35,35,35,35,35,35,35,0,0,0,0,0,0,0,0,0,0,0,0,0,0,0,0,0,30,30,30,30,30,0,0,0,0,0,0,0,0,0,0,0,0,0,0,0,
0,0,0,0,0,0,0,0,0,0,0,0,0,0,0,0,30,30,0,0,0,0,30,30,0,35,35,35,35,35,35,35,0,0,0,0,0,35,35,35,0,0,35,35,35,35,0,0,0,0,0,0,0,0,0,0,0,0,0,0,0,0,0,0,0,378,379,0,0,35,0,0,0,0,0,35,35,35,0,0,0,0,0,0,378,379,0,0,35,35,35,35,35,0,0,0,35,35,35,0,0,35,35,35,0,0,35,35,35,35,35,35,35,0,0,0,0,0,0,0,0,0,0,0,0,0,0,0,0,30,30,30,30,30,30,0,0,0,0,0,0,0,0,0,0,0,0,0,0,0,
0,0,0,0,0,0,0,0,0,0,0,0,0,0,349,350,0,0,238,239,239,240,0,0,0,35,35,35,35,35,35,35,238,239,239,239,240,35,35,35,0,0,35,35,35,35,0,0,0,0,0,0,0,0,0,0,0,0,0,0,0,0,0,0,0,378,379,0,0,35,0,0,0,0,0,35,35,35,0,0,0,0,238,239,239,240,0,0,35,35,35,35,35,0,0,0,35,35,35,0,0,35,35,35,0,0,35,35,35,35,35,35,35,0,0,0,0,0,0,0,0,0,0,0,0,0,0,30,30,30,30,30,30,30,30,0,0,0,0,0,0,0,0,0,0,0,0,0,0,0,
0,0,0,0,0,0,0,0,0,0,0,0,0,0,378,379,0,0,0,35,35,0,0,0,0,35,35,35,35,35,35,35,0,35,35,35,0,35,35,35,0,0,35,35,35,35,0,0,0,0,238,239,239,240,0,0,0,296,239,239,239,240,0,238,239,239,239,240,0,35,0,0,0,0,0,35,35,35,0,0,0,0,0,35,35,0,0,0,35,35,35,35,35,0,0,0,35,35,35,0,0,35,35,35,0,0,35,35,35,35,35,35,35,0,0,0,0,0,0,0,0,0,0,0,0,0,30,30,30,30,30,30,30,30,30,0,0,0,0,0,0,30,0,0,0,0,0,0,0,0,
1,1,1,1,1,1,1,1,1,1,1,1,1,1,1,1,0,0,0,35,35,0,0,0,0,35,35,35,35,35,35,35,0,35,35,35,0,35,35,35,0,0,35,35,35,35,0,0,0,0,0,35,35,0,0,0,0,0,35,35,35,0,0,0,35,35,35,0,0,35,0,0,0,0,0,35,35,35,0,0,0,0,0,35,35,0,0,0,35,35,35,35,35,0,0,0,35,35,35,0,0,35,35,35,0,0,35,35,35,35,35,35,35,0,0,1,1,1,1,1,1,1,1,1,1,1,1,1,1,1,1,1,1,1,1,1,1,1,1,1,1,1,1,1,1,1,1,1,1,1,
1,1,1,1,1,1,1,1,1,1,1,1,1,1,1,1,0,0,0,35,35,0,0,0,0,35,35,35,35,35,35,35,0,35,35,35,0,35,35,35,0,0,35,35,35,35,0,0,0,0,0,35,35,0,0,0,0,0,35,35,35,0,0,0,35,35,35,0,0,35,0,0,0,0,0,35,35,35,0,0,0,0,0,35,35,0,0,0,35,35,35,35,35,0,0,0,35,35,35,0,0,35,35,35,0,0,35,35,35,35,35,35,35,0,0,1,1,1,1,1,1,1,1,1,1,1,1,1,1,1,1,1,1,1,1,1,1,1,1,1,1,1,1,1,1,1,1,1,1,1
</data>
 </layer>
</map>
