<?xml version="1.0" encoding="UTF-8"?>
<map version="1.10" tiledversion="1.11.0" orientation="orthogonal" renderorder="right-down" width="150" height="15" tilewidth="16" tileheight="16" infinite="0" nextlayerid="14" nextobjectid="112">
 <tileset firstgid="1" source="Custom Edited - Mario Customs - Super Mario Bros 2 Tileset SMM-Style.json"/>
 <tileset firstgid="2305" source="castle.json"/>
 <tileset firstgid="2635" source="8382EAAC-B690-43D5-B3A5-9D16FD458252.json"/>
 <tileset firstgid="3805" source="Wii U - Super Mario Maker - Tileset SMB1.json"/>
 <tileset firstgid="6445" source="148d3c6b-690f-4506-8ba5-8667a37d1140.json"/>
 <tileset firstgid="7370" source="tiles-custom-17.json"/>
 <tileset firstgid="7658" source="goomba_run_left.json"/>
 <tileset firstgid="7659" source="KTroopa_L_1.json"/>
 <tileset firstgid="7661" source="pirana_1.json"/>
 <tileset firstgid="7665" source="flagpole.json"/>
 <tileset firstgid="7775" source="black.json"/>
 <group id="11" name="Group 1">
  <layer id="8" name="Background" width="150" height="15">
   <data encoding="csv">
7594,7594,7594,7594,7594,7594,7594,7594,7594,7594,7594,7594,7594,7594,7594,7594,7594,7594,7594,7594,7594,7594,7594,7594,7594,7594,7594,7594,7594,7594,7594,7594,7594,7594,7594,7594,7594,7594,7594,7594,7594,7594,7594,7594,7594,7594,7594,7594,7594,7594,7594,7594,7594,7594,7594,7594,7594,7594,7594,7594,7594,7594,7594,7594,7594,7594,7594,7594,7594,7594,7594,7594,7594,7594,7594,7594,7594,7594,7594,7594,7594,7594,7594,7594,7594,7594,7594,7594,7594,7594,7594,7594,7594,7594,7594,7594,7594,7594,7594,7594,7594,7594,7594,7594,7594,7594,7594,7594,7594,7594,7594,7594,7594,7594,7594,7594,7594,7594,7594,7594,7594,7594,7594,7594,7594,7594,7594,7594,7594,7594,7594,7594,7594,7594,7594,7594,7594,7594,7594,7594,7594,7594,7594,7594,7594,7594,7594,7594,7594,7594,
7594,7594,7594,7594,7594,7594,7594,7594,7594,7594,7594,7594,7594,7594,7594,7594,7594,7594,7594,7594,7594,7594,7594,7594,7594,7594,7594,7594,7594,7594,7594,7594,7594,7594,7594,7594,7594,7594,7594,7594,7594,7594,7594,7594,7594,7594,7594,7594,7594,7594,7594,7594,7594,7594,7594,7594,7594,7594,7594,7594,7594,7594,7594,7594,7594,7594,7594,7594,7594,7594,7594,7594,7594,7594,7594,7594,7594,7594,7594,7594,7594,7594,7594,7594,7594,7594,7594,7594,7594,7594,7594,7594,7594,7594,7594,7594,7594,7594,7594,7594,7594,7594,7594,7594,7594,7594,7594,7594,7594,7594,7594,7594,7594,7594,7594,7594,7594,7594,7594,7594,7594,7594,7594,7594,7594,7594,7594,7594,7594,7594,7594,7594,7594,7594,7594,7594,7594,7594,7594,7594,7594,7594,7594,7594,7594,7594,7594,7594,7594,7594,
7594,7594,7594,7594,7594,7594,7594,7594,7594,7594,7594,7594,7594,7594,7594,7594,7594,7594,7594,7594,7594,7594,7594,7594,7594,7594,7594,7594,7594,7594,7594,7594,7594,7594,7594,7594,7594,7594,7594,7594,7594,7594,7594,7594,7594,7594,7594,7594,7594,7594,7594,7594,7594,7594,7594,7594,7594,7594,7594,7594,7594,7594,7594,7594,7594,7594,7594,7594,7594,7594,7594,7594,7594,7594,7594,7594,7594,7594,7594,7594,7594,7594,7594,7594,7594,7594,7594,7594,7594,7594,7594,7594,7594,7594,7594,7594,7594,7594,7594,7594,7594,7594,7594,7594,7594,7594,7594,7594,7594,7594,7594,7594,7594,7594,7594,7594,7594,7594,7594,7594,7594,7594,7594,7594,7594,7594,7594,7594,7594,7594,7594,7594,7594,7594,7594,7594,7594,7594,7594,7594,7594,7594,7594,7594,7594,7594,7594,7594,7594,7594,
7594,7594,7594,7594,7594,7594,7594,7594,7594,7594,7594,7594,7594,7594,7594,7594,7594,7594,7594,7594,7594,7594,7594,7594,7594,7594,7594,7594,7594,7594,7594,7594,7594,7594,7594,7594,7594,7594,7594,7594,7594,7594,7594,7594,7594,7594,7594,7594,7594,7594,7594,7594,7594,7594,7594,7594,7594,7594,7594,7594,7594,7594,7594,7594,7594,7594,7594,7594,7594,7594,7594,7594,7594,7594,7594,7594,7594,7594,7594,7594,7594,7594,7594,7594,7594,7594,7594,7594,7594,7594,7594,7594,7594,7594,7594,7594,7594,7594,7594,7594,7594,7594,7594,7594,7594,7594,7594,7594,7594,7594,7594,7594,7594,7594,7594,7594,7594,7594,7594,7594,7594,7594,7594,7594,7594,7594,7594,7594,7594,7594,7594,7594,7594,7594,7594,7594,7594,7594,7594,7594,7594,7594,7594,7594,7594,7594,7594,7594,7594,7594,
7594,7594,7594,7594,7594,7594,7594,7594,7594,7594,7594,7594,7594,7594,7594,7594,7594,7594,7594,7594,7594,7594,7594,7594,7594,7594,7594,7594,7594,7594,7594,7594,7594,7594,7594,7594,7594,7594,7594,7594,7594,7594,7594,7594,7594,7594,7594,7594,7594,7594,7594,7594,7594,7594,7594,7594,7594,7594,7594,7594,7594,7594,7594,7594,7594,7594,7594,7594,7594,7594,7594,7594,7594,7594,7594,7594,7594,7594,7594,7594,7594,7594,7594,7594,7594,7594,7594,7594,7594,7594,7594,7594,7594,7594,7594,7594,7594,7594,7594,7594,7594,7594,7594,7594,7594,7594,7594,7594,7594,7594,7594,7594,7594,7594,7594,7594,7594,7594,7594,7594,7594,7594,7594,7594,7594,7594,7594,7594,7594,7594,7594,7594,7594,7594,7594,7594,7594,7594,7594,7594,7594,7594,7594,7594,7594,7594,7594,7594,7594,7594,
7594,7594,7594,7594,7594,7594,7594,7594,7594,7594,7594,7594,7594,7594,7594,7594,7594,7594,7594,7594,7594,7594,7594,7594,7594,7594,7594,7594,7594,7594,7594,7594,7594,7594,7594,7594,7594,7594,7594,7594,7594,7594,7594,7594,7594,7594,7594,7594,7594,7594,7594,7594,7594,7594,7594,7594,7594,7594,7594,7594,7594,7594,7594,7594,7594,7594,7594,7594,7594,7594,7594,7594,7594,7594,7594,7594,7594,7594,7594,7594,7594,7594,7594,7594,7594,7594,7594,7594,7594,7594,7594,7594,7594,7594,7594,7594,7594,7594,7594,7594,7594,7594,7594,7594,7594,7594,7594,7594,7594,7594,7594,7594,7594,7594,7594,7594,7594,7594,7594,7594,7594,7594,7594,7594,7594,7594,7594,7594,7594,7594,7594,7594,7594,7594,7594,7594,7594,7594,7594,7594,7594,7594,7594,7594,7594,7594,7594,7594,7594,7594,
7594,7594,7594,7594,7594,7594,7594,7594,7594,7594,7594,7594,7594,7594,7594,7594,7594,7594,7594,7594,7594,7594,7594,7594,7594,7594,7594,7594,7594,7594,7594,7594,7594,7594,7594,7594,7594,7594,7594,7594,7594,7594,7594,7594,7594,7594,7594,7594,7594,7594,7594,7594,7594,7594,7594,7594,7594,7594,7594,7594,7594,7594,7594,7594,7594,7594,7594,7594,7594,7594,7594,7594,7594,7594,7594,7594,7594,7594,7594,7594,7594,7594,7594,7594,7594,7594,7594,7594,7594,7594,7594,7594,7594,7594,7594,7594,7594,7594,7594,7594,7594,7594,7594,7594,7594,7594,7594,7594,7594,7594,7594,7594,7594,7594,7594,7594,7594,7594,7594,7594,7594,7594,7594,7594,7594,7594,7594,7594,7594,7594,7594,7594,7594,7594,7594,7594,7594,7594,7594,7594,7594,7594,7594,7594,7594,7594,7594,7594,7594,7594,
7594,7594,7594,7594,7594,7594,7594,7594,7594,7594,7594,7594,7594,7594,7594,7594,7594,7594,7594,7594,7594,7594,7594,7594,7594,7594,7594,7594,7594,7594,7594,7594,7594,7594,7594,7594,7594,7594,7594,7594,7594,7594,7594,7594,7594,7594,7594,7594,7594,7594,7594,7594,7594,7594,7594,7594,7594,7594,7594,7594,7594,7594,7594,7594,7594,7594,7594,7594,7594,7594,7594,7594,7594,7594,7594,7594,7594,7594,7594,7594,7594,7594,7594,7594,7594,7594,7594,7594,7594,7594,7594,7594,7594,7594,7594,7594,7594,7594,7594,7594,7594,7594,7594,7594,7594,7594,7594,7594,7594,7594,7594,7594,7594,7594,7594,7594,7594,7594,7594,7594,7594,7594,7594,7594,7594,7594,7594,7594,7594,7594,7594,7594,7594,7594,7594,7594,7594,7594,7594,7594,7594,7594,7594,7594,7594,7594,7594,7594,7594,7594,
7594,7594,7594,7594,7594,7594,7594,7594,7594,7594,7594,7594,7594,7594,7594,7594,7594,7594,7594,7594,7594,7594,7594,7594,7594,7594,7594,7594,7594,7594,7594,7594,7594,7594,7594,7594,7594,7594,7594,7594,7594,7594,7594,7594,7594,7594,7594,7594,7594,7594,7594,7594,7594,7594,7594,7594,7594,7594,7594,7594,7594,7594,7594,7594,7594,7594,7594,7594,7594,7594,7594,7594,7594,7594,7594,7594,7594,7594,7594,7594,7594,7594,7594,7594,7594,7594,7594,7594,7594,7594,7594,7594,7594,7594,7594,7594,7594,7594,7594,7594,7594,7594,7594,7594,7594,7594,7594,7594,7594,7594,7594,7594,7594,7594,7594,7594,7594,7594,7594,7594,7594,7594,7594,7594,7594,7594,7594,7594,7594,7594,7594,7594,7594,7594,7594,7594,7594,7594,7594,7594,7594,7594,7594,7594,7594,7594,7594,7594,7594,7594,
7594,7594,7594,7594,7594,7594,7594,7594,7594,7594,7594,7594,7594,7594,7594,7594,7594,7594,7594,7594,7594,7594,7594,7594,7594,7594,7594,7594,7594,7594,7594,7594,7594,7594,7594,7594,7594,7594,7594,7594,7594,7594,7594,7594,7594,7594,7594,7594,7594,7594,7594,7594,7594,7594,7594,7594,7594,7594,7594,7594,7594,7594,7594,7594,7594,7594,7594,7594,7594,7594,7594,7594,7594,7594,7594,7594,7594,7594,7594,7594,7594,7594,7594,7594,7594,7594,7594,7594,7594,7594,7594,7594,7594,7594,7594,7594,7594,7594,7594,7594,7594,7594,7594,7594,7594,7594,7594,7594,7594,7594,7594,7594,7594,7594,7594,7594,7594,7594,7594,7594,7594,7594,7594,7594,7594,7594,7594,7594,7594,7594,7594,7594,7594,7594,7594,7594,7594,7594,7594,7594,7594,7594,7594,7594,7594,7594,7594,7594,7594,7594,
7594,7594,7594,7594,7594,7594,7594,7594,7594,7594,7594,7594,7594,7594,7594,7594,7594,7594,7594,7594,7594,7594,7594,7594,7594,7594,7594,7594,7594,7594,7594,7594,7594,7594,7594,7594,7594,7594,7594,7594,7594,7594,7594,7594,7594,7594,7594,7594,7594,7594,7594,7594,7594,7594,7594,7594,7594,7594,7594,7594,7594,7594,7594,7594,7594,7594,7594,7594,7594,7594,7594,7594,7594,7594,7594,7594,7594,7594,7594,7594,7594,7594,7594,7594,7594,7594,7594,7594,7594,7594,7594,7594,7594,7594,7594,7594,7594,7594,7594,7594,7594,7594,7594,7594,7594,7594,7594,7594,7594,7594,7594,7594,7594,7594,7594,7594,7594,7594,7594,7594,7594,7594,7594,7594,7594,7594,7594,7594,7594,7594,7594,7594,7594,7594,7594,7594,7594,7594,7594,7594,7594,7594,7594,7594,7594,7594,7594,7594,7594,7594,
7594,7594,7594,7594,7594,7594,7594,7594,7594,7594,7594,7594,7594,7594,7594,7594,7594,7594,7594,7594,7594,7594,7594,7594,7594,7594,7594,7594,7594,7594,7594,7594,7594,7594,7594,7594,7594,7594,7594,7594,7594,7594,7594,7594,7594,7594,7594,7594,7594,7594,7594,7594,7594,7594,7594,7594,7594,7594,7594,7594,7594,7594,7594,7594,7594,7594,7594,7594,7594,7594,7594,7594,7594,7594,7594,7594,7594,7594,7594,7594,7594,7594,7594,7594,7594,7594,7594,7594,7594,7594,7594,7594,7594,7594,7594,7594,7594,7594,7594,7594,7594,7594,7594,7594,7594,7594,7594,7594,7594,7594,7594,7594,7594,7594,7594,7594,7594,7594,7594,7594,7594,7594,7594,7594,7594,7594,7594,7594,7594,7594,7594,7594,7594,7594,7594,7594,7594,7594,7594,7594,7594,7594,7594,7594,7594,7594,7594,7594,7594,7594,
7594,7594,7594,7594,7594,7594,7594,7594,7594,7594,7594,7594,7594,7594,7594,7594,7594,7594,7594,7594,7594,7594,7594,7594,7594,7594,7594,7594,7594,7594,7594,7594,7594,7594,7594,7594,7594,7594,7594,7594,7594,7594,7594,7594,7594,7594,7594,7594,7594,7594,7594,7594,7594,7594,7594,7594,7594,7594,7594,7594,7594,7594,7594,7594,7594,7594,7594,7594,7594,7594,7594,7594,7594,7594,7594,7594,7594,7594,7594,7594,7594,7594,7594,7594,7594,7594,7594,7594,7594,7594,7594,7594,7594,7594,7594,7594,7594,7594,7594,7594,7594,7594,7594,7594,7594,7594,7594,7594,7594,7594,7594,7594,7594,7594,7594,7594,7594,7594,7594,7594,7594,7594,7594,7594,7594,7594,7594,7594,7594,7594,7594,7594,7594,7594,7594,7594,7594,7594,7594,7594,7594,7594,7594,7594,7594,7594,7594,7594,7594,7594,
7594,7594,7594,7594,7594,7594,7594,7594,7594,7594,7594,7594,7594,7594,7594,7594,7594,7594,7594,7594,7594,7594,7594,7594,7594,7594,7594,7594,7594,7594,7594,7594,7594,7594,7594,7594,7594,7594,7594,7594,7594,7594,7594,7594,7594,7594,7594,7594,7594,7594,7594,7594,7594,7594,7594,7594,7594,7594,7594,7594,7594,7594,7594,7594,7594,7594,7594,7594,7594,7594,7594,7594,7594,7594,7594,7594,7594,7594,7594,7594,7594,7594,7594,7594,7594,7594,7594,7594,7594,7594,7594,7594,7594,7594,7594,7594,7594,7594,7594,7594,7594,7594,7594,7594,7594,7594,7594,7594,7594,7594,7594,7594,7594,7594,7594,7594,7594,7594,7594,7594,7594,7594,7594,7594,7594,7594,7594,7594,7594,7594,7594,7594,7594,7594,7594,7594,7594,7594,7594,7594,7594,7594,7594,7594,7594,7594,7594,7594,7594,7594,
7594,7594,7594,7594,7594,7594,7594,7594,7594,7594,7594,7594,7594,7594,7594,7594,7594,7594,7594,7594,7594,7594,7594,7594,7594,7594,7594,7594,7594,7594,7594,7594,7594,7594,7594,7594,7594,7594,7594,7594,7594,7594,7594,7594,7594,7594,7594,7594,7594,7594,7594,7594,7594,7594,7594,7594,7594,7594,7594,7594,7594,7594,7594,7594,7594,7594,7594,7594,7594,7594,7594,7594,7594,7594,7594,7594,7594,7594,7594,7594,7594,7594,7594,7594,7594,7594,7594,7594,7594,7594,7594,7594,7594,7594,7594,7594,7594,7594,7594,7594,7594,7594,7594,7594,7594,7594,7594,7594,7594,7594,7594,7594,7594,7594,7594,7594,7594,7594,7594,7594,7594,7594,7594,7594,7594,7594,7594,7594,7594,7594,7594,7594,7594,7594,7594,7594,7594,7594,7594,7594,7594,7594,7594,7594,7594,7594,7594,7594,7594,7594
</data>
  </layer>
  <layer id="9" name="Decoration" width="150" height="15">
   <data encoding="csv">
0,0,0,0,0,0,0,0,0,0,0,0,0,0,0,0,0,0,0,0,0,0,0,0,0,0,0,0,0,0,0,0,0,0,0,0,0,0,0,0,0,0,0,0,0,0,0,0,0,0,0,0,0,0,0,0,0,0,0,0,0,0,0,0,0,0,0,0,0,0,0,0,0,0,0,2742,2743,0,0,0,0,0,0,0,0,0,0,0,0,0,0,0,0,0,0,0,0,0,0,0,0,0,0,0,0,0,0,0,0,0,0,0,0,0,0,0,0,0,0,0,0,0,0,0,0,0,2742,2743,0,0,0,0,0,0,0,0,0,0,0,0,0,0,0,0,0,0,0,0,0,0,
0,0,0,0,0,0,0,0,0,0,0,0,0,0,0,0,0,0,0,0,0,0,3241,3242,3243,0,0,0,0,0,0,0,0,0,0,0,0,0,0,0,0,0,0,0,0,0,0,0,0,0,0,2742,2743,0,0,0,0,0,0,0,0,0,0,3241,3242,3243,0,0,0,0,0,0,0,0,0,2781,2782,0,0,0,0,0,0,0,0,0,0,0,0,0,0,0,0,0,0,0,0,0,0,0,0,0,0,0,0,0,0,0,0,0,0,0,0,0,0,0,2742,2743,0,0,0,0,0,0,0,0,2781,2782,0,0,0,0,0,0,0,0,0,0,0,0,0,0,0,0,0,0,0,0,0,0,
3301,3302,3303,3304,0,0,0,0,0,0,0,0,0,0,0,0,0,0,0,0,0,0,3280,3281,3282,0,0,0,0,0,0,0,3241,3242,3243,0,0,0,0,0,0,0,0,0,0,0,0,0,0,0,0,2781,2782,0,0,0,0,0,0,0,0,0,0,3280,3281,3282,0,0,0,0,0,0,0,0,0,0,0,0,0,0,0,0,0,0,0,0,0,0,0,0,0,0,0,0,0,0,0,0,0,0,2742,2743,0,0,0,0,0,0,0,0,0,0,0,0,0,0,2781,2782,0,0,0,0,0,0,0,0,0,0,0,0,0,0,0,0,0,0,0,0,0,7665,7666,0,0,0,0,0,0,0,0,0,
3340,3341,3342,3343,0,0,0,0,0,0,0,0,0,0,0,0,0,0,0,0,0,0,0,0,0,0,0,0,0,0,0,0,3280,3281,3282,0,0,0,0,0,0,0,0,3241,3242,3243,0,0,0,0,0,0,0,0,0,0,0,0,0,0,0,0,0,0,0,0,0,0,0,0,0,0,0,0,0,0,0,0,0,0,0,0,0,0,0,0,3241,3242,3243,0,0,0,0,0,0,0,0,0,0,0,2781,2782,0,0,0,0,0,0,0,0,0,0,0,0,0,0,0,0,0,0,0,0,0,0,0,0,0,0,0,0,0,0,0,0,0,0,0,0,0,7675,7676,0,0,0,0,0,0,0,0,0,
3379,3380,3381,3382,3383,0,0,0,0,3241,3242,3243,0,0,0,0,0,2742,2743,0,0,0,0,0,0,0,0,0,0,0,0,0,0,0,0,0,0,0,0,0,0,0,0,3280,3281,3282,0,0,0,0,0,0,0,0,0,0,0,0,0,0,0,0,0,0,0,0,0,0,0,0,0,0,0,0,0,0,0,0,0,0,0,0,0,0,0,0,3280,3281,3282,0,0,0,0,0,0,0,0,0,0,0,0,0,0,0,0,0,0,0,0,0,0,0,0,0,0,0,0,0,0,0,0,0,0,0,0,0,0,0,0,0,0,0,0,0,0,0,0,0,0,7685,7686,0,0,0,0,0,0,0,0,0,
3418,3419,3420,3421,3422,0,0,0,0,3280,3281,3282,0,0,0,0,0,2781,2782,0,0,0,0,0,0,0,0,0,0,0,0,0,0,0,0,0,0,0,0,0,0,0,0,0,0,0,0,0,0,0,0,0,0,0,0,0,0,0,0,0,0,0,0,0,0,0,0,0,0,0,0,0,0,0,0,0,0,0,0,0,0,0,0,0,0,0,0,0,0,0,0,0,0,0,0,0,0,0,0,0,0,0,0,0,0,0,0,0,0,0,0,0,0,0,0,0,0,0,0,0,0,0,0,0,0,0,0,0,0,0,0,0,0,0,0,0,0,0,0,7695,7696,0,0,0,0,0,0,0,0,0,
3457,3458,3459,3460,3461,0,0,0,0,0,0,0,0,0,0,0,0,0,0,0,0,0,0,0,0,0,0,0,0,0,0,0,0,0,0,0,0,0,0,0,0,0,0,0,0,0,0,0,0,0,0,0,0,0,0,0,0,0,0,0,0,0,0,0,0,0,0,0,0,0,0,0,0,0,0,0,0,0,0,0,0,0,0,0,0,0,0,0,0,0,0,0,0,0,0,0,0,0,0,0,0,0,0,0,0,0,0,0,0,0,0,0,0,0,0,0,0,0,0,0,0,0,0,0,0,0,0,0,0,0,0,0,0,0,0,0,0,0,0,7705,7706,0,0,0,0,0,0,0,0,0,
3496,3497,3498,3499,3500,3501,3502,0,0,0,0,0,0,0,0,0,0,0,0,0,0,0,0,0,0,0,0,0,0,0,0,0,0,0,0,0,0,0,0,0,0,0,0,0,0,0,0,0,0,0,0,0,0,0,0,0,0,0,0,0,0,0,0,0,0,0,0,0,0,0,0,0,0,0,0,0,0,0,0,0,0,0,0,0,0,0,0,0,0,0,0,0,0,0,0,0,0,0,0,0,0,0,0,0,0,0,0,0,0,0,0,0,0,0,0,0,0,0,0,0,0,0,0,0,0,0,0,0,0,0,0,0,0,0,0,0,0,0,0,7715,7716,0,0,0,0,0,0,0,0,0,
3535,3536,3537,3538,3539,3540,3541,0,0,0,0,0,0,0,0,0,0,0,0,0,0,0,0,0,0,0,0,0,0,0,0,0,0,0,0,0,0,0,0,0,0,0,0,0,0,0,0,0,0,0,0,0,0,0,0,0,0,0,0,0,0,0,0,0,0,0,0,0,0,0,0,0,0,0,0,0,0,0,0,0,0,0,0,0,0,0,0,0,0,0,0,0,0,0,0,0,0,0,0,0,0,0,0,0,0,0,0,0,0,0,0,0,0,0,0,0,0,0,0,0,0,0,0,0,0,0,0,0,0,0,0,0,0,0,0,0,0,0,0,7725,7726,0,0,0,3301,3302,3303,3304,0,0,
3574,3575,3576,3577,3578,3579,3580,0,0,0,0,0,0,0,0,0,0,0,0,0,0,0,0,0,0,0,0,0,0,0,0,0,0,0,0,0,0,0,0,0,0,0,0,0,0,0,0,0,0,0,0,0,0,0,0,0,0,0,0,0,0,0,0,0,0,0,0,0,0,0,0,0,0,0,0,0,0,0,0,0,0,0,0,0,0,0,0,0,0,0,0,0,0,0,0,0,0,0,0,0,0,0,0,0,0,0,0,0,0,0,0,0,0,0,0,0,0,0,0,0,0,0,0,0,0,0,0,0,0,0,0,0,0,0,0,0,0,0,0,7735,7736,0,0,0,3340,3341,3342,3343,0,0,
3613,3614,3615,3616,3617,3618,3619,0,0,0,0,2918,0,0,0,0,0,0,0,2918,0,0,0,0,0,0,0,7420,0,0,0,0,0,0,0,0,0,0,0,0,0,2918,0,0,0,0,0,0,0,0,0,2918,0,0,0,0,0,0,0,0,0,0,0,0,7420,0,0,0,0,0,0,0,0,0,0,0,0,0,0,0,0,0,0,0,0,0,0,0,0,0,0,0,0,0,0,0,0,0,0,0,0,0,0,0,0,0,0,0,0,0,0,0,0,0,0,0,0,0,0,0,0,0,0,0,0,7420,0,0,0,0,0,0,0,0,0,0,0,0,0,7745,7746,0,0,3378,3379,3380,3381,3382,3383,0,
3652,3653,3654,3655,3656,3657,3658,0,0,0,2956,2957,0,0,0,0,0,0,0,0,0,0,0,0,0,7490,7491,7492,7493,7494,0,0,0,0,0,0,0,0,2956,0,0,2957,0,0,0,0,0,0,0,0,2956,2957,0,0,0,0,0,0,0,0,7420,0,7490,7491,7492,7493,7494,0,0,0,0,0,0,0,0,0,0,0,0,0,0,0,0,0,0,0,0,0,0,0,0,0,0,0,0,0,0,0,0,0,0,0,0,0,0,0,0,0,0,0,0,0,0,0,0,0,0,0,0,0,0,0,0,7490,7491,7492,7493,7494,0,7420,0,0,0,0,0,0,0,0,0,7755,7756,0,0,3417,3418,3419,3420,3421,3422,2956,
3691,3692,3693,3694,3695,3696,3697,0,0,0,2995,2996,2917,2917,2917,2917,0,0,0,0,0,0,0,0,0,7514,7515,7516,7517,7518,0,0,0,0,0,0,2917,2917,2995,2917,0,2996,0,0,0,0,0,0,0,0,2995,2996,0,0,0,0,0,0,0,7443,7444,7445,7514,7515,7516,7517,7518,0,0,0,0,0,0,0,0,0,0,0,0,0,0,2716,2717,2718,2917,2917,0,0,2917,0,0,0,0,0,0,0,0,0,0,0,0,0,2716,2717,2718,0,0,0,0,0,0,0,0,0,0,0,0,2716,2717,2718,0,0,0,7514,7515,7516,7517,7518,7443,7444,7445,0,0,0,0,0,0,0,0,7765,7766,0,0,3456,3457,3458,3459,3460,3461,2995,
0,0,0,0,0,0,0,0,0,0,0,0,0,0,0,0,0,0,0,0,0,0,0,0,0,0,0,0,0,0,0,0,0,0,0,0,0,0,0,0,0,0,0,0,0,0,0,0,0,0,0,0,0,0,0,0,0,0,0,0,0,0,0,0,0,0,0,0,0,0,0,0,0,0,0,0,0,0,0,0,0,0,0,0,0,0,0,0,0,0,0,0,0,0,0,0,0,0,0,0,0,0,0,0,0,0,0,0,0,0,0,0,0,0,0,0,0,0,0,0,0,0,0,0,0,0,0,0,0,0,0,0,0,0,0,0,0,0,0,0,0,0,0,0,0,0,0,0,0,0,
0,0,0,0,0,0,0,0,0,0,0,0,0,0,0,0,0,0,0,0,0,0,0,0,0,0,0,0,0,0,0,0,0,0,0,0,0,0,0,0,0,0,0,0,0,0,0,0,0,0,0,0,0,0,0,0,0,0,0,0,0,0,0,0,0,0,0,0,0,0,0,0,0,0,0,0,0,0,0,0,0,0,0,0,0,0,0,0,0,0,0,0,0,0,0,0,0,0,0,0,0,0,0,0,0,0,0,0,0,0,0,0,0,0,0,0,0,0,0,0,0,0,0,0,0,0,0,0,0,0,0,0,0,0,0,0,0,0,0,0,0,0,0,0,0,0,0,0,0,0
</data>
  </layer>
 </group>
 <layer id="1" name="Terrain" width="150" height="15">
  <data encoding="csv">
0,0,0,0,0,0,0,0,0,0,0,0,0,0,0,0,0,0,0,0,0,0,0,0,0,0,0,0,0,0,0,0,0,0,0,0,0,0,0,0,0,0,0,0,0,0,0,0,0,0,0,0,0,0,0,0,0,0,0,0,0,0,0,0,0,0,0,0,0,0,0,0,0,0,0,0,0,0,0,0,0,0,0,0,0,0,0,0,0,0,0,0,0,0,0,0,0,0,0,0,0,0,0,0,0,0,0,0,0,0,0,0,0,0,0,0,0,0,0,0,0,0,0,0,0,0,0,0,0,0,0,0,0,0,0,0,0,0,0,0,0,0,0,0,0,0,0,0,0,0,
0,0,0,0,0,0,0,0,0,0,0,0,0,0,0,0,0,0,0,0,0,0,0,0,0,0,0,0,0,0,0,0,0,0,0,0,0,0,0,0,0,0,0,0,0,0,0,0,0,0,0,0,0,0,0,0,0,0,0,0,0,0,0,0,0,0,0,0,0,0,0,0,0,0,0,0,0,0,0,0,0,0,0,0,0,0,0,0,0,0,0,0,0,0,0,0,0,0,0,0,0,0,0,0,0,0,0,0,0,0,0,0,0,0,0,0,0,0,0,0,0,0,0,0,0,0,0,0,0,0,0,0,0,0,0,0,0,0,0,0,0,0,0,0,0,0,0,0,0,0,
0,0,0,0,0,0,0,0,0,0,0,0,0,0,0,0,0,0,0,0,0,0,0,0,0,0,0,0,0,0,0,0,0,0,0,0,0,0,0,0,0,0,0,0,0,0,0,0,0,0,0,0,0,0,0,0,0,0,0,0,0,0,0,0,0,0,0,0,0,0,0,0,0,0,0,0,0,0,0,0,0,0,0,0,0,0,0,0,0,0,0,0,0,0,0,0,0,0,0,0,0,0,0,0,0,0,0,0,0,0,0,0,0,0,0,0,0,0,0,0,0,0,0,0,0,0,0,0,0,0,0,0,0,0,0,0,0,0,0,0,0,0,0,0,0,0,0,0,0,0,
0,0,0,0,0,0,0,0,0,0,0,0,0,0,0,0,0,0,0,0,0,0,0,0,0,0,0,0,0,0,0,0,0,0,0,0,0,0,0,0,0,0,0,0,0,0,0,0,0,0,0,0,0,0,0,0,0,0,0,0,0,0,0,0,0,0,0,0,0,0,0,0,0,0,0,0,0,0,0,0,0,0,0,0,0,0,0,0,0,0,0,0,0,0,0,0,0,0,0,0,0,0,0,0,0,0,0,0,0,0,0,0,0,0,0,0,0,0,0,0,0,0,0,0,0,0,0,0,0,0,0,0,0,0,0,0,0,0,0,0,0,0,0,0,0,0,0,0,0,0,
0,0,0,0,0,0,0,0,0,0,0,0,0,0,0,0,0,0,0,0,0,0,0,0,0,0,0,0,0,0,0,0,0,0,0,0,0,0,0,0,0,0,0,0,0,0,0,0,0,0,0,0,0,0,0,0,0,0,0,0,0,0,0,0,0,0,0,0,0,0,0,0,0,0,0,0,0,0,0,0,0,0,0,0,0,0,0,0,0,0,0,0,0,0,0,0,0,0,0,0,0,0,0,0,0,0,0,0,0,0,0,0,0,0,0,0,0,0,0,0,0,0,0,0,0,0,0,0,0,0,0,0,0,0,2986,2986,0,0,0,0,0,0,0,0,0,0,0,0,0,0,
0,0,0,0,0,0,0,0,0,0,0,0,0,0,0,0,0,0,0,0,0,0,0,0,0,0,0,0,0,0,0,0,0,0,0,0,0,0,0,0,0,0,0,0,0,0,0,0,0,0,0,0,0,7383,7383,7383,7383,7383,0,0,0,0,0,0,0,0,0,0,0,0,0,0,0,0,0,0,0,0,0,0,0,0,0,0,0,0,0,0,0,0,0,0,0,0,0,0,0,0,0,0,0,0,0,0,0,0,0,0,0,0,7383,0,0,0,0,0,0,0,0,0,0,0,0,0,0,0,0,0,0,0,0,0,0,0,2986,2986,0,0,0,0,0,0,0,0,0,0,0,0,0,0,
0,0,0,0,0,0,0,0,0,0,0,0,0,0,0,0,0,0,0,0,0,0,0,0,0,0,7383,0,0,0,0,0,0,0,0,0,0,0,0,0,0,0,0,0,0,0,0,0,0,0,0,0,0,0,0,0,0,0,0,0,0,0,0,0,0,0,0,0,0,0,0,0,0,0,6981,6982,6982,6982,6984,0,0,0,0,0,0,0,0,0,0,0,0,0,0,0,0,0,0,0,0,0,0,0,0,0,0,0,0,0,0,0,0,0,0,0,0,0,0,0,0,0,0,0,0,0,0,0,0,0,0,0,0,0,0,0,2986,2986,0,0,0,0,0,0,0,0,0,0,0,0,0,0,
0,0,0,0,0,0,0,0,0,0,0,0,0,0,0,0,0,0,0,0,0,0,0,0,0,0,0,0,0,0,0,0,0,0,0,0,0,0,0,0,0,0,0,0,0,0,0,0,0,0,0,0,0,0,0,0,0,0,0,0,0,0,0,0,0,0,0,0,0,0,0,0,0,0,0,7006,7007,7008,0,0,0,0,0,0,0,0,0,0,0,0,0,0,0,0,0,0,0,0,0,0,0,0,0,0,0,0,0,0,0,0,0,0,0,0,0,0,0,0,0,0,0,0,0,0,0,0,0,0,0,0,0,0,0,0,2986,2986,0,0,0,0,0,0,0,0,0,0,0,0,0,0,
0,0,0,0,0,0,0,0,0,0,0,0,0,0,0,0,0,0,0,0,0,0,0,0,0,0,0,0,0,0,0,0,0,0,0,0,0,0,0,0,0,0,0,0,0,0,0,0,0,0,0,0,0,0,0,0,0,0,0,0,0,0,0,0,0,0,0,0,0,0,0,0,0,0,0,7006,7007,7008,0,0,0,0,0,0,0,0,0,0,0,0,0,0,0,0,0,0,0,0,0,0,0,0,0,0,0,0,0,0,0,0,0,0,0,0,0,0,0,0,0,0,0,0,0,0,0,0,0,0,0,0,0,0,0,0,2986,2986,0,0,0,0,0,0,0,0,0,0,0,0,0,0,
0,0,0,0,0,0,0,0,0,0,0,0,0,0,7383,0,0,0,0,0,0,0,0,0,0,0,7383,0,0,0,0,0,2986,0,0,0,0,0,0,0,0,0,0,0,0,0,0,2758,2759,0,0,0,0,7383,7383,7383,7383,7383,0,0,0,0,0,0,0,0,0,0,0,0,6981,6982,6982,6982,6984,7006,7007,7008,0,0,0,0,0,0,0,0,0,0,0,0,0,0,0,2758,2759,0,0,0,0,0,0,0,0,0,0,0,0,0,0,2986,0,2986,0,0,0,0,0,0,0,0,0,0,0,0,0,0,0,0,0,0,0,0,0,0,2986,2986,0,0,0,0,0,0,0,0,0,0,0,0,0,0,
0,0,0,0,0,0,0,0,0,0,0,0,0,0,0,0,0,0,0,0,0,0,0,0,0,0,0,0,0,0,0,0,2986,0,0,0,0,0,0,0,0,0,0,0,0,0,0,2797,2798,0,0,0,0,0,0,0,0,0,0,0,0,0,0,0,0,0,0,0,0,0,0,7006,7007,7008,0,7031,7032,7033,0,0,0,0,0,0,0,0,0,0,0,0,0,0,0,2797,2798,0,0,0,0,0,2758,2759,0,0,0,0,0,0,0,2986,0,2986,0,0,0,0,0,0,0,0,2758,2759,0,0,0,0,0,0,0,0,0,0,0,0,2986,2986,0,0,0,0,0,0,0,0,0,0,0,0,0,0,
0,0,0,0,0,0,0,0,0,0,0,0,0,0,0,0,0,0,0,0,0,0,0,0,0,0,0,0,0,0,0,0,2986,2986,0,0,0,0,0,0,0,0,0,0,0,2758,2759,2797,2798,0,0,0,0,0,0,0,0,0,0,0,0,0,0,0,0,0,0,0,2758,2759,0,7006,7007,7008,0,7006,7007,7008,0,0,0,0,0,0,0,0,0,0,0,0,0,0,0,2797,2798,0,0,0,0,0,2797,2798,0,0,0,0,0,2986,0,2986,0,2986,0,2986,0,0,0,0,0,0,2797,2798,0,0,0,0,0,0,0,0,0,0,0,0,2986,2986,0,0,0,0,0,0,0,0,0,0,0,0,0,0,
0,0,0,0,0,0,0,0,0,0,0,0,0,0,0,0,0,0,0,0,0,0,0,0,0,0,0,0,0,0,0,0,2986,2986,0,0,0,0,0,0,0,0,0,0,0,2797,2798,2797,2798,0,0,0,0,0,0,0,0,0,0,0,0,0,0,0,0,0,0,0,2797,2798,0,7031,7032,7033,0,7031,7032,7033,0,0,0,0,0,0,0,0,0,0,0,0,0,0,0,2797,2798,0,0,0,0,0,2797,2798,0,0,0,2986,0,2986,0,2986,0,2986,0,2986,0,2986,0,0,0,0,2797,2798,0,0,0,0,0,0,0,0,0,0,0,0,2986,2986,0,0,0,0,0,0,0,0,0,0,0,0,0,0,
2,2,2,2,2,2,2,2,2,2,2,2,2,2,2,2,2,2,2,2,2,2,2,2,2,2,2,2,2,2,2,2,2,2,2,2,2,2,2,2,2,2,2,2,2,2,2,2,2,2,2,2,2,2,2,2,2,2,2,2,2,2,2,2,2,2,2,2,2,2,0,7031,7007,7008,0,7006,7007,7008,0,2,2,2,2,2,2,2,2,2,2,2,2,2,2,2,2,2,2,2,2,2,2,2,2,2,2,2,2,2,2,2,2,2,2,2,2,2,2,2,2,2,2,2,2,2,2,2,2,2,2,2,2,2,2,2,2,2,2,2,2,2,2,2,2,2,2,2,2,2,2,2,
2,2,2,2,2,2,2,2,2,2,2,2,2,2,2,2,2,2,2,2,2,2,2,2,2,2,2,2,2,2,2,2,2,2,2,2,2,2,2,2,2,2,2,2,2,2,2,2,2,2,2,2,2,2,2,2,2,2,2,2,2,2,2,2,2,2,2,2,2,2,0,7031,7032,7033,0,7031,7032,7033,0,2,2,2,2,2,2,2,2,2,2,2,2,2,2,2,2,2,2,2,2,2,2,2,2,2,2,2,2,2,2,2,2,2,2,2,2,2,2,2,2,2,2,2,2,2,2,2,2,2,2,2,2,2,2,2,2,2,2,2,2,2,2,2,2,2,2,2,2,2,2,2
</data>
 </layer>
 <layer id="3" name="Object" width="150" height="15">
  <data encoding="csv">
0,0,0,0,0,0,0,0,0,0,0,0,0,0,0,0,0,0,0,0,0,0,0,0,0,0,0,0,0,0,0,0,0,0,0,0,0,0,0,0,0,0,0,0,0,0,0,0,0,0,0,0,0,0,0,0,0,0,0,0,0,0,0,0,0,0,0,0,0,0,0,0,0,0,0,0,0,0,0,0,0,0,0,0,0,0,0,0,0,0,0,0,0,0,0,0,0,0,0,0,0,0,0,0,0,0,0,0,0,0,0,0,0,0,0,0,0,0,0,0,0,0,0,0,0,0,0,0,0,0,0,0,0,0,0,0,0,0,0,0,0,0,0,0,0,0,0,0,0,0,
0,0,0,0,0,0,0,0,0,0,0,0,0,0,0,0,0,0,0,0,0,0,0,0,0,0,0,0,0,0,0,0,0,0,0,0,0,0,0,0,0,0,0,0,0,0,0,0,0,0,0,0,0,0,0,0,0,0,0,0,0,0,0,0,0,0,0,0,0,0,0,0,0,0,0,0,0,0,0,0,0,0,0,0,0,0,0,0,0,0,0,0,0,0,0,0,0,0,0,0,0,0,0,0,0,0,0,0,0,0,0,0,0,0,0,0,0,0,0,0,0,0,0,0,0,0,0,0,0,0,0,0,0,0,0,0,0,0,0,0,0,0,0,0,0,0,0,0,0,0,
0,0,0,0,0,0,0,0,0,0,0,0,0,0,0,0,0,0,0,0,0,0,0,0,0,0,0,0,0,0,0,0,0,0,0,0,0,0,0,0,0,0,0,0,0,0,0,0,0,0,0,0,0,0,0,0,0,0,0,0,0,0,0,0,0,0,0,0,0,0,0,0,0,0,0,0,0,0,0,0,0,0,0,0,0,0,0,0,0,0,0,0,2830,2830,2830,0,0,0,0,0,0,0,0,0,0,0,0,0,0,0,0,0,0,0,0,0,0,0,0,0,0,0,0,0,0,0,0,0,0,0,0,0,0,0,0,0,0,0,0,0,0,0,0,0,0,0,0,0,0,0,
0,0,0,0,0,0,0,0,0,0,0,0,0,0,0,0,0,0,0,0,0,0,0,0,0,0,0,0,0,0,0,0,0,0,0,0,0,0,0,0,0,0,0,0,0,0,0,0,0,0,0,0,0,0,0,0,0,0,0,0,0,0,0,0,0,0,0,0,0,0,0,0,0,0,0,0,0,0,0,0,0,0,0,0,0,0,0,0,0,0,0,0,0,0,0,0,0,0,0,0,0,0,0,0,0,0,0,0,0,0,0,0,0,0,0,0,0,0,0,0,0,0,0,0,0,0,0,0,0,0,0,0,0,0,0,0,0,0,0,0,0,0,0,0,0,0,0,0,0,0,
0,0,0,0,0,0,0,0,0,0,0,0,0,0,0,0,0,0,0,0,0,0,0,0,0,0,0,0,0,0,0,0,0,0,0,0,0,0,0,0,0,0,0,0,0,0,0,0,0,0,0,0,0,0,0,0,0,0,0,0,0,0,0,0,0,0,0,0,0,0,0,0,0,0,0,0,0,0,0,0,0,0,0,0,0,0,0,0,0,0,0,0,0,0,0,0,0,0,0,0,0,0,0,0,0,0,0,0,0,0,0,0,0,0,0,0,0,0,0,0,0,0,0,0,0,0,0,0,0,0,0,0,0,0,0,0,0,0,0,0,0,0,0,0,0,0,0,0,0,0,
0,0,0,0,0,0,0,0,0,0,0,0,0,0,0,0,0,0,0,0,0,0,0,0,0,0,0,0,0,0,0,0,0,0,0,0,0,0,0,0,0,0,0,0,0,0,0,0,0,0,0,0,0,7432,7432,7432,7432,7432,0,0,0,0,2830,2830,2830,2830,0,0,0,0,0,0,0,0,0,0,0,0,0,0,0,0,0,0,0,0,0,0,0,0,0,0,0,0,0,0,0,0,0,0,0,0,0,0,0,0,0,0,0,0,7432,0,0,0,0,0,0,0,0,0,0,0,0,0,0,0,0,0,0,2830,2830,2830,0,0,0,0,0,0,0,0,0,0,0,0,0,0,0,0,0,0,
0,0,0,0,0,0,0,0,0,0,0,0,0,0,0,0,0,0,0,0,0,0,0,0,0,0,7432,2830,2830,2830,0,0,0,0,0,0,0,0,0,0,0,0,0,0,0,0,0,0,0,0,0,0,0,0,0,0,0,0,0,0,0,0,0,0,0,0,0,0,0,0,0,0,0,0,0,0,0,0,0,0,0,0,0,0,0,0,0,0,0,2830,2830,2830,0,0,0,0,0,0,0,0,0,0,0,0,0,0,0,0,0,0,0,0,0,0,0,0,0,0,0,0,0,0,0,2830,2830,2830,0,0,0,0,0,0,0,0,0,0,0,0,0,0,0,0,0,0,0,0,0,0,0,0,
0,0,0,0,0,0,0,0,0,0,0,0,0,0,0,0,0,0,0,0,0,0,0,0,0,0,0,0,0,0,0,0,0,0,0,2830,2830,2830,2830,2830,2830,0,0,0,0,0,0,0,0,0,0,0,0,0,0,0,0,0,0,0,0,0,0,0,0,0,0,0,0,0,0,0,0,0,0,0,0,0,0,0,0,0,0,0,0,0,0,0,0,0,0,0,0,0,0,0,2830,2830,2830,0,0,0,0,0,0,0,0,0,0,0,0,0,0,0,0,0,0,0,0,0,0,0,0,0,0,0,0,0,0,0,0,0,0,0,0,0,0,0,0,0,0,0,0,0,0,0,0,0,0,0,
0,0,0,0,0,0,0,0,0,0,0,0,0,0,0,0,0,0,0,0,0,0,0,0,0,0,0,0,0,0,0,0,0,0,0,0,0,0,0,0,0,0,0,0,0,0,0,0,0,0,0,0,0,0,0,0,0,0,0,0,0,0,0,0,0,0,0,0,0,0,0,0,0,0,0,0,0,0,0,0,0,0,0,0,0,0,0,0,0,0,0,0,0,0,0,0,0,0,0,0,0,0,0,0,0,0,0,0,0,0,0,0,0,0,0,0,0,0,0,0,0,0,0,0,0,0,0,2830,2830,0,0,0,0,0,0,0,0,0,0,0,0,0,0,0,0,0,0,0,0,0,
0,0,0,0,0,0,0,0,0,0,0,0,0,2830,2830,2830,0,0,0,0,0,0,0,0,0,0,7432,0,0,0,0,0,0,0,0,0,0,0,0,0,0,0,0,0,0,0,0,0,0,0,0,0,0,7432,7432,7432,7432,7432,0,0,2830,2830,0,0,0,0,0,0,0,0,0,0,0,0,0,0,0,0,0,0,0,0,0,0,0,0,0,0,0,0,0,0,0,0,0,0,0,0,0,0,0,0,0,0,0,0,0,0,0,0,0,0,0,0,0,0,0,0,0,0,0,0,0,0,0,0,0,0,0,0,0,0,0,0,0,0,0,0,0,0,0,0,0,0,0,0,0,0,0,0,
0,0,0,0,0,0,0,0,0,0,0,0,0,0,0,0,0,0,0,0,0,0,0,0,0,0,0,0,0,0,0,0,0,0,0,0,0,0,0,0,0,0,0,0,0,0,0,0,0,0,0,0,0,0,0,0,0,0,0,0,0,0,0,0,0,0,0,0,0,0,0,0,0,0,0,0,0,0,0,0,0,0,0,0,0,0,0,0,0,0,0,0,0,0,0,0,0,0,0,0,0,0,0,0,0,0,0,0,0,0,0,0,0,0,0,0,0,0,0,0,0,0,0,0,0,0,0,0,0,0,0,0,0,0,0,0,0,0,0,0,0,0,0,0,0,0,0,0,0,0,
0,0,0,0,0,0,0,0,0,0,0,0,0,0,0,0,0,0,0,0,0,0,0,0,0,0,0,0,0,0,0,0,0,0,0,0,0,0,0,0,0,0,0,0,0,0,0,0,0,0,0,0,0,0,0,0,0,0,0,0,0,0,0,0,0,0,0,0,0,0,0,0,0,0,0,0,0,0,0,0,0,0,0,0,0,0,0,0,0,0,0,0,0,0,0,0,0,0,0,0,0,0,0,0,0,0,0,0,0,0,0,0,0,0,0,0,0,0,0,0,0,0,0,0,0,0,0,0,0,0,0,0,0,0,0,0,0,0,0,0,0,0,0,0,0,0,0,0,0,0,
0,0,0,0,0,0,0,0,0,0,0,0,0,0,0,0,0,0,0,0,0,0,0,0,0,0,0,0,0,0,0,0,0,0,0,0,0,0,0,0,0,0,0,0,0,0,0,0,0,0,0,0,0,0,0,0,0,0,0,0,0,0,0,0,0,0,0,0,0,0,0,0,0,0,0,0,0,0,0,0,0,0,0,0,0,0,0,0,0,0,0,0,0,0,0,0,0,0,0,0,0,0,0,0,0,0,0,0,0,0,0,0,0,0,0,0,0,0,0,0,0,0,0,0,0,0,0,0,0,0,0,0,0,0,0,0,0,0,0,0,0,0,0,0,0,0,0,0,0,0,
0,0,0,0,0,0,0,0,0,0,0,0,0,0,0,0,0,0,0,0,0,0,0,0,0,0,0,0,0,0,0,0,0,0,0,0,0,0,0,0,0,0,0,0,0,0,0,0,0,0,0,0,0,0,0,0,0,0,0,0,0,0,0,0,0,0,0,0,0,0,0,0,0,0,0,0,0,0,0,0,0,0,0,0,0,0,0,0,0,0,0,0,0,0,0,0,0,0,0,0,0,0,0,0,0,0,0,0,0,0,0,0,0,0,0,0,0,0,0,0,0,0,0,0,0,0,0,0,0,0,0,0,0,0,0,0,0,0,0,0,0,0,0,0,0,0,0,0,0,0,
0,0,0,0,0,0,0,0,0,0,0,0,0,0,0,0,0,0,0,0,0,0,0,0,0,0,0,0,0,0,0,0,0,0,0,0,0,0,0,0,0,0,0,0,0,0,0,0,0,0,0,0,0,0,0,0,0,0,0,0,0,0,0,0,0,0,0,0,0,0,0,0,0,0,0,0,0,0,0,0,0,0,0,0,0,0,0,0,0,0,0,0,0,0,0,0,0,0,0,0,0,0,0,0,0,0,0,0,0,0,0,0,0,0,0,0,0,0,0,0,0,0,0,0,0,0,0,0,0,0,0,0,0,0,0,0,0,0,0,0,0,0,0,0,0,0,0,0,0,0
</data>
 </layer>
 <layer id="5" name="Entity" width="150" height="15">
  <data encoding="csv">
0,0,0,0,0,0,0,0,0,0,0,0,0,0,0,0,0,0,0,0,0,0,0,0,0,0,0,0,0,0,0,0,0,0,0,0,0,0,0,0,0,0,0,0,0,0,0,0,0,0,0,0,0,0,0,0,0,0,0,0,0,0,0,0,0,0,0,0,0,0,0,0,0,0,0,0,0,0,0,0,0,0,0,0,0,0,0,0,0,0,0,0,0,0,0,0,0,0,0,0,0,0,0,0,0,0,0,0,0,0,0,0,0,0,0,0,0,0,0,0,0,0,0,0,0,0,0,0,0,0,0,0,0,0,0,0,0,0,0,0,0,0,0,0,0,0,0,0,0,0,
0,0,0,0,0,0,0,0,0,0,0,0,0,0,0,0,0,0,0,0,0,0,0,0,0,0,0,0,0,0,0,0,0,0,0,0,0,0,0,0,0,0,0,0,0,0,0,0,0,0,0,0,0,0,0,0,0,0,0,0,0,0,0,0,0,0,0,0,0,0,0,0,0,0,0,0,0,0,0,0,0,0,0,0,0,0,0,0,0,0,0,0,0,0,7658,0,0,0,0,0,0,0,0,0,0,0,0,0,0,0,0,0,0,0,0,0,0,0,0,0,0,0,0,0,0,0,0,0,0,0,0,0,0,0,0,0,0,0,0,0,0,0,0,0,0,0,0,0,0,0,
0,0,0,0,0,0,0,0,0,0,0,0,0,0,0,0,0,0,0,0,0,0,0,0,0,0,0,0,0,0,0,0,0,0,0,0,0,0,0,0,0,0,0,0,0,0,0,0,0,0,0,0,0,0,0,0,0,0,0,0,0,0,0,0,0,0,0,0,0,0,0,0,0,0,0,0,0,0,0,0,0,0,0,0,0,0,0,0,0,0,0,0,0,7379,0,0,0,0,0,0,0,0,0,0,0,0,0,0,0,0,0,0,0,0,0,0,0,0,0,0,0,0,0,0,0,0,0,0,0,0,0,0,0,0,0,0,0,0,0,0,0,0,0,0,0,0,0,0,0,0,
0,0,0,0,0,0,0,0,0,0,0,0,0,0,0,0,0,0,0,0,0,0,0,0,0,0,0,0,0,0,0,0,0,0,0,0,0,0,0,0,0,0,0,0,0,0,0,0,0,0,0,0,0,0,0,0,0,0,0,0,0,0,0,0,0,0,0,0,0,0,0,0,0,0,0,0,0,2755,0,0,0,0,0,0,0,0,0,0,0,0,0,0,0,0,0,0,0,0,0,0,0,0,0,0,0,0,0,0,0,0,0,0,0,0,0,0,0,0,0,0,0,0,0,0,0,0,0,0,0,0,0,0,0,0,0,0,0,0,0,0,0,0,0,0,0,0,0,0,0,0,
0,0,0,0,0,0,0,0,0,0,0,0,0,0,0,0,0,0,0,0,0,0,0,0,0,0,0,0,0,0,0,0,0,0,0,0,0,0,0,0,0,0,0,0,0,0,0,0,0,0,0,0,0,0,0,0,0,0,0,0,0,0,0,0,0,0,0,0,0,0,0,0,0,0,0,0,2755,0,0,0,0,0,0,0,0,0,0,0,0,0,0,0,0,0,0,0,0,2755,0,0,0,0,0,0,0,0,0,0,0,0,0,0,0,0,0,0,0,0,0,0,0,0,0,0,0,0,0,0,0,0,0,0,0,0,0,0,0,0,0,0,0,0,0,0,0,0,0,0,0,0,
0,0,0,0,0,0,0,0,0,0,0,0,0,0,0,0,0,0,0,0,0,0,0,0,0,0,0,0,0,0,0,0,0,0,0,0,0,0,0,0,0,0,0,0,0,0,0,0,0,0,0,0,0,2755,2755,2755,2755,2755,0,0,0,0,7475,0,0,0,0,0,0,0,0,0,0,0,0,2755,0,0,7658,0,0,0,0,0,0,0,0,0,0,0,0,0,0,0,0,0,0,2755,0,0,0,0,0,0,0,0,0,0,0,0,7427,0,0,0,0,0,0,0,0,0,0,0,0,0,0,0,0,0,0,0,0,0,0,0,0,0,0,0,0,0,0,0,0,0,0,0,0,0,0,0,
0,0,0,0,0,0,0,0,0,0,0,0,0,0,0,0,0,0,0,0,0,0,0,0,0,0,7427,0,0,0,0,0,0,0,0,0,0,0,0,0,0,0,0,0,0,0,0,0,0,0,0,0,0,0,0,0,0,0,0,0,0,0,0,0,0,0,0,0,0,0,0,0,0,0,0,0,0,0,0,0,0,0,0,0,0,0,0,0,0,0,0,0,0,0,0,0,0,2755,0,0,0,0,0,0,0,0,0,0,0,0,0,0,0,0,0,0,0,0,0,0,0,0,0,0,0,0,0,0,0,0,0,0,0,0,0,0,0,0,0,0,0,0,0,0,0,0,0,0,0,0,
0,0,0,0,0,0,0,0,0,0,0,0,0,0,0,0,0,0,0,0,0,0,7658,0,0,0,0,0,0,0,0,0,0,0,0,0,0,0,0,0,0,0,0,0,0,0,0,7661,7662,0,0,0,0,0,0,0,0,0,0,0,0,0,0,0,0,0,0,0,0,0,0,0,2755,0,0,0,0,0,0,0,0,0,0,0,0,0,0,0,0,0,0,0,0,7661,7662,0,0,0,0,0,0,0,0,0,0,0,0,0,0,0,0,0,0,0,0,0,0,0,0,0,0,0,0,0,0,0,0,0,7658,0,0,0,0,0,0,0,0,0,0,0,0,0,0,0,0,0,0,0,0,0,
0,0,0,0,0,0,0,0,0,0,0,0,0,0,0,0,0,0,0,0,0,0,2986,0,0,0,0,0,0,0,0,0,0,0,0,0,0,0,0,0,0,0,0,0,0,0,0,7663,7664,0,0,0,0,0,0,0,0,0,0,0,0,0,0,0,0,0,0,0,0,0,0,2755,0,2755,0,0,0,0,0,0,0,0,0,0,0,0,0,0,0,0,0,0,0,7663,7664,0,0,0,0,0,0,0,0,0,0,0,0,0,0,0,0,0,0,0,0,0,0,0,0,0,7661,7662,0,0,0,0,0,0,0,0,0,0,0,0,0,0,0,0,0,0,0,0,0,0,0,0,0,0,0,0,
0,0,0,0,0,0,0,0,0,0,0,0,0,0,7379,0,0,0,0,0,0,2986,2986,0,0,0,2755,0,0,0,0,0,0,0,0,0,0,0,0,0,0,0,0,0,0,0,0,0,0,0,0,0,0,7379,2755,2755,2755,2755,0,0,0,0,0,0,0,0,0,0,7661,7662,0,0,0,0,0,0,0,0,0,0,0,0,0,0,0,0,7658,0,0,0,0,0,0,0,0,0,0,0,0,0,0,0,0,0,0,0,0,0,0,0,0,0,0,0,0,0,0,0,0,0,7663,7664,0,0,0,0,0,0,0,0,0,0,0,0,0,0,0,0,0,0,0,0,0,0,0,0,0,0,0,0,
0,0,0,0,0,0,0,0,0,0,0,0,0,0,0,0,0,0,0,0,2986,2986,2986,0,0,0,0,0,0,0,0,0,0,0,0,0,0,0,0,0,0,0,0,0,0,0,0,0,0,0,0,0,0,0,0,0,0,0,0,0,0,0,0,0,0,0,0,0,7663,7664,0,0,0,0,0,0,0,0,0,0,0,0,0,0,0,0,0,0,0,0,0,0,0,0,0,0,0,0,0,0,0,0,0,0,0,0,0,0,0,0,0,0,0,0,0,0,0,0,0,0,0,0,0,0,0,0,0,0,0,0,0,0,0,0,0,0,0,0,0,0,0,0,0,0,0,0,0,0,0,0,
0,0,0,0,0,0,0,0,0,0,0,0,0,0,0,0,0,0,0,2986,2986,2986,2986,0,0,0,0,0,0,0,7659,7659,0,0,0,0,0,0,0,0,0,0,0,0,0,0,0,0,0,0,0,0,0,0,0,0,0,0,7659,0,0,0,0,0,0,0,0,0,0,0,0,0,0,0,0,0,0,0,0,0,0,0,0,0,0,0,0,0,0,0,0,7659,0,0,0,0,0,0,0,0,0,0,0,0,0,0,0,0,0,0,0,0,0,0,0,0,0,0,0,0,0,0,0,0,0,0,0,0,7659,0,0,0,0,7436,0,0,0,0,0,0,0,0,0,0,0,0,0,0,0,0,
0,0,0,0,0,0,0,0,0,0,0,0,0,0,0,0,0,0,2986,2986,2986,2986,2986,0,0,0,0,0,0,0,7660,7660,0,0,0,0,0,0,0,0,7658,0,7658,0,0,0,0,0,0,0,0,0,0,0,7658,0,7658,0,7660,0,0,0,0,0,0,0,0,0,0,0,0,0,0,0,0,0,0,0,0,0,0,0,0,0,0,0,0,0,0,0,0,7660,7658,0,0,0,0,0,7658,7658,0,0,0,0,0,0,0,0,0,0,0,0,0,0,0,0,0,0,0,0,0,0,0,0,0,0,0,0,7660,0,7658,0,0,7460,0,0,0,0,0,0,0,0,0,0,0,0,0,0,0,0,
0,0,0,0,0,0,0,0,0,0,0,0,0,0,0,0,0,0,0,0,0,0,0,0,0,0,0,0,0,0,0,0,0,0,0,0,0,0,0,0,0,0,0,0,0,0,0,0,0,0,0,0,0,0,0,0,0,0,0,0,0,0,0,0,0,0,0,0,0,0,0,0,0,0,0,0,0,0,0,0,0,0,0,0,0,0,0,0,0,0,0,0,0,0,0,0,0,0,0,0,0,0,0,0,0,0,0,0,0,0,0,0,0,0,0,0,0,0,0,0,0,0,0,0,0,0,0,0,0,0,0,0,0,0,0,0,0,0,0,0,0,0,0,0,0,0,0,0,0,0,
0,0,0,0,0,0,0,0,0,0,0,0,0,0,0,0,0,0,0,0,0,0,0,0,0,0,0,0,0,0,0,0,0,0,0,0,0,0,0,0,0,0,0,0,0,0,0,0,0,0,0,0,0,0,0,0,0,0,0,0,0,0,0,0,0,0,0,0,0,0,0,0,0,0,0,0,0,0,0,0,0,0,0,0,0,0,0,0,0,0,0,0,0,0,0,0,0,0,0,0,0,0,0,0,0,0,0,0,0,0,0,0,0,0,0,0,0,0,0,0,0,0,0,0,0,0,0,0,0,0,0,0,0,0,0,0,0,0,0,0,0,0,0,0,0,0,0,0,0,0
</data>
 </layer>
 <layer id="6" name="Flag" width="150" height="15">
  <data encoding="csv">
0,0,0,0,0,0,0,0,0,0,0,0,0,0,0,0,0,0,0,0,0,0,0,0,0,0,0,0,0,0,0,0,0,0,0,0,0,0,0,0,0,0,0,0,0,0,0,0,0,0,0,0,0,0,0,0,0,0,0,0,0,0,0,0,0,0,0,0,0,0,0,0,0,0,0,0,0,0,0,0,0,0,0,0,0,0,0,0,0,0,0,0,0,0,0,0,0,0,0,0,0,0,0,0,0,0,0,0,0,0,0,0,0,0,0,0,0,0,0,0,0,0,0,0,0,0,0,0,0,0,0,0,0,0,0,0,0,0,0,0,0,0,0,0,0,0,0,0,0,0,
0,0,0,0,0,0,0,0,0,0,0,0,0,0,0,0,0,0,0,0,0,0,0,0,0,0,0,0,0,0,0,0,0,0,0,0,0,0,0,0,0,0,0,0,0,0,0,0,0,0,0,0,0,0,0,0,0,0,0,0,0,0,0,0,0,0,0,0,0,0,0,0,0,0,0,0,0,0,0,0,0,0,0,0,0,0,0,0,0,0,0,0,0,0,0,0,0,0,0,0,0,0,0,0,0,0,0,0,0,0,0,0,0,0,0,0,0,0,0,0,0,0,0,0,0,0,0,0,0,0,0,0,0,0,0,0,0,0,0,0,0,0,0,0,0,0,0,0,0,0,
0,0,0,0,0,0,0,0,0,0,0,0,0,0,0,0,0,0,0,0,0,0,0,0,0,0,0,0,0,0,0,0,0,0,0,0,0,0,0,0,0,0,0,0,0,0,0,0,0,0,0,0,0,0,0,0,0,0,0,0,0,0,0,0,0,0,0,0,0,0,0,0,0,0,0,0,0,0,0,0,0,0,0,0,0,0,0,0,0,0,0,0,0,0,0,0,0,0,0,0,0,0,0,0,0,0,0,0,0,0,0,0,0,0,0,0,0,0,0,0,0,0,0,0,0,0,0,0,0,0,0,0,0,0,0,0,0,0,0,0,0,0,0,0,0,0,0,0,0,0,
0,0,0,0,0,0,0,0,0,0,0,0,0,0,0,0,0,0,0,0,0,0,0,0,0,0,0,0,0,0,0,0,0,0,0,0,0,0,0,0,0,0,0,0,0,0,0,0,0,0,0,0,0,0,0,0,0,0,0,0,0,0,0,0,0,0,0,0,0,0,0,0,0,0,0,0,0,0,0,0,0,0,0,0,0,0,0,0,0,0,0,0,0,0,0,0,0,0,0,0,0,0,0,0,0,0,0,0,0,0,0,0,0,0,0,0,0,0,0,0,0,0,0,0,0,0,0,0,0,0,0,0,0,0,0,0,0,0,0,0,0,0,0,0,0,0,0,0,0,0,
0,0,0,0,0,0,0,0,0,0,0,0,0,0,0,0,0,0,0,0,0,0,0,0,0,0,0,0,0,0,0,0,0,0,0,0,0,0,0,0,0,0,0,0,0,0,0,0,0,0,0,0,0,0,0,0,0,0,0,0,0,0,0,0,0,0,0,0,0,0,0,0,0,0,0,0,0,0,0,0,0,0,0,0,0,0,0,0,0,0,0,0,0,0,0,0,0,0,0,0,0,0,0,0,0,0,0,0,0,0,0,0,0,0,0,0,0,0,0,0,0,0,0,0,0,0,0,0,0,0,0,0,0,0,0,0,0,0,0,0,0,0,0,0,0,0,0,0,0,0,
0,0,0,0,0,0,0,0,0,0,0,0,0,0,0,0,0,0,0,0,0,0,0,0,0,0,0,0,0,0,0,0,0,0,0,0,0,0,0,0,0,0,0,0,0,0,0,0,0,0,0,0,0,0,0,0,0,0,0,0,0,0,0,0,0,0,0,0,0,0,0,0,0,0,0,0,0,0,0,0,0,0,0,0,0,0,0,0,0,0,0,0,0,0,0,0,0,0,0,0,0,0,0,0,0,0,0,0,0,0,0,0,0,0,0,0,0,0,0,0,0,0,0,0,0,0,0,0,0,0,0,0,0,0,0,0,0,0,0,0,0,0,0,0,0,0,0,0,0,0,
0,0,0,0,0,0,0,0,0,0,0,0,0,0,0,0,0,0,0,0,0,0,0,0,0,0,0,0,0,0,0,0,0,0,0,0,0,0,0,0,0,0,0,0,0,0,0,0,0,0,0,0,0,0,0,0,0,0,0,0,0,0,0,0,0,0,0,0,0,0,0,0,0,0,0,0,0,0,0,0,0,0,0,0,0,0,0,0,0,0,0,0,0,0,0,0,0,0,0,0,0,0,0,0,0,0,0,0,0,0,0,0,0,0,0,0,0,0,0,0,0,0,0,0,0,0,0,0,0,0,0,0,0,0,0,0,0,0,0,0,0,0,0,0,0,0,0,0,0,0,
0,0,0,0,0,0,0,0,0,0,0,0,0,0,0,0,0,0,0,0,0,0,0,0,0,0,0,0,0,0,0,0,0,0,0,0,0,0,0,0,0,0,0,0,0,0,0,0,0,0,0,0,0,0,0,0,0,0,0,0,0,0,0,0,0,0,0,0,0,0,0,0,0,0,0,0,0,0,0,0,0,0,0,0,0,0,0,0,0,0,0,0,0,0,0,0,0,0,0,0,0,0,0,0,0,0,0,0,0,0,0,0,0,0,0,0,0,0,0,0,0,0,0,0,0,0,0,0,0,0,0,0,0,0,0,0,0,0,0,0,0,0,0,0,0,0,0,0,0,0,
0,0,0,0,0,0,0,0,0,0,0,0,0,0,0,0,0,0,0,0,0,0,0,0,0,0,0,0,0,0,0,0,0,0,0,0,0,0,0,0,0,0,0,0,0,0,0,0,0,0,0,0,0,0,0,0,0,0,0,0,0,0,0,0,0,0,0,0,0,0,0,0,0,0,0,0,0,0,0,0,0,0,0,0,0,0,0,0,0,0,0,0,0,0,0,0,0,0,0,0,0,0,0,0,0,0,0,0,0,0,0,0,0,0,0,0,0,0,0,0,0,0,0,0,0,0,0,0,0,0,0,0,0,0,0,0,0,0,0,0,0,0,0,0,0,0,0,0,0,0,
0,0,0,0,0,0,0,0,0,0,0,0,0,0,0,0,0,0,0,0,0,0,0,0,0,0,0,0,0,0,0,0,0,0,0,0,0,0,0,0,0,0,0,0,0,0,0,0,0,0,0,0,0,0,0,0,0,0,0,0,0,0,0,0,0,0,0,0,0,0,0,0,0,0,0,0,0,0,0,0,0,0,0,0,0,0,0,0,0,0,0,0,0,0,0,0,0,0,0,0,0,0,0,0,0,0,0,0,0,0,0,0,0,0,0,0,0,0,0,0,0,0,0,0,0,0,0,0,0,0,0,0,0,0,0,0,0,0,0,0,0,0,0,0,0,0,0,0,0,0,
0,0,0,0,0,0,0,0,0,0,0,0,0,0,0,0,0,0,0,0,0,0,0,0,0,0,0,0,0,0,0,0,0,0,0,0,0,0,0,0,0,0,0,0,0,0,0,0,0,0,0,0,0,0,0,0,0,0,0,0,0,0,0,0,0,0,0,0,0,0,0,0,0,0,0,0,0,0,0,0,0,0,0,0,0,0,0,0,0,0,0,0,0,0,0,0,0,0,0,0,0,0,0,0,0,0,0,0,0,0,0,0,0,0,0,0,0,0,0,0,0,0,0,0,0,0,0,0,0,0,0,0,0,0,0,0,0,0,0,0,0,0,0,0,0,0,0,0,0,0,
0,0,0,0,0,0,0,0,0,0,0,0,0,0,0,0,0,0,0,0,0,0,0,0,0,0,0,0,0,0,0,0,0,0,0,0,0,0,0,0,0,0,0,0,0,0,0,0,0,0,0,0,0,0,0,0,0,0,0,0,0,0,0,0,0,0,0,0,0,0,0,0,0,0,0,0,0,0,0,0,0,0,0,0,0,0,0,0,0,0,0,0,0,0,0,0,0,0,0,0,0,0,0,0,0,0,0,0,0,0,0,0,0,0,0,0,0,0,0,0,0,0,0,0,0,0,0,0,0,0,0,0,0,0,0,0,0,0,0,0,0,0,0,0,0,0,0,0,0,0,
0,0,0,0,0,0,0,0,0,0,0,0,0,0,0,0,0,0,0,0,0,0,0,0,0,0,0,0,0,0,0,0,0,0,0,0,0,0,0,0,0,0,0,0,0,0,0,0,0,0,0,0,0,0,0,0,0,0,0,0,0,0,0,0,0,0,0,0,0,0,0,0,0,0,0,0,0,0,0,0,0,0,0,0,0,0,0,0,0,0,0,0,0,0,0,0,0,0,0,0,0,0,0,0,0,0,0,0,0,0,0,0,0,0,0,0,0,0,0,0,0,0,0,0,0,0,0,0,0,0,0,0,0,0,0,0,0,0,0,0,0,0,0,0,0,0,0,0,0,0,
0,0,0,0,0,0,0,0,0,0,0,0,0,0,0,0,0,0,0,0,0,0,0,0,0,0,0,0,0,0,0,0,0,0,0,0,0,0,0,0,0,0,0,0,0,0,0,0,0,0,0,0,0,0,0,0,0,0,0,0,0,0,0,0,0,0,0,0,0,0,0,0,0,0,0,0,0,0,0,0,0,0,0,0,0,0,0,0,0,0,0,0,0,0,0,0,0,0,0,0,0,0,0,0,0,0,0,0,0,0,0,0,0,0,0,0,0,0,0,0,0,0,0,0,0,0,0,0,0,0,0,0,0,0,0,0,0,0,0,0,0,0,0,0,0,0,0,0,0,0,
0,0,0,0,0,0,0,0,0,0,0,0,0,0,0,0,0,0,0,0,0,0,0,0,0,0,0,0,0,0,0,0,0,0,0,0,0,0,0,0,0,0,0,0,0,0,0,0,0,0,0,0,0,0,0,0,0,0,0,0,0,0,0,0,0,0,0,0,0,0,0,0,0,0,0,0,0,0,0,0,0,0,0,0,0,0,0,0,0,0,0,0,0,0,0,0,0,0,0,0,0,0,0,0,0,0,0,0,0,0,0,0,0,0,0,0,0,0,0,0,0,0,0,0,0,0,0,0,0,0,0,0,0,0,0,0,0,0,0,0,0,0,0,0,0,0,0,0,0,0
</data>
 </layer>
 <layer id="7" name="Wrap" width="150" height="15">
  <data encoding="csv">
0,0,0,0,0,0,0,0,0,0,0,0,0,0,0,0,0,0,0,0,0,0,0,0,0,0,0,0,0,0,0,0,0,0,0,0,0,0,0,0,0,0,0,0,0,0,0,0,0,0,0,0,0,0,0,0,0,0,0,0,0,0,0,0,0,0,0,0,0,0,0,0,0,0,0,0,0,0,0,0,0,0,0,0,0,0,0,0,0,0,0,0,0,0,0,0,0,0,0,0,0,0,0,0,0,0,0,0,0,0,0,0,0,0,0,0,0,0,0,0,0,0,0,0,0,0,0,0,0,0,0,0,0,0,0,0,0,0,0,0,0,0,0,0,0,0,0,0,0,0,
0,0,0,0,0,0,0,0,0,0,0,0,0,0,0,0,0,0,0,0,0,0,0,0,0,0,0,0,0,0,0,0,0,0,0,0,0,0,0,0,0,0,0,0,0,0,0,0,0,0,0,0,0,0,0,0,0,0,0,0,0,0,0,0,0,0,0,0,0,0,0,0,0,0,0,0,0,0,0,0,0,0,0,0,0,0,0,0,0,0,0,0,0,0,0,0,0,0,0,0,0,0,0,0,0,0,0,0,0,0,0,0,0,0,0,0,0,0,0,0,0,0,0,0,0,0,0,0,0,0,0,0,0,0,0,0,0,0,0,0,0,0,0,0,0,0,0,0,0,0,
0,0,0,0,0,0,0,0,0,0,0,0,0,0,0,0,0,0,0,0,0,0,0,0,0,0,0,0,0,0,0,0,0,0,0,0,0,0,0,0,0,0,0,0,0,0,0,0,0,0,0,0,0,0,0,0,0,0,0,0,0,0,0,0,0,0,0,0,0,0,0,0,0,0,0,0,0,0,0,0,0,0,0,0,0,0,0,0,0,0,0,0,0,0,0,0,0,0,0,0,0,0,0,0,0,0,0,0,0,0,0,0,0,0,0,0,0,0,0,0,0,0,0,0,0,0,0,0,0,0,0,0,0,0,0,0,0,0,0,0,0,0,0,0,0,0,0,0,0,0,
0,0,0,0,0,0,0,0,0,0,0,0,0,0,0,0,0,0,0,0,0,0,0,0,0,0,0,0,0,0,0,0,0,0,0,0,0,0,0,0,0,0,0,0,0,0,0,0,0,0,0,0,0,0,0,0,0,0,0,0,0,0,0,0,0,0,0,0,0,0,0,0,0,0,0,0,0,0,0,0,0,0,0,0,0,0,0,0,0,0,0,0,0,0,0,0,0,0,0,0,0,0,0,0,0,0,0,0,0,0,0,0,0,0,0,0,0,0,0,0,0,0,0,0,0,0,0,0,0,0,0,0,0,0,0,0,0,0,0,0,0,0,0,0,0,0,0,0,0,0,
0,0,0,0,0,0,0,0,0,0,0,0,0,0,0,0,0,0,0,0,0,0,0,0,0,0,0,0,0,0,0,0,0,0,0,0,0,0,0,0,0,0,0,0,0,0,0,0,0,0,0,0,0,0,0,0,0,0,0,0,0,0,0,0,0,0,0,0,0,0,0,0,0,0,0,0,0,0,0,0,0,0,0,0,0,0,0,0,0,0,0,0,0,0,0,0,0,0,0,0,0,0,0,0,0,0,0,0,0,0,0,0,0,0,0,0,0,0,0,0,0,0,0,0,0,0,0,0,0,0,0,0,0,0,0,0,0,0,0,0,0,0,0,0,0,0,0,0,0,0,
0,0,0,0,0,0,0,0,0,0,0,0,0,0,0,0,0,0,0,0,0,0,0,0,0,0,0,0,0,0,0,0,0,0,0,0,0,0,0,0,0,0,0,0,0,0,0,0,0,0,0,0,0,0,0,0,0,0,0,0,0,0,0,0,0,0,0,0,0,0,0,0,0,0,0,0,0,0,0,0,0,0,0,0,0,0,0,0,0,0,0,0,0,0,0,0,0,0,0,0,0,0,0,0,0,0,0,0,0,0,0,0,0,0,0,0,0,0,0,0,0,0,0,0,0,0,0,0,0,0,0,0,0,0,0,0,0,0,0,0,0,0,0,0,0,0,0,0,0,0,
0,0,0,0,0,0,0,0,0,0,0,0,0,0,0,0,0,0,0,0,0,0,0,0,0,0,0,0,0,0,0,0,0,0,0,0,0,0,0,0,0,0,0,0,0,0,0,0,0,0,0,0,0,0,0,0,0,0,0,0,0,0,0,0,0,0,0,0,0,0,0,0,0,0,0,0,0,0,0,0,0,0,0,0,0,0,0,0,0,0,0,0,0,0,0,0,0,0,0,0,0,0,0,0,0,0,0,0,0,0,0,0,0,0,0,0,0,0,0,0,0,0,0,0,0,0,0,0,0,0,0,0,0,0,0,0,0,0,0,0,0,0,0,0,0,0,0,0,0,0,
0,0,0,0,0,0,0,0,0,0,0,0,0,0,0,0,0,0,0,0,0,0,0,0,0,0,0,0,0,0,0,0,0,0,0,0,0,0,0,0,0,0,0,0,0,0,0,0,0,0,0,0,0,0,0,0,0,0,0,0,0,0,0,0,0,0,0,0,0,0,0,0,0,0,0,0,0,0,0,0,0,0,0,0,0,0,0,0,0,0,0,0,0,0,0,0,0,0,0,0,0,0,0,0,0,0,0,0,0,0,0,0,0,0,0,0,0,0,0,0,0,0,0,0,0,0,0,0,0,0,0,0,0,0,0,0,0,0,0,0,0,0,0,0,0,0,0,0,0,0,
0,0,0,0,0,0,0,0,0,0,0,0,0,0,0,0,0,0,0,0,0,0,0,0,0,0,0,0,0,0,0,0,0,0,0,0,0,0,0,0,0,0,0,0,0,0,0,0,0,0,0,0,0,0,0,0,0,0,0,0,0,0,0,0,0,0,0,0,0,0,0,0,0,0,0,0,0,0,0,0,0,0,0,0,0,0,0,0,0,0,0,0,0,0,0,0,0,0,0,0,0,0,0,0,0,0,0,0,0,0,0,0,0,0,0,0,0,0,0,0,0,0,0,0,0,0,0,0,0,0,0,0,0,0,0,0,0,0,0,0,0,0,0,0,0,0,0,0,0,0,
0,0,0,0,0,0,0,0,0,0,0,0,0,0,0,0,0,0,0,0,0,0,0,0,0,0,0,0,0,0,0,0,0,0,0,0,0,0,0,0,0,0,0,0,0,0,0,0,0,0,0,0,0,0,0,0,0,0,0,0,0,0,0,0,0,0,0,0,0,0,0,0,0,0,0,0,0,0,0,0,0,0,0,0,0,0,0,0,0,0,0,0,0,0,0,0,0,0,0,0,0,0,0,0,0,0,0,0,0,0,0,0,0,0,0,0,0,0,0,0,0,0,0,0,0,0,0,0,0,0,0,0,0,0,0,0,0,0,0,0,0,0,0,0,0,0,0,0,0,0,
0,0,0,0,0,0,0,0,0,0,0,0,0,0,0,0,0,0,0,0,0,0,0,0,0,0,0,0,0,0,0,0,0,0,0,0,0,0,0,0,0,0,0,0,0,0,0,0,0,0,0,0,0,0,0,0,0,0,0,0,0,0,0,0,0,0,0,0,0,0,0,0,0,0,0,0,0,0,0,0,0,0,0,0,0,0,2758,2759,0,0,0,0,0,0,0,0,0,0,0,0,0,0,0,0,0,0,0,0,0,0,0,0,0,0,0,0,0,0,0,0,0,0,0,0,0,0,0,0,0,0,0,0,0,0,0,0,0,0,0,0,0,0,0,0,0,0,0,0,0,0,
0,0,0,0,0,0,0,0,0,0,0,0,0,0,0,0,0,0,0,0,0,0,0,0,0,0,0,0,0,0,0,0,0,0,0,0,0,0,0,0,0,0,0,0,0,0,0,0,0,0,0,0,0,0,0,0,0,0,0,0,0,0,0,0,0,0,0,0,0,0,0,0,0,0,0,0,0,0,0,0,0,0,0,0,0,0,2797,2798,0,0,0,0,0,0,0,0,0,0,0,0,0,0,0,0,0,0,0,0,0,0,0,0,0,0,0,0,0,0,0,0,0,0,0,0,0,0,0,0,0,0,0,0,0,0,0,0,0,0,0,0,0,0,0,0,0,0,0,0,0,0,
0,0,0,0,0,0,0,0,0,0,0,0,0,0,0,0,0,0,0,0,0,0,0,0,0,0,0,0,0,0,0,0,0,0,0,0,0,0,0,0,0,0,0,0,0,0,0,0,0,0,0,0,0,0,0,0,0,0,0,0,0,0,0,0,0,0,0,0,0,0,0,0,0,0,0,0,0,0,0,0,0,0,0,0,0,0,2797,2798,0,0,0,0,0,0,0,0,0,0,0,0,0,0,0,0,0,0,0,0,0,0,0,0,0,0,0,0,0,0,0,0,0,0,0,0,0,0,0,0,0,0,0,0,0,0,0,0,0,0,0,0,0,0,0,0,0,0,0,0,0,0,
0,0,0,0,0,0,0,0,0,0,0,0,0,0,0,0,0,0,0,0,0,0,0,0,0,0,0,0,0,0,0,0,0,0,0,0,0,0,0,0,0,0,0,0,0,0,0,0,0,0,0,0,0,0,0,0,0,0,0,0,0,0,0,0,0,0,0,0,0,0,0,0,0,0,0,0,0,0,0,0,0,0,0,0,0,0,0,0,0,0,0,0,0,0,0,0,0,0,0,0,0,0,0,0,0,0,0,0,0,0,0,0,0,0,0,0,0,0,0,0,0,0,0,0,0,0,0,0,0,0,0,0,0,0,0,0,0,0,0,0,0,0,0,0,0,0,0,0,0,0,
0,0,0,0,0,0,0,0,0,0,0,0,0,0,0,0,0,0,0,0,0,0,0,0,0,0,0,0,0,0,0,0,0,0,0,0,0,0,0,0,0,0,0,0,0,0,0,0,0,0,0,0,0,0,0,0,0,0,0,0,0,0,0,0,0,0,0,0,0,0,0,0,0,0,0,0,0,0,0,0,0,0,0,0,0,0,0,0,0,0,0,0,0,0,0,0,0,0,0,0,0,0,0,0,0,0,0,0,0,0,0,0,0,0,0,0,0,0,0,0,0,0,0,0,0,0,0,0,0,0,0,0,0,0,0,0,0,0,0,0,0,0,0,0,0,0,0,0,0,0
</data>
 </layer>
 <layer id="4" name="Collision" width="150" height="15">
  <data encoding="csv">
0,0,0,0,0,0,0,0,0,0,0,0,0,0,0,0,0,0,0,0,0,0,0,0,0,0,0,0,0,0,0,0,0,0,0,0,0,0,0,0,0,0,0,0,0,0,0,0,0,0,0,0,0,0,0,0,0,0,0,0,0,0,0,0,0,0,0,0,0,0,0,0,0,0,0,0,0,0,0,0,0,0,0,0,0,0,0,0,0,0,0,0,0,0,0,0,0,0,0,0,0,0,0,0,0,0,0,0,0,0,0,0,0,0,0,0,0,0,0,0,0,0,0,0,0,0,0,0,0,0,0,0,0,0,0,0,0,0,0,0,0,0,0,0,0,0,0,0,0,0,
0,0,0,0,0,0,0,0,0,0,0,0,0,0,0,0,0,0,0,0,0,0,0,0,0,0,0,0,0,0,0,0,0,0,0,0,0,0,0,0,0,0,0,0,0,0,0,0,0,0,0,0,0,0,0,0,0,0,0,0,0,0,0,0,0,0,0,0,0,0,0,0,0,0,0,0,0,0,0,0,0,0,0,0,0,0,0,0,0,0,0,0,0,0,0,0,0,0,0,0,0,0,0,0,0,0,0,0,0,0,0,0,0,0,0,0,0,0,0,0,0,0,0,0,0,0,0,0,0,0,0,0,0,0,0,0,0,0,0,0,0,0,0,0,0,0,0,0,0,0,
0,0,0,0,0,0,0,0,0,0,0,0,0,0,0,0,0,0,0,0,0,0,0,0,0,0,0,0,0,0,0,0,0,0,0,0,0,0,0,0,0,0,0,0,0,0,0,0,0,0,0,0,0,0,0,0,0,0,0,0,0,0,0,0,0,0,0,0,0,0,0,0,0,0,0,0,0,0,0,0,0,0,0,0,0,0,0,0,0,0,0,0,0,0,0,0,0,0,0,0,0,0,0,0,0,0,0,0,0,0,0,0,0,0,0,0,0,0,0,0,0,0,0,0,0,0,0,0,0,0,0,0,0,0,0,0,0,0,0,0,0,0,0,0,0,0,0,0,0,0,
0,0,0,0,0,0,0,0,0,0,0,0,0,0,0,0,0,0,0,0,0,0,0,0,0,0,0,0,0,0,0,0,0,0,0,0,0,0,0,0,0,0,0,0,0,0,0,0,0,0,0,0,0,0,0,0,0,0,0,0,0,0,0,0,0,0,0,0,0,0,0,0,0,0,0,0,0,0,0,0,0,0,0,0,0,0,0,0,0,0,0,0,0,0,0,0,0,0,0,0,0,0,0,0,0,0,0,0,0,0,0,0,0,0,0,0,0,0,0,0,0,0,0,0,0,0,0,0,0,0,0,0,0,0,0,0,0,0,0,0,0,0,0,0,0,0,0,0,0,0,
0,0,0,0,0,0,0,0,0,0,0,0,0,0,0,0,0,0,0,0,0,0,0,0,0,0,0,0,0,0,0,0,0,0,0,0,0,0,0,0,0,0,0,0,0,0,0,0,0,0,0,0,0,0,0,0,0,0,0,0,0,0,0,0,0,0,0,0,0,0,0,0,0,0,0,0,0,0,0,0,0,0,0,0,0,0,0,0,0,0,0,0,0,0,0,0,0,0,0,0,0,0,0,0,0,0,0,0,0,0,0,0,0,0,0,0,0,0,0,0,0,0,0,0,0,0,0,0,0,0,0,0,0,0,0,0,0,0,0,0,0,0,0,0,0,0,0,0,0,0,
0,0,0,0,0,0,0,0,0,0,0,0,0,0,0,0,0,0,0,0,0,0,0,0,0,0,0,0,0,0,0,0,0,0,0,0,0,0,0,0,0,0,0,0,0,0,0,0,0,0,0,0,0,0,0,0,0,0,0,0,0,0,0,0,0,0,0,0,0,0,0,0,0,0,0,0,0,0,0,0,0,0,0,0,0,0,0,0,0,0,0,0,0,0,0,0,0,0,0,0,0,0,0,0,0,0,0,0,0,0,0,0,0,0,0,0,0,0,0,0,0,0,0,0,0,0,0,0,0,0,0,0,0,0,0,0,0,0,0,0,0,0,0,0,0,0,0,0,0,0,
0,0,0,0,0,0,0,0,0,0,0,0,0,0,0,0,0,0,0,0,0,0,0,0,0,0,0,0,0,0,0,0,0,0,0,0,0,0,0,0,0,0,0,0,0,0,0,0,0,0,0,0,0,0,0,0,0,0,0,0,0,0,0,0,0,0,0,0,0,0,0,0,0,0,0,0,0,0,0,0,0,0,0,0,0,0,0,0,0,0,0,0,0,0,0,0,0,0,0,0,0,0,0,0,0,0,0,0,0,0,0,0,0,0,0,0,0,0,0,0,0,0,0,0,0,0,0,0,0,0,0,0,0,0,0,0,0,0,0,0,0,0,0,0,0,0,0,0,0,0,
0,0,0,0,0,0,0,0,0,0,0,0,0,0,0,0,0,0,0,0,0,0,0,0,0,0,0,0,0,0,0,0,0,0,0,0,0,0,0,0,0,0,0,0,0,0,0,0,0,0,0,0,0,0,0,0,0,0,0,0,0,0,0,0,0,0,0,0,0,0,0,0,0,0,0,0,0,0,0,0,0,0,0,0,0,0,0,0,0,0,0,0,0,0,0,0,0,0,0,0,0,0,0,0,0,0,0,0,0,0,0,0,0,0,0,0,0,0,0,0,0,0,0,0,0,0,0,0,0,0,0,0,0,0,0,0,0,0,0,0,0,0,0,0,0,0,0,0,0,0,
0,0,0,0,0,0,0,0,0,0,0,0,0,0,0,0,0,0,0,0,0,0,0,0,0,0,0,0,0,0,0,0,0,0,0,0,0,0,0,0,0,0,0,0,0,0,0,0,0,0,0,0,0,0,0,0,0,0,0,0,0,0,0,0,0,0,0,0,0,0,0,0,0,0,0,0,0,0,0,0,0,0,0,0,0,0,0,0,0,0,0,0,0,0,0,0,0,0,0,0,0,0,0,0,0,0,0,0,0,0,0,0,0,0,0,0,0,0,0,0,0,0,0,0,0,0,0,0,0,0,0,0,0,0,0,0,0,0,0,0,0,0,0,0,0,0,0,0,0,0,
0,0,0,0,0,0,0,0,0,0,0,0,0,0,0,0,0,0,0,0,0,0,0,0,0,0,0,0,0,0,0,0,0,0,0,0,0,0,0,0,0,0,0,0,0,0,0,0,0,0,0,0,0,0,0,0,0,0,0,0,0,0,0,0,0,0,0,0,0,0,0,0,0,0,0,0,0,0,0,0,0,0,0,0,0,0,0,0,0,0,0,0,0,0,0,0,0,0,0,0,0,0,0,0,0,0,0,0,0,0,0,0,0,0,0,0,0,0,0,0,0,0,0,0,0,0,0,0,0,0,0,0,0,0,0,0,0,0,0,0,0,0,0,0,0,0,0,0,0,0,
0,0,0,0,0,0,0,0,0,0,0,0,0,0,0,0,0,0,0,0,0,0,0,0,0,0,0,0,0,0,0,0,0,0,0,0,0,0,0,0,0,0,0,0,0,0,0,0,0,0,0,0,0,0,0,0,0,0,0,0,0,0,0,0,0,0,0,0,0,0,0,0,0,0,0,0,0,0,0,0,0,0,0,0,0,0,0,0,0,0,0,0,0,0,0,0,0,0,0,0,0,0,0,0,0,0,0,0,0,0,0,0,0,0,0,0,0,0,0,0,0,0,0,0,0,0,0,0,0,0,0,0,0,0,0,0,0,0,0,0,0,0,0,0,0,0,0,0,0,0,
0,0,0,0,0,0,0,0,0,0,0,0,0,0,0,0,0,0,0,0,0,0,0,0,0,0,0,0,0,0,0,0,0,0,0,0,0,0,0,0,0,0,0,0,0,0,0,0,0,0,0,0,0,0,0,0,0,0,0,0,0,0,0,0,0,0,0,0,0,0,0,0,0,0,0,0,0,0,0,0,0,0,0,0,0,0,0,0,0,0,0,0,0,0,0,0,0,0,0,0,0,0,0,0,0,0,0,0,0,0,0,0,0,0,0,0,0,0,0,0,0,0,0,0,0,0,0,0,0,0,0,0,0,0,0,0,0,0,0,0,0,0,0,0,0,0,0,0,0,0,
0,0,0,0,0,0,0,0,0,0,0,0,0,0,0,0,0,0,0,0,0,0,0,0,0,0,0,0,0,0,0,0,0,0,0,0,0,0,0,0,0,0,0,0,0,0,0,0,0,0,0,0,0,0,0,0,0,0,0,0,0,0,0,0,0,0,0,0,0,0,0,0,0,0,0,0,0,0,0,0,0,0,0,0,0,0,0,0,0,0,0,0,0,0,0,0,0,0,0,0,0,0,0,0,0,0,0,0,0,0,0,0,0,0,0,0,0,0,0,0,0,0,0,0,0,0,0,0,0,0,0,0,0,0,0,0,0,0,0,0,0,0,0,0,0,0,0,0,0,0,
0,0,0,0,0,0,0,0,0,0,0,0,0,0,0,0,0,0,0,0,0,0,0,0,0,0,0,0,0,0,0,0,0,0,0,0,0,0,0,0,0,0,0,0,0,0,0,0,0,0,0,0,0,0,0,0,0,0,0,0,0,0,0,0,0,0,0,0,0,0,0,0,0,0,0,0,0,0,0,0,0,0,0,0,0,0,0,0,0,0,0,0,0,0,0,0,0,0,0,0,0,0,0,0,0,0,0,0,0,0,0,0,0,0,0,0,0,0,0,0,0,0,0,0,0,0,0,0,0,0,0,0,0,0,0,0,0,0,0,0,0,0,0,0,0,0,0,0,0,0,
0,0,0,0,0,0,0,0,0,0,0,0,0,0,0,0,0,0,0,0,0,0,0,0,0,0,0,0,0,0,0,0,0,0,0,0,0,0,0,0,0,0,0,0,0,0,0,0,0,0,0,0,0,0,0,0,0,0,0,0,0,0,0,0,0,0,0,0,0,0,0,0,0,0,0,0,0,0,0,0,0,0,0,0,0,0,0,0,0,0,0,0,0,0,0,0,0,0,0,0,0,0,0,0,0,0,0,0,0,0,0,0,0,0,0,0,0,0,0,0,0,0,0,0,0,0,0,0,0,0,0,0,0,0,0,0,0,0,0,0,0,0,0,0,0,0,0,0,0,0
</data>
 </layer>
 <objectgroup id="13" name="Ground" visible="0" locked="1">
  <object id="2" x="1" y="207.5" width="1118.5" height="32.5"/>
  <object id="4" x="1264.5" y="207.5" width="1135" height="32"/>
  <object id="5" x="288" y="191.75" width="80" height="15.5"/>
  <object id="6" x="303.75" y="176.75" width="64" height="15.75"/>
  <object id="7" x="320.5" y="160.5" width="47.25" height="16.25"/>
  <object id="8" x="336.75" y="144" width="30.75" height="16"/>
  <object id="9" x="352.25" y="128.25" width="15.5" height="15"/>
  <object id="10" x="512.75" y="144.75" width="16" height="62.75"/>
  <object id="11" x="528.75" y="176.5" width="15.25" height="31"/>
  <object id="12" x="560.25" y="111.75" width="96" height="16.5"/>
  <object id="19" x="720.022" y="175.989">
   <polyline points="0,0 -0.0111111,14.9667 1.95556,15.0111 1.97778,32.0333 29.8528,31.9486 29.8528,15.0736 31.9231,15.0345 31.97,0.0111111"/>
  </object>
  <object id="23" x="847.875" y="79.875" width="0.5"/>
  <object id="24" x="847.75" y="79.875" width="80.25" height="16.125"/>
  <object id="25" x="847.875" y="143.75" width="0.125"/>
  <object id="26" x="847.625" y="143.625" width="80.5" height="16.5"/>
  <object id="28" x="960.182" y="143.636" width="31.6364" height="16.3636"/>
  <object id="29" x="991.818" y="79.6364" width="64.7273" height="16.7273"/>
  <object id="30" x="752" y="143.909">
   <polygon points="0,0 0.0909091,15 1.90909,15.1818 2.09091,64.0909 30,63.8182 30,15 31.9333,15.0687 32,0.0242424"/>
  </object>
  <object id="32" x="1087.88" y="176">
   <polygon points="0,0 0.125,14.9375 2.0625,15 2.125,31.8125 30.0625,31.9375 30.0625,15 32.1875,15.125 32.1875,-0.0625"/>
  </object>
  <object id="33" x="1119.75" y="143.75">
   <polygon points="0,0 0.25,16.375 16.375,16.375 16.375,96 64.375,96.25 64.125,16.125 79.75,15.875 80.375,0.25"/>
  </object>
  <object id="34" x="1184.25" y="96.25">
   <polygon points="0,0 -0.25,15.875 16.25,15.875 16,143.625 63.75,143.625 63.625,15.875 79.75,15.5682 80.1136,0.113636"/>
  </object>
  <object id="35" x="1376.13" y="160.25">
   <polygon points="0,0 -0.125,14.75 2.375,14.875 2.125,47.25 29.625,47.375 29.5,14.625 31.9375,14.75 31.9375,-0.3125"/>
  </object>
  <object id="36" x="1487.97" y="143.875">
   <polygon points="0,0 0,15.125 1.96875,15.1875 1.96875,64.0938 30,64.125 30,15.0938 32,15.125 32.0938,0.09375"/>
  </object>
  <object id="37" x="1423.5" y="96.25">
   <polygon points="0,0 0.625,15.5 48.375,15.5 48.75,-0.25"/>
  </object>
  <object id="38" x="1536.25" y="111.875">
   <polygon points="0,0 -0.125,15.875 47.75,16.125 47.75,0"/>
  </object>
  <object id="39" x="1471.87" y="31.8696">
   <polygon points="0,0 0.130435,16.087 48.087,16.087 48.1304,0.0434783"/>
  </object>
  <object id="40" x="1600.04" y="160">
   <polygon points="0,0 -0.0434783,14.913 1.82609,14.9565 1.91304,47.8261 29.913,47.8261 30,15 31.8261,15.0435 32,-0.0869565"/>
  </object>
  <object id="41" x="1680" y="192.125">
   <polygon points="0,0 -0.125,15.25 15.875,15.25 16.125,-0.125"/>
  </object>
  <object id="42" x="1712.5" y="176.25">
   <polygon points="0,0 -0.375,31.5 15.375,31.625 15.375,-0.625"/>
  </object>
  <object id="43" x="1744.25" y="143.875">
   <polygon points="0,0 -0.125,64.125 16,63.75 15.875,-0.125"/>
  </object>
  <object id="44" x="1776" y="143.375">
   <polygon points="0,0 0.25,64.375 15.75,64.375 15.75,0.25"/>
  </object>
  <object id="48" x="1919.91" y="160.043">
   <polygon points="0,0 0.0434783,15.0435 2,15 2,47.8696 30.1304,48 30.087,14.913 32.087,15 32.087,-0.173913"/>
  </object>
  <object id="49" x="1968.13" y="96">
   <polygon points="0,0 -0.125,16 47.75,15.9375 47.75,-0.125"/>
  </object>
  <object id="50" x="2031.88" y="127.875">
   <polygon points="0,0 0.1875,15.9375 32.125,16 32.0625,-0.125"/>
  </object>
  <object id="51" x="2063.81" y="79.8125">
   <polygon points="0,0 0.125,16.125 48.0625,16.125 48.25,0.125"/>
  </object>
  <object id="52" x="2145" y="64.75">
   <polygon points="0,0 -0.75,142.5 30.5,142.5 31,-0.75"/>
  </object>
  <object id="53" x="2223.88" y="207">
   <polygon points="0,0 -0.375,-14.5 15.125,-14.25 15.125,0.625"/>
  </object>
  <object id="54" x="1343.5" y="240.25">
   <polygon points="0,0 0.5,31.25 31,31.75 33.25,207.5 81,206.75 80.25,159.5 174.75,160 176.75,207.75 225.25,206.5 226,175.75 259.25,177.25 259.75,32 287.5,31.75 288.25,238.25 1,239.75"/>
  </object>
  <object id="56" x="1344" y="239.818" width="287.818" height="239.636"/>
  <object id="59" x="208.182" y="144" width="48.1818" height="16.1818"/>
  <object id="62" x="416.182" y="96" width="64" height="15.8182"/>
  <object id="63" x="415.818" y="143.818" width="16.1818" height="16.1818"/>
  <object id="64" x="0.25" y="32.25" width="15.5" height="175.25"/>
  <object id="67" x="1760.55" y="80.1818" width="15.2727" height="15.2727"/>
  <object id="68" x="2128" y="201.091" width="16.3636" height="6.36364"/>
  <object id="70" x="416.25" y="95.75" width="15.5" height="16"/>
  <object id="79" x="358.938" y="111.938">
   <polygon points="0,0 -4.03125,4.03125 -4.875,4.03125 -4.9375,7 -6.03125,7.03125 -6,7.96875 -7.0625,8 -7.0625,10.0313 -6,10.1563 -5.90625,11.9688 -3,12.0313 -2.9375,13 -3.96875,12.9375 -5.03125,14.0313 -5.0625,15.0313 -4,15.0313 -3.96875,16 6.9375,16.0938 7.0625,15.125 8.03125,15 8.03125,13.0625 7.09375,13 7.09375,12.0313 6.1875,11.9375 6.15625,11.0625 8,11.0938 8.03125,10 9.03125,10.125 9.0625,6.125 7.21875,6.03125 7.03125,5 8.96875,5.15625 8.96875,4 6.125,3.9375 6.125,2.03125 5.125,2 4.9375,1.125 4.0625,1.125 4.03125,0.09375"/>
  </object>
  <object id="88" x="646.979" y="191.979">
   <polygon points="0,0 -4.03125,4.03125 -4.875,4.03125 -4.9375,7 -6.03125,7.03125 -6,7.96875 -7.0625,8 -7.0625,10.0313 -6,10.1563 -5.90625,11.9688 -3,12.0313 -2.9375,13 -3.96875,12.9375 -5.03125,14.0313 -5.0625,15.0313 -4,15.0313 -3.96875,16 6.9375,16.0938 7.0625,15.125 8.03125,15 8.03125,13.0625 7.09375,13 7.09375,12.0313 6.1875,11.9375 6.15625,11.0625 8,11.0938 8.03125,10 9.03125,10.125 9.0625,6.125 7.21875,6.03125 7.03125,5 8.96875,5.15625 8.96875,4 6.125,3.9375 6.125,2.03125 5.125,2 4.9375,1.125 4.0625,1.125 4.03125,0.09375"/>
  </object>
  <object id="89" x="679.229" y="191.917">
   <polygon points="0,0 -4.03125,4.03125 -4.875,4.03125 -4.9375,7 -6.03125,7.03125 -6,7.96875 -7.0625,8 -7.0625,10.0313 -6,10.1563 -5.90625,11.9688 -3,12.0313 -2.9375,13 -3.96875,12.9375 -5.03125,14.0313 -5.0625,15.0313 -4,15.0313 -3.96875,16 6.9375,16.0938 7.0625,15.125 8.03125,15 8.03125,13.0625 7.09375,13 7.09375,12.0313 6.1875,11.9375 6.15625,11.0625 8,11.0938 8.03125,10 9.03125,10.125 9.0625,6.125 7.21875,6.03125 7.03125,5 8.96875,5.15625 8.96875,4 6.125,3.9375 6.125,2.03125 5.125,2 4.9375,1.125 4.0625,1.125 4.03125,0.09375"/>
  </object>
  <object id="90" x="870.917" y="192.042">
   <polygon points="0,0 -4.03125,4.03125 -4.875,4.03125 -4.9375,7 -6.03125,7.03125 -6,7.96875 -7.0625,8 -7.0625,10.0313 -6,10.1563 -5.90625,11.9688 -3,12.0313 -2.9375,13 -3.96875,12.9375 -5.03125,14.0313 -5.0625,15.0313 -4,15.0313 -3.96875,16 6.9375,16.0938 7.0625,15.125 8.03125,15 8.03125,13.0625 7.09375,13 7.09375,12.0313 6.1875,11.9375 6.15625,11.0625 8,11.0938 8.03125,10 9.03125,10.125 9.0625,6.125 7.21875,6.03125 7.03125,5 8.96875,5.15625 8.96875,4 6.125,3.9375 6.125,2.03125 5.125,2 4.9375,1.125 4.0625,1.125 4.03125,0.09375"/>
  </object>
  <object id="91" x="902.979" y="191.979">
   <polygon points="0,0 -4.03125,4.03125 -4.875,4.03125 -4.9375,7 -6.03125,7.03125 -6,7.96875 -7.0625,8 -7.0625,10.0313 -6,10.1563 -5.90625,11.9688 -3,12.0313 -2.9375,13 -3.96875,12.9375 -5.03125,14.0313 -5.0625,15.0313 -4,15.0313 -3.96875,16 6.9375,16.0938 7.0625,15.125 8.03125,15 8.03125,13.0625 7.09375,13 7.09375,12.0313 6.1875,11.9375 6.15625,11.0625 8,11.0938 8.03125,10 9.03125,10.125 9.0625,6.125 7.21875,6.03125 7.03125,5 8.96875,5.15625 8.96875,4 6.125,3.9375 6.125,2.03125 5.125,2 4.9375,1.125 4.0625,1.125 4.03125,0.09375"/>
  </object>
  <object id="80" x="1254.98" y="79.9764">
   <polygon points="0,0 -4.03125,4.03125 -4.875,4.03125 -4.9375,7 -6.03125,7.03125 -6,7.96875 -7.0625,8 -7.0625,10.0313 -6,10.1563 -5.90625,11.9688 -3,12.0313 -2.9375,13 -3.96875,12.9375 -5.03125,14.0313 -5.0625,15.0313 -4,15.0313 -3.96875,16 6.9375,16.0938 7.0625,15.125 8.03125,15 8.03125,13.0625 7.09375,13 7.09375,12.0313 6.1875,11.9375 6.15625,11.0625 8,11.0938 8.03125,10 9.03125,10.125 9.0625,6.125 7.21875,6.03125 7.03125,5 8.96875,5.15625 8.96875,4 6.125,3.9375 6.125,2.03125 5.125,2 4.9375,1.125 4.0625,1.125 4.03125,0.09375"/>
  </object>
  <object id="81" x="1382.97" y="143.938">
   <polygon points="0,0 -4.03125,4.03125 -4.875,4.03125 -4.9375,7 -6.03125,7.03125 -6,7.96875 -7.0625,8 -7.0625,10.0313 -6,10.1563 -5.90625,11.9688 -3,12.0313 -2.9375,13 -3.96875,12.9375 -5.03125,14.0313 -5.0625,15.0313 -4,15.0313 -3.96875,16 6.9375,16.0938 7.0625,15.125 8.03125,15 8.03125,13.0625 7.09375,13 7.09375,12.0313 6.1875,11.9375 6.15625,11.0625 8,11.0938 8.03125,10 9.03125,10.125 9.0625,6.125 7.21875,6.03125 7.03125,5 8.96875,5.15625 8.96875,4 6.125,3.9375 6.125,2.03125 5.125,2 4.9375,1.125 4.0625,1.125 4.03125,0.09375"/>
  </object>
  <object id="82" x="1478.98" y="191.96">
   <polygon points="0,0 -4.03125,4.03125 -4.875,4.03125 -4.9375,7 -6.03125,7.03125 -6,7.96875 -7.0625,8 -7.0625,10.0313 -6,10.1563 -5.90625,11.9688 -3,12.0313 -2.9375,13 -3.96875,12.9375 -5.03125,14.0313 -5.0625,15.0313 -4,15.0313 -3.96875,16 6.9375,16.0938 7.0625,15.125 8.03125,15 8.03125,13.0625 7.09375,13 7.09375,12.0313 6.1875,11.9375 6.15625,11.0625 8,11.0938 8.03125,10 9.03125,10.125 9.0625,6.125 7.21875,6.03125 7.03125,5 8.96875,5.15625 8.96875,4 6.125,3.9375 6.125,2.03125 5.125,2 4.9375,1.125 4.0625,1.125 4.03125,0.09375"/>
  </object>
  <object id="83" x="1511.05" y="15.9917">
   <polygon points="0,0 -4.03125,4.03125 -4.875,4.03125 -4.9375,7 -6.03125,7.03125 -6,7.96875 -7.0625,8 -7.0625,10.0313 -6,10.1563 -5.90625,11.9688 -3,12.0313 -2.9375,13 -3.96875,12.9375 -5.03125,14.0313 -5.0625,15.0313 -4,15.0313 -3.96875,16 6.9375,16.0938 7.0625,15.125 8.03125,15 8.03125,13.0625 7.09375,13 7.09375,12.0313 6.1875,11.9375 6.15625,11.0625 8,11.0938 8.03125,10 9.03125,10.125 9.0625,6.125 7.21875,6.03125 7.03125,5 8.96875,5.15625 8.96875,4 6.125,3.9375 6.125,2.03125 5.125,2 4.9375,1.125 4.0625,1.125 4.03125,0.09375"/>
  </object>
  <object id="84" x="1574.89" y="192.054">
   <polygon points="0,0 -4.03125,4.03125 -4.875,4.03125 -4.9375,7 -6.03125,7.03125 -6,7.96875 -7.0625,8 -7.0625,10.0313 -6,10.1563 -5.90625,11.9688 -3,12.0313 -2.9375,13 -3.96875,12.9375 -5.03125,14.0313 -5.0625,15.0313 -4,15.0313 -3.96875,16 6.9375,16.0938 7.0625,15.125 8.03125,15 8.03125,13.0625 7.09375,13 7.09375,12.0313 6.1875,11.9375 6.15625,11.0625 8,11.0938 8.03125,10 9.03125,10.125 9.0625,6.125 7.21875,6.03125 7.03125,5 8.96875,5.15625 8.96875,4 6.125,3.9375 6.125,2.03125 5.125,2 4.9375,1.125 4.0625,1.125 4.03125,0.09375"/>
  </object>
  <object id="85" x="1591.08" y="191.992">
   <polygon points="0,0 -4.03125,4.03125 -4.875,4.03125 -4.9375,7 -6.03125,7.03125 -6,7.96875 -7.0625,8 -7.0625,10.0313 -6,10.1563 -5.90625,11.9688 -3,12.0313 -2.9375,13 -3.96875,12.9375 -5.03125,14.0313 -5.0625,15.0313 -4,15.0313 -3.96875,16 6.9375,16.0938 7.0625,15.125 8.03125,15 8.03125,13.0625 7.09375,13 7.09375,12.0313 6.1875,11.9375 6.15625,11.0625 8,11.0938 8.03125,10 9.03125,10.125 9.0625,6.125 7.21875,6.03125 7.03125,5 8.96875,5.15625 8.96875,4 6.125,3.9375 6.125,2.03125 5.125,2 4.9375,1.125 4.0625,1.125 4.03125,0.09375"/>
  </object>
  <object id="86" x="2055.02" y="112.013">
   <polygon points="0,0 -4.03125,4.03125 -4.875,4.03125 -4.9375,7 -6.03125,7.03125 -6,7.96875 -7.0625,8 -7.0625,10.0313 -6,10.1563 -5.90625,11.9688 -3,12.0313 -2.9375,13 -3.96875,12.9375 -5.03125,14.0313 -5.0625,15.0313 -4,15.0313 -3.96875,16 6.9375,16.0938 7.0625,15.125 8.03125,15 8.03125,13.0625 7.09375,13 7.09375,12.0313 6.1875,11.9375 6.15625,11.0625 8,11.0938 8.03125,10 9.03125,10.125 9.0625,6.125 7.21875,6.03125 7.03125,5 8.96875,5.15625 8.96875,4 6.125,3.9375 6.125,2.03125 5.125,2 4.9375,1.125 4.0625,1.125 4.03125,0.09375"/>
  </object>
  <object id="87" x="2086.93" y="191.978">
   <polygon points="0,0 -4.03125,4.03125 -4.875,4.03125 -4.9375,7 -6.03125,7.03125 -6,7.96875 -7.0625,8 -7.0625,10.0313 -6,10.1563 -5.90625,11.9688 -3,12.0313 -2.9375,13 -3.96875,12.9375 -5.03125,14.0313 -5.0625,15.0313 -4,15.0313 -3.96875,16 6.9375,16.0938 7.0625,15.125 8.03125,15 8.03125,13.0625 7.09375,13 7.09375,12.0313 6.1875,11.9375 6.15625,11.0625 8,11.0938 8.03125,10 9.03125,10.125 9.0625,6.125 7.21875,6.03125 7.03125,5 8.96875,5.15625 8.96875,4 6.125,3.9375 6.125,2.03125 5.125,2 4.9375,1.125 4.0625,1.125 4.03125,0.09375"/>
  </object>
  <object id="92" x="230" y="144.043">
   <polygon points="0,0 -4.82609,4.91304 -5.17391,6.95652 -6.04348,6.95652 -6.13043,10.8696 -5,10.9565 -5.13043,12 -2,12.087 -2.08696,14.9565 -1.08696,15 -1.17391,15.8696 5.13043,16 5.08696,15.0435 5.91304,15.0435 6.04348,12 9,12.0435 9,10.9565 9.95652,10.9565 10.087,6.91304 9.21739,6.91304 9.04348,5.04348 9.86957,4.91304 9.91304,4.04348 7.08696,3.91304 6.91304,2.86957 6.01667,2.93986 5.97222,1.9343 5.02222,1.94541 4.99444,0.962077 6,0.945411 5.98889,-0.0601449"/>
  </object>
  <object id="108" x="1494.03" y="32.0643">
   <polygon points="0,0 -4.82609,4.91304 -5.17391,6.95652 -6.04348,6.95652 -6.13043,10.8696 -5,10.9565 -5.13043,12 -2,12.087 -2.08696,14.9565 -1.08696,15 -1.17391,15.8696 5.13043,16 5.08696,15.0435 5.91304,15.0435 6.04348,12 9,12.0435 9,10.9565 9.95652,10.9565 10.087,6.91304 9.21739,6.91304 9.04348,5.04348 9.86957,4.91304 9.91304,4.04348 7.08696,3.91304 6.91304,2.86957 6.01667,2.93986 5.97222,1.9343 5.02222,1.94541 4.99444,0.962077 6,0.945411 5.98889,-0.0601449"/>
  </object>
  <object id="109" x="853.938" y="144.127">
   <polygon points="0,0 -4.82609,4.91304 -5.17391,6.95652 -6.04348,6.95652 -6.13043,10.8696 -5,10.9565 -5.13043,12 -2,12.087 -2.08696,14.9565 -1.08696,15 -1.17391,15.8696 5.13043,16 5.08696,15.0435 5.91304,15.0435 6.04348,12 9,12.0435 9,10.9565 9.95652,10.9565 10.087,6.91304 9.21739,6.91304 9.04348,5.04348 9.86957,4.91304 9.91304,4.04348 7.08696,3.91304 6.91304,2.86957 6.01667,2.93986 5.97222,1.9343 5.02222,1.94541 4.99444,0.962077 6,0.945411 5.98889,-0.0601449"/>
  </object>
  <object id="99" x="999.016" y="79.9688">
   <polygon points="0,0 1.96875,0.046875 1.95313,2 3.01563,2 2.96875,3.98438 4,4 3.98438,5.03125 7.96875,5.09375 7.95313,7.01563 6.95313,7.03125 6.95313,8.01563 5.96875,8.01563 5.96875,9.03125 4.98438,9.0625 4.95313,11.0156 5.98438,11 6.03125,14.0156 6.96875,14.0313 7.01563,15.9844 4.96875,16.0156 4.96875,15.0156 3.98438,15 3.96875,14.0313 2,14 1.96875,13 -0.046875,13.0156 -0.03125,13.9844 -2.01563,14.0313 -2.04688,14.9844 -3.01563,15.0625 -3.01563,16.0781 -4.98438,16.0469 -5.01563,14 -4.01563,14.0781 -4.01563,11.0469 -3.04688,10.9531 -3.04688,9.01563 -4.01563,9 -4.03125,8.03125 -5.04688,8.01563 -4.98438,7.01563 -6,7.04688 -6.03125,5.03125 -2.01563,5.01563 -2,4.03125 -1.03125,4.03125 -1,2.01563 -0.0625,2.03125"/>
  </object>
  <object id="100" x="933.956" y="184.956">
   <polygon points="0,0 -1.97778,0.0222222 -1.97778,1 -2.97778,1.06667 -2.91111,2.06667 -3.93333,2.04444 -4,4.06667 -4.97778,4.04444 -5.02222,6.02222 -5.95556,6.02222 -5.95556,10.0444 -4.95556,10.0444 -4.93333,11.0222 -2.95556,11.0222 -2.93333,10.0667 -2.02222,10 -1.95556,12.9556 -2.97778,12.9778 -3.02222,17 -2,17.0667 -1.93333,21.0444 -1,21.0444 -0.955556,21.9778 -0.0444444,22.0444 0.0222222,23.0444 2.02222,23.0444 2.06667,21.1111 5,21.1556 5.06667,23.0222 8.08889,23.0667 8.08889,22.1333 9.04444,22.0667 9.08889,18.0222 10,18.0222 10,16 9.02222,16.0222 9.04444,10.9778 8.11111,10.9333 8,8.95556 7.04444,8.93333 7.06667,8.08889 2.04444,8 2,4.04444 0.955556,4 1.08889,1.02222 0.0444444,1.02222"/>
  </object>
  <object id="101" x="933.956" y="184.956">
   <polygon points="0,0 -1.97778,0.0222222 -1.97778,1 -2.97778,1.06667 -2.91111,2.06667 -3.93333,2.04444 -4,4.06667 -4.97778,4.04444 -5.02222,6.02222 -5.95556,6.02222 -5.95556,10.0444 -4.95556,10.0444 -4.93333,11.0222 -2.95556,11.0222 -2.93333,10.0667 -2.02222,10 -1.95556,12.9556 -2.97778,12.9778 -3.02222,17 -2,17.0667 -1.93333,21.0444 -1,21.0444 -0.955556,21.9778 -0.0444444,22.0444 0.0222222,23.0444 2.02222,23.0444 2.06667,21.1111 5,21.1556 5.06667,23.0222 8.08889,23.0667 8.08889,22.1333 9.04444,22.0667 9.08889,18.0222 10,18.0222 10,16 9.02222,16.0222 9.04444,10.9778 8.11111,10.9333 8,8.95556 7.04444,8.93333 7.06667,8.08889 2.04444,8 2,4.04444 0.955556,4 1.08889,1.02222 0.0444444,1.02222"/>
  </object>
  <object id="102" x="485.943" y="184.878">
   <polygon points="0,0 -1.97778,0.0222222 -1.97778,1 -2.97778,1.06667 -2.91111,2.06667 -3.93333,2.04444 -4,4.06667 -4.97778,4.04444 -5.02222,6.02222 -5.95556,6.02222 -5.95556,10.0444 -4.95556,10.0444 -4.93333,11.0222 -2.95556,11.0222 -2.93333,10.0667 -2.02222,10 -1.95556,12.9556 -2.97778,12.9778 -3.02222,17 -2,17.0667 -1.93333,21.0444 -1,21.0444 -0.955556,21.9778 -0.0444444,22.0444 0.0222222,23.0444 2.02222,23.0444 2.06667,21.1111 5,21.1556 5.06667,23.0222 8.08889,23.0667 8.08889,22.1333 9.04444,22.0667 9.08889,18.0222 10,18.0222 10,16 9.02222,16.0222 9.04444,10.9778 8.11111,10.9333 8,8.95556 7.04444,8.93333 7.06667,8.08889 2.04444,8 2,4.04444 0.955556,4 1.08889,1.02222 0.0444444,1.02222"/>
  </object>
  <object id="103" x="502.099" y="184.941">
   <polygon points="0,0 -1.97778,0.0222222 -1.97778,1 -2.97778,1.06667 -2.91111,2.06667 -3.93333,2.04444 -4,4.06667 -4.97778,4.04444 -5.02222,6.02222 -5.95556,6.02222 -5.95556,10.0444 -4.95556,10.0444 -4.93333,11.0222 -2.95556,11.0222 -2.93333,10.0667 -2.02222,10 -1.95556,12.9556 -2.97778,12.9778 -3.02222,17 -2,17.0667 -1.93333,21.0444 -1,21.0444 -0.955556,21.9778 -0.0444444,22.0444 0.0222222,23.0444 2.02222,23.0444 2.06667,21.1111 5,21.1556 5.06667,23.0222 8.08889,23.0667 8.08889,22.1333 9.04444,22.0667 9.08889,18.0222 10,18.0222 10,16 9.02222,16.0222 9.04444,10.9778 8.11111,10.9333 8,8.95556 7.04444,8.93333 7.06667,8.08889 2.04444,8 2,4.04444 0.955556,4 1.08889,1.02222 0.0444444,1.02222"/>
  </object>
  <object id="104" x="2053.91" y="184.972">
   <polygon points="0,0 -1.97778,0.0222222 -1.97778,1 -2.97778,1.06667 -2.91111,2.06667 -3.93333,2.04444 -4,4.06667 -4.97778,4.04444 -5.02222,6.02222 -5.95556,6.02222 -5.95556,10.0444 -4.95556,10.0444 -4.93333,11.0222 -2.95556,11.0222 -2.93333,10.0667 -2.02222,10 -1.95556,12.9556 -2.97778,12.9778 -3.02222,17 -2,17.0667 -1.93333,21.0444 -1,21.0444 -0.955556,21.9778 -0.0444444,22.0444 0.0222222,23.0444 2.02222,23.0444 2.06667,21.1111 5,21.1556 5.06667,23.0222 8.08889,23.0667 8.08889,22.1333 9.04444,22.0667 9.08889,18.0222 10,18.0222 10,16 9.02222,16.0222 9.04444,10.9778 8.11111,10.9333 8,8.95556 7.04444,8.93333 7.06667,8.08889 2.04444,8 2,4.04444 0.955556,4 1.08889,1.02222 0.0444444,1.02222"/>
  </object>
  <object id="105" x="1461.97" y="185.038">
   <polygon points="0,0 -1.97778,0.0222222 -1.97778,1 -2.97778,1.06667 -2.91111,2.06667 -3.93333,2.04444 -4,4.06667 -4.97778,4.04444 -5.02222,6.02222 -5.95556,6.02222 -5.95556,10.0444 -4.95556,10.0444 -4.93333,11.0222 -2.95556,11.0222 -2.93333,10.0667 -2.02222,10 -1.95556,12.9556 -2.97778,12.9778 -3.02222,17 -2,17.0667 -1.93333,21.0444 -1,21.0444 -0.955556,21.9778 -0.0444444,22.0444 0.0222222,23.0444 2.02222,23.0444 2.06667,21.1111 5,21.1556 5.06667,23.0222 8.08889,23.0667 8.08889,22.1333 9.04444,22.0667 9.08889,18.0222 10,18.0222 10,16 9.02222,16.0222 9.04444,10.9778 8.11111,10.9333 8,8.95556 7.04444,8.93333 7.06667,8.08889 2.04444,8 2,4.04444 0.955556,4 1.08889,1.02222 0.0444444,1.02222"/>
  </object>
  <object id="106" x="425.933" y="96.0444">
   <polygon points="0,0 -3.86667,-0.111111 -3.93333,0.755556 -9.02222,6.91111 -7.93333,10.9556 -4.93333,11 -4.91111,11.9333 -6.02222,11.9111 -5.95556,14.9333 -4.95556,15.0444 -4.95556,15.6444 -0.955556,15.6667 -0.955556,14.9111 -0.0666667,14.9333 0.0666667,15.6444 1.08889,15.6 1.04444,14.9111 2,14.9111 2.08889,11.9333 1.13333,11.8444 1.13333,10.9556 4.02222,10.9111 5.08889,9.91111 5.04444,6.88889 3.08889,2.93333 1.06667,0.933333 0.0666667,0.933333"/>
  </object>
  <object id="107" x="1769.9" y="80.1563">
   <polygon points="0,0 -3.86667,-0.111111 -3.93333,0.755556 -9.02222,6.91111 -7.93333,10.9556 -4.93333,11 -4.91111,11.9333 -6.02222,11.9111 -5.95556,14.9333 -4.95556,15.0444 -4.95556,15.6444 -0.955556,15.6667 -0.955556,14.9111 -0.0666667,14.9333 0.0666667,15.6444 1.08889,15.6 1.04444,14.9111 2,14.9111 2.08889,11.9333 1.13333,11.8444 1.13333,10.9556 4.02222,10.9111 5.08889,9.91111 5.04444,6.88889 3.08889,2.93333 1.06667,0.933333 0.0666667,0.933333"/>
  </object>
  <object id="110" x="2143.81" y="178.125">
   <polygon points="0,0 -15.8125,-0.125 -15.875,1.875 -10.8125,1.875 -10.9375,5.5625 -12.0625,5.75 -11.9375,8.625 -12.8125,8.875 -14,9.875 -13.9375,14 -11.9375,13.875 -11.9375,16.75 -11,16.8125 -10.9375,20.375 -16.125,20.9375 -15.875,29.6875 0.1875,29.625 0.25,20.8125 -4.6875,20.75 -4.6875,16.9375 -3.8125,16.8125 -3.875,13.625 -1.9375,13.8125 -1.8125,9.8125 -2.875,9.8125 -2.875,8.625 -3.6875,8.8125 -3.75,5.75 -4.875,5.875 -4.75,1.9375 0.0625,1.875"/>
  </object>
  <object id="111" x="2225.25" y="40.5">
   <polygon points="0,0 2.5,8 5.5,9 4.66304,152.37 -1.59783,152.239 -1.25,167.152 13.837,167.5 13.7935,152.196 6.88043,152.239 6.75,23.7609 7.96739,23.5 21.7065,9.45652 21.75,8.41304 7.75,8.32609 7.79348,7.45652 8.48913,7.54348 8.79348,7.41304 8.75,6.5 9.66304,6.5 9.83696,2.36957 8.96739,2.41304 8.66304,1.41304 7.75,1.58696 7.61957,0.5 3.88043,0.5 3.75,1.41304 2.70652,1.41304 2.66304,2.41304 1.75,2.41304"/>
  </object>
 </objectgroup>
</map>
